/* XPM */
static char *_fe5d551a3ad457abb35719dc3b0a804s4p2gGTfaDAXPCpN[] = {
/* columns rows colors chars-per-pixel */
"300 329 256 2 ",
"   c None",
".  c #020202",
"X  c #0A0907",
"o  c #0B0B0B",
"O  c #080705",
"+  c #150E09",
"@  c #0F100D",
"#  c #11110E",
"$  c #19170C",
"%  c #141413",
"&  c #171816",
"*  c #191916",
"=  c #1C1C1C",
"-  c #1A1713",
";  c #0F1010",
":  c #24180E",
">  c #241B12",
",  c #291D13",
"<  c #351811",
"1  c #1F201E",
"2  c #1E2213",
"3  c #1C220E",
"4  c #26270F",
"5  c #2D2212",
"6  c #21211E",
"7  c #272716",
"8  c #332312",
"9  c #3C2B15",
"0  c #392918",
"q  c #2F371E",
"w  c #393119",
"e  c #1F2020",
"r  c #242524",
"t  c #2A2A26",
"y  c #2D2D2D",
"u  c #282827",
"i  c #352C26",
"p  c #2F3328",
"a  c #333A23",
"s  c #383F27",
"d  c #31312E",
"f  c #393F2B",
"g  c #373628",
"h  c #343433",
"j  c #373834",
"k  c #393A36",
"l  c #3B3B3B",
"z  c #393735",
"x  c #2E3031",
"c  c #1E1F20",
"v  c #531711",
"b  c #72170C",
"n  c #412E17",
"m  c #432E1B",
"M  c #44321A",
"N  c #4A351B",
"B  c #4D391D",
"V  c #423017",
"C  c #533B1E",
"Z  c #583A1E",
"A  c #572518",
"S  c #732B19",
"D  c #473726",
"F  c #563D21",
"G  c #593E21",
"H  c #553924",
"J  c #463A34",
"K  c #4A2C25",
"L  c #69372A",
"P  c #384026",
"I  c #39412A",
"U  c #374025",
"Y  c #3E4234",
"T  c #3F403D",
"R  c #5D4122",
"E  c #58422B",
"W  c #41423E",
"Q  c #434638",
"!  c #574638",
"~  c #644425",
"^  c #694626",
"/  c #6C4827",
"(  c #6D4929",
")  c #66432C",
"_  c #724B27",
"`  c #744D2A",
"'  c #794F2A",
"]  c #784726",
"[  c #7C512D",
"{  c #75502C",
"}  c #784B32",
"|  c #7C5335",
" . c #6E4C35",
".. c #74461E",
"X. c #3E3F40",
"o. c #3E4243",
"O. c #434343",
"+. c #474844",
"@. c #484946",
"#. c #4C4C4B",
"$. c #484747",
"%. c #51514E",
"&. c #5C544B",
"*. c #535353",
"=. c #5B5B5B",
"-. c #595856",
";. c #504F4D",
":. c #6B594F",
">. c #6F6359",
",. c #5D5F60",
"<. c #636463",
"1. c #6B6B6B",
"2. c #666868",
"3. c #737373",
"4. c #7D7C7C",
"5. c #797877",
"6. c #74706D",
"7. c #5E6061",
"8. c #860E05",
"9. c #891206",
"0. c #8B1707",
"q. c #911E06",
"w. c #8E1B12",
"e. c #972605",
"r. c #922C12",
"t. c #A53804",
"y. c #A8330B",
"u. c #923229",
"i. c #A63A2D",
"p. c #8F4815",
"a. c #AB4406",
"s. c #B74A07",
"d. c #B44F14",
"f. c #81542F",
"g. c #87582F",
"h. c #845631",
"j. c #865932",
"k. c #8C5C35",
"l. c #895839",
"z. c #915E37",
"x. c #945F39",
"c. c #9B5B33",
"v. c #8E4B31",
"b. c #B3502E",
"n. c #916037",
"m. c #946139",
"M. c #9B653B",
"N. c #9F683D",
"B. c #9E6136",
"V. c #8E643D",
"C. c #A1673D",
"Z. c #A36A3F",
"A. c #AD6736",
"S. c #B8632F",
"D. c #CA5709",
"F. c #D45E0B",
"G. c #C65513",
"H. c #D96617",
"J. c #D26212",
"K. c #C7592A",
"L. c #D07031",
"P. c #E87927",
"I. c #E47A38",
"U. c #E36F1A",
"Y. c #8D5447",
"T. c #B55149",
"R. c #92684C",
"E. c #A66C40",
"W. c #AA6E42",
"Q. c #A76943",
"!. c #AE7044",
"~. c #A6714A",
"^. c #B37347",
"/. c #B67548",
"(. c #B97749",
"). c #BD7A4B",
"_. c #B97343",
"`. c #B77353",
"'. c #867C76",
"]. c #A37B62",
"[. c #C37D4D",
"{. c #CA7F4F",
"}. c #C97546",
"|. c #CA754E",
" X c #C46B59",
".X c #F38838",
"XX c #85827E",
"oX c #B38A72",
"OX c #CE8252",
"+X c #C88356",
"@X c #D18555",
"#X c #D68A5A",
"$X c #D98D5D",
"%X c #D88758",
"&X c #D3834E",
"*X c #FC9547",
"=X c #E8935A",
"-X c #FB9B55",
";X c #E68A4E",
":X c #FFA25B",
">X c #DA8B65",
",X c #DE9262",
"<X c #D7956B",
"1X c #CE936F",
"2X c #E19565",
"3X c #E69A6A",
"4X c #E99D6D",
"5X c #E69766",
"6X c #EC9F70",
"7X c #E39A75",
"8X c #EC9864",
"9X c #EEA172",
"0X c #EBA57A",
"qX c #F0A374",
"wX c #F5AA7B",
"eX c #F6A46D",
"rX c #DEA079",
"tX c #7D8081",
"yX c #848383",
"uX c #8B8A8A",
"iX c #898786",
"pX c #9B9997",
"aX c #999896",
"sX c #938F8C",
"dX c #A39C99",
"fX c #B39687",
"gX c #AEA49C",
"hX c #A9A9A9",
"jX c #B6B3AE",
"kX c #CEAB96",
"lX c #F4AD83",
"zX c #F9B48A",
"xX c #FABB97",
"cX c #EBAA89",
"vX c #C6BBB1",
"bX c #E3B49B",
"nX c #FCC19D",
"mX c #FDC5A3",
"MX c #FCC9AA",
"NX c #FDCEB3",
"BX c #FDD5B9",
"VX c #E7C6B2",
"CX c #D4CCBB",
"ZX c #FFDCC3",
"AX c #FCDBC8",
"SX c #E8D9C7",
"DX c #FEE4C9",
"FX c #FDEBD4",
"GX c #FEF2D6",
"HX c #FEF3DC",
"JX c #EBE2D1",
"KX c #FDF7E7",
"LX c #FDFDFC",
"PX c #FDFBF5",
"IX c #FEEDE3",
"UX c #D6D3CD",
/* pixels */
"                                                                                                                                                                                                                                                                                                                                                                                                                                                                                                                                                                                                                        ",
"                                                                                                                                                                                                                                                                                                                                                                                                                                                                                                                                                                                                                        ",
"                                                                                                        9.                                                                                                                                                                                                                                                                                                                                                                                                                                                                                                              ",
"                                                                                                        9.                                                                                                                                                                                                                                                                                                                                                                                                                                                                                                              ",
"                                                                                                                                                                                                                                                                                                                                                                                                                                                                                                                                                                                                                        ",
"                                                                                                                                                                                                                                                                                                                                                                                                                                                                                                                                                                                                                        ",
"                                                                                                        9.                                                                                                                                                                                                                                                                                                                                                                                                                                                                                                              ",
"                                                                                                      9.9.                                                                                                                                                                                                                                                                                                                                                                                                                                                                                                              ",
"                                                                                                      9.9.                                                                                                                                                                                                                                                                                                                                                                                                                                                                                                              ",
"                                                                                                    9.9.9.                                                                                                                                                                                                                                                                                                                                                                                                                                                                                                              ",
"                                                                                                    9.9.9.9.                                                                                                                                                                                                                                                                                                                                                                                                                                                                                                            ",
"                                                                                        9.9.        9.9.9.9.9.                                                                                                                                                                                                                                                                                                                                                                                                                                                                                                          ",
"                                                                                        9.9.        9.9.9.9.9.                                                                                                                                                                                                                                                                                                                                                                                                                                                                                                          ",
"                                                                                                    9.9.9.9.9.                                                                                                                                                                                                                                                                                                                                                                                                                                                                                                          ",
"                                                                                                  9.9.q.e.q.8.v                                                                                                                                                                                                                                                                                                                                                                                                                                                                                                         ",
"                                                                                        9.9.    9.9.9.e.t.e.b < O O X                                                                                                                                                                                                                                                                                                                                                                                                                                                                                                   ",
"                                                                                        9.9.9.9.9.9.9.e.t.r.v : o o ; X                                                                                                                                                                                                                                                                                                                                                                                                                                                                                                 ",
"                                                                                        9.9.9.9.9.9.9.e.t.Z t = = = % o O O O                             O O O O O O                                                                                                                                                                                                                                                                                                                                                                                                                                                   ",
"                                                                                      9.8.8.8.8.9.9.9.r.b.L i r e = = % o X O                           X O O O O O O O                                                                                                                                                                                                                                                                                                                                                                                                                                                 ",
"                                                                                    9.0.w.r.r.w.0.9.0.i.T.} N i r r = = % X O                         O O X X X X X X X X                                                                                                                                                                                                                                                                                                                                                                                                                                               ",
"                                                                          9.9.8.9.9.8.w.b.}.}.b.w.0.t.b.T.} M i y x y r = % o                         . . X o o o o o o # %                                                                                                                                                                                                                                                                                                                                                                                                                                             ",
"                                                                          9.0.w.0.9.9.r.K.$X3X{.i.y.d.b.Y.} D i h k h y r % %                         X X # * - - % % % % % %                                                                                                                                                                                                                                                                                                                                                                                                                                           ",
"                                                                      9.9.9.r.i.u.0.e.t.G.I.8X4X%X|.b.v.} ^ G g h k k h r = = =                     8 : : 8 0 8 , = = = = = =                                                                                                                                                                                                                                                                                                                                                                                                                                           ",
"                                                                      9.9.q.i.T.i.e.t.s.G.I.4XlXlX>XT.v.../ ~ D h h h h y r = = <                   n n n N N 9 5 > = = = =                                                                                                                                                                                                                                                                                                                                                                                                                                             ",
"                                                              9.9.9.9.9.q.t.b.}.S.t.t.s.L.%XlXxXxX7XT.b.p.p.~ D y x h k h y u r v 9.                ^ ~ R ~ G n 5 6 r r r r                                                                                                                                                                                                                                                                                                                                                                                                                                             ",
"                                                              9.9.8.0.q.e.d.S.{.L.S.d.b.|.3XzXmXmXcX XS.d.p.~ D y y h h k k x t v 9.                ' ' ` ` ~ 9 , 6 r r r r =                                                                                                                                                                                                                                                                                                                                                                                                                                           ",
"                                                            9.9.9.9.q.t.d.b. X{.OX{.T.T.>XqXzXmXNXnX7X+XC.f.~ D y x y h l $.l t v 8.        9.9.    ' { [ [ ^ 0 = r r u t r % X                                                                                                                                                                                                                                                                                                                                                                                                                                         ",
"                                                          9.0.q.e.y.t.s.G. X{.,X2X,X|. X>XqXlXxXBXNXzX1XR.:.! z y y y y X.*.O.y < v b       9.      ' [ l.k.[ H i y y x y t = X                                                                                                                                                                                                                                                                                                                                                                                                                                         ",
"                                                        9.9.0.e.a.G.F.F.L.&X2X6XqX4X#XOX,X4X9XzXNXNXxXfX'.7.$.z x x y y O.=.#.h = + v 9.9.9.        ' g.z.M.z.` E J h k h y = X                                                                                                                                                                                                                                                                                                                                                                                                                                         ",
"                                                        9.8.0.r.b.b.K.L.L.%X2X9XqX6X@X).+X#X3XlXmXMXkXdXyX7.O.h h x y y $.<.=.l 1 + v 8.9.9.        p.p.p.B.M.j.( D z W l y = X                                                                                                                                                                                                                                                                                                                                                                                                                                         ",
"                                                      9.9.9.w.i.T.T.T.[.OX#X5XqXwX9X>X).).+X,X0XxXbXhXpXiX=.h h y y y y O.<.=.+.y > v 0.0.9.        s.s.d.A.C.k.` C D +.O.h = X                                                                                                                                                                                                                                                                                                                                                                                                                                         ",
"                                                    9.8.9.w.i. X>X>X>X,X,X5X0XzXzXzXcX7X,X$X2XrXkXgXpXsX4.#.u t h h y y h O.#.%.h 6 L u.w.8.        }.L.L._.W.m.[ C J %.O.h = X                                                                                                       o & = = % O O O O O                                                                                                                                                                                                                                                                                                               ",
"                                                    9.0.q.i.T.>XwXqX9X9X9XqXzXnXmXmXmXnXlX0X9XcXgXpXuXyX1.l = r y y y y y y O.-.o.h Y.T.i.w.      <X7X3X$XOX/.N.h.G E %.#.h = O O                                                                                                   X o = = = % X X X X X                                                                                                                                                                                                                                                                                                               ",
"                                                    9.q.t.S.@XcXzXwXqXzXzXzXnXNXNXNXZXDXNXmXzXbXgXaXyX3.=.y o = h h y y t t O.=.#.@.].>XT.i.w.w.c.1XlXwX2X#X+XW.j.G D ;.#.l r O O O                                                                                               X o % = = = = % % % % o X O O                                     O O O O O O O O                                                                                                                                                                                                                                                     ",
"                                                  w.w.r.d.S.@X6XzXlXlXxXmXMXNXBXZXDXFXGXDXBXMXbXgXuX3.,.O.r o = y y y y y t X.-.#.#.R.`.Y.u.r.i.Q.<XxXzX4X5X@X^.j.F D $.#.O.t % X O                                                                                             O X % = r r r r r c = = % o o o o                                 X o X X o o o X O O                                                                                                                                                                                                                                                   ",
"                                                9.w.i.T.T.T. X;X:XzXxXNXZXDXDXZXDXFXGXFXZXBXBXVXdXyX2.O.t = = r t r t y y t h $.$.O.J i , K u.T.{.0XxXzX9X5X@X(.l.D y O.O.O.h r % O                                                                                           O O o = t z k h h t r r r = = & & % %                         O O X % % % % % & & % X O O O O                                                                                                                                                                                                                                             ",
"                                              8.9.r.T.T.b.b.K.I.-XzXNXAXHXKXGXDXZXZXDXDXDXZXBXbXdXtX2.O.= % % = r r r t t t y k O.l u % O : L v.l.R.].].R.R.l.} G 6 c y h k z h r = y                                                                                       O O X % = y k l z z h h y r r r r = = % %                     O O X o = t t t r r = % o X O O O O                                                                                                                                                                                                                                           ",
"                                            9.9.9.u.T.b.d.s.J.P.-XnXAXKXLXPXKXFXBXmXNXZXFXDXMXbXdXyX1.O.= X O = r r r r r u t y k X.y = % # + - : - - $ + + + + # o o % 1 t h l l l O.O.                                                                                    O X o % r t x h h z l l h t r r r r r = % X                 O O O o % t k l k h u = = = ; O O O O O                                                                                                                                                                                                                                         ",
"                                          9.8.0.e.i.T.b.a.s.K.I.=XnXFXPXLXLXPXKXFXZXAXFXHXDXVXgXsX4.2.O.r X . % = r u r r r r t z O.h r * # o . . . . . . . . . . . O O % = r y x h h h r                                                                                   O X o & r t y y y h k k h h y t r r r = % o o               O O X o = t k k l k h y r r = % o ; o o X                                                                                                                                                                                                                                       ",
"                                        9.9.9.q.t.S.{.L.d.b.T.|.>XxXAXKXLXLXLXLXLXPXLXPXKXJXvXpXyX1.=.l r o . o * r u r r r r t k O.h r * % % o X O O O . . . . . . . . X % * * % * r r = o O . . . . . .                                                                 O O X @ * r t y x x h h y h k k y r r r r = % % %             O O X % = t h h h l X.k h t r = = = % # X X                                                                                                                                                                                                                                     ",
"                                        9.0.e.t.S.}.$X&XL.S. X|.@X0XMXGXPXLXLXLXLXLXLXPXKXJXjXsX3.=.$.h = X . X % = r r r r r t O.#.k r = % % % o o o X . . . . . . . X = r t r = & = = = = c = % o % = = = & % X . . . . . .                                           O O X @ % = r t t y x x y y h h k h y r r r r = = & *         O O O X % e t x y h h k h h h y r r = = % @ @ %                                                                                                                                                                                                                                   ",
"                                        8.0.t.d.}.#X3X5X,X#X@X@X#X4XzXBXKXPXLXLXLXLXLXPXIXSXjXiX7.O.z t = o O o % = = = = r r t O.*.k r % % # % % % % o X X X O . . o = t h k h r = = = = r h t = % = t h u = = % o X O X X X O                                           X o % = r r r t t y x y y y y h k h t r r r r = = = =     O O O O X % r t y y x y y y h l h t r r = = % % = =                                                                                                                                                                                                                                 ",
"                                      9.8.q.s.H.&X2X9X0XlXcX0X0X0XlXzXmXBXHXPXLXLXLXLXPXJXvXsX<.l t r r = % % % & % % % % = = r k $.h r o O O o % = & % % = = = % % r y y r r r = % % % % % % % X O X % r y y y h k h t x k h u h l l O.=.*.O.y = = = = =                 X % = r r r t y y x x y y h y h l l y r r r r r r = = = % X O O X o % c r y y y y y x h h k k h t r = = = = = =                                                                                                                                                                                                                               ",
"                                    9.9.8.q.s.H.%X3X9XlXxXmXmXmXmXmXmXmXBXFXKXPXLXLXLXKXCXpX3.$.r = = = r = = = = = % % % % % = y k y = o . . O % = = = = r r r r = r h t % # % & = = = 1 = o X o o % % = y h h k O.O.h l $.l h h h h h O.O.h r % % = = r               X X % = r r t t y x x x y x h y h l l h y r r r r r = = = % o O O o % & = r t y y y x y y y k l k x t r = = = = = =                                                                                                                                                                                                                             ",
"                                  9.9.9.8.q.t.K.%X3X4XlXxXBXDXDXDXDXDXDXFXKXPXLXLXLXPXJXjXtX7.O.r * = = = r r r r r r r r = = = r r r = % X . . O o % = r r r r = o % r r % # % r h h h O.T y h O.O.O.k y t r = = = % ; % = % o o ; ; % % % % X O X % r h k h r = = = = o X % = r t y y x y y y y h h h h h k l h t r r r r r = = % X O O o % & = r t y y x x h x y h h h h y r = = = = = =                                                                                                                                                                                                                             ",
"                                  8.8.9.8.0.t.d.&X,X2X0XzXBXFXHXKXKXKXKXKXPXLXLXLXLXKXCXsX:.&.J r = = = = r r r r r r r r r r = = = = = = % X . . O o = r r 1 r & O X = = # % = t h y h O.O.h k $.#.$.l h r r r 6 * = r = % % % % % % o o o % = r r = t h h y = % % % % o X % = r t y y y y y y y y x x y y h O.O.l h r r r r r % o X X O o % & = r t t y h x h x x y h k k h t r = = = = =                                                                                                                                                                                                                             ",
"                                  9.9.9.8.0.t.d.}.#X$X3XwXmXAXKXPXPXPXPXPXLXLXLXLXPXJXjXY.w.b A t r r r = = = = = = = * = r r r t t r r r = % X . . O % = = % & # O X = % X = h u = @ # = 6 = = 6 r 6 = = t k O.#.$.=.6.<.#.$.$.$.O.h y y h O.=.1.*.j r r r = X . O O O O X % = r t t y y y y y y y y y y y h l #.*.O.r r r r = % X @ o X o % & = r r r u y x x y x y h k O.k h r r r = = =                                                                                                                                                                                                                             ",
"                                0.e.e.e.e.e.t.d.S.L.L.}.;XqXMXFXPXLXLXLXLXLXLXLXPXKXUXdXv.0.8.b v i u r = = = = = = = % * = = r r r r r r 1 = % o o o % = % o o X . o r = O = h r # X . X # = 6 = = 1 1 r u h O.$.$.*.2.=.$.O.O.O.O.h h h h O.=.2.*.h r = r t h y r = % o X % = r r t t y y h h y y y y x x h k #.<.#.t r r r = o X # # o o % % = = 6 6 6 t y x y y y h h l O.O.y r r r = =                                                                                                                                                                                                                             ",
"                              0.e.t.t.t.t.a.a.a.a.d.J.H.H.;XlXBXKXPXLXLXLXLXLXLXPXFXjXuXY.S 0.9.b A t r r r r = = = = = & % % % % % % % % * = r r r r r c o . . . . % x r O % r = % # o O % y j h h h h h r = r r r r t t r r r r r r r r r r r t r r = = y O.1.3.*.O.h = X % = r r r r t y z h h x y y y y y h $.<.*.y r r r = o X # % % % % % % % - 2 7 r t y x x y y y h *.*.h r r r r c =                                                                                                                                                                                                                           ",
"                            0.e.t.s.s.D.J.L.L.L.L.L.;X;X=X9XxXBXHXPXLXLXLXLXLXKXKXFXjXuX'.R.u.r.r.S A i x y r r r r = = = % % % % % % % % % = = = r r r = % o % % % % = % O % r = % % @ . o x h y y y t r r r r r r r r r u x h h k $.*.*.O.k y u y h y t t k =.=.O.k h = o % = = r r t y h h h h h y y y y y y $.2.*.y r r r = o X % % % % o o @ $ $ 3 2 = r y h y y y y h *.=.z r r r r r =                                                                                                                                                                                                                           ",
"                  9.9.9.9.0.e.t.s.F.F.H..X*X8X6X6XqXzXmXNXBXBXDXHXPXLXLXLXLXKXGXGXFXjXsXpXsXY.' ] r.b A z x t t u r r = = = = = = = = = % % % % % = = = = = r t t r = X . . % r c = % o . o t t r = = o X r k k k k h h z k $.*.*.=.3.yXyX3.=.O.k O.*.O.h r = r r r = = * % % % = = r x l k t t y y x y h h y y $.3.=.h r r r = ; X % % % o X O o $ 4 * % % = y h y y y y h *.=.h t y t r r r                                                                                                                                                                                                                           ",
"9.      9.9.9.9.9.9.9.9.0.e.t.D.F.F.U..X.X:XzXnXnXMXBXDXIXIXIXKXKXPXLXLXLXLXKXGXFXAXgXuXhXhXXXR.V.v.r.S A K h h h t r r r r r r = = = = & % % = 6 r r r r r r t t t r = o . % r r = % @ O o r t r u t o O y O.X.k k h t h k k h k X.;.=.*.#.k y t d h y r = = r t t r & % & & & = = r h #.O.t = = r x h x h y y $.3.=.k t r r r % % % % o # $ @ X $ 4 $ X O % r y y y y y h *.=.l h h y r r r                                                                                                                                                                                                                           ",
"9.9.    9.9.9.9.9.9.9.9.q.t.s.F.F.F.P..X.X:XnXBXBXZXFXKXLXLXPXLXLXLXLXLXLXPXKXHXDXNXfX5.pXjXgXoX~.z.' S w.A J l z y t t t r r r r = = = = = = r t y y y y r r r r r t h r O ; e = = % o . X r t t h h % X h #.O.l O.x = r k t = = = = = r = = * * = r = * = r h k h t & % = = = = = r h *.#.y % O = y h y y y y $.3.<.l x t r r = * % @ X # 3 # X $ 3 # O . o r t y y y y h *.=.O.l l j r r r                                                                                                                                                                                                                           ",
"              9.9.9.9.9.0.e.t.s.F.F.U.P..X:XmXZXZXFXKXPXLXLXLXLXLXLXLXLXPXKXHXGXDXxX].:.].oXoXoXW.z.{ ] S S S J l z h h y t r r r r r r y y t r r r r r r r = = = = r t = @ o % % % o O . X = r r y t % X h *.#.*.=.W = u O.k t t r = * r t t t y z O.h y y y r r r = = = = = = = r r h $.O.u o . = y h y y y y *.4.1.O.h t t r = = % # @ # # o X # - # X . X 1 t y y y y h =.<.#.O.O.h t r r                                                                                                                                                                                                                           ",
"                9.9.9.9.9.9.e.t.s.F.F.J.P.-XxXNXNXAXKXLXPXLXLXPXPXLXPXLXKXGXGXGXBXxX]. .m.W.^.!.E.m.f.{ ] r.b A J k k l h y t t t t t y h h y r = = % = = = % % = = = % % % o X o o O . . X = r r r = X X h *.=.<.1.#.= y #.$.O.O.k 1 = j l k k k O.#.O.k h t % # % * = = = = = r r r y k k t % X = y h y y y y *.yX3.$.h h t r = = % # % @ o X X # % % o O X = r y h y y k =.2.*.O.O.k t r r                                                                                                                                                                                                                           ",
"                        9.9.0.q.t.s.s.d.L.=X0XzXzXmXAXHXKXPXLXKXKXKXKXKXHXGXGXGXDXMXfX>.| z.C.W.E.C.M.j.' ] S S S K j l k h k k h y j k h t r = = % X % = % X O o = % X o % % % X O X X . X = r = = % O X h *.=.<.1.#.= t #.*.*.=.*.u = k O.l k k h y h h = o O X = = = = = = = r r r r y h k t = r h h h y y y *.yX3.O.l h y r = = % @ o # $ # X $ 2 - # O X % r y h y y k =.2.%.O.O.l y t r                                                                                                                                                                                                                           ",
"                          9.9.9.e.t.t.t.S.&X=XeXeXwXnXBXDXGXIXFXDXDXFXGXGXGXGXGXDXVXdX6.} p.v.c.M.M.M.g.f._ ^ S b A i h h z k l k z O.O.y r = = % X . X % X . . O % o . . o % % o X % % X o = r = & % O X h *.=.<.1.#.= t #.*.=.2.<.y = l +.O.$.#.y & y k = X X % r r = = = = = = r r r r h l h r t y y y y y y *.iX3.$.l l h r = = % # @ $ 3 # X $ 3 $ @ @ @ % = y h h y z =.2.*.$.+.W h y t                                                                                                                                                                                                                           ",
"                                0.q.0.e.d.U.*X-X*X-X:XwXmXMXMXMXMXBXDXFXGXGXGXGXSXvXaX6.L 0.w.r.f.[ f.p.a.p._ Z A b A i y y y y k O.*.#.h r = % X . . . O . . . . O . . . . . O o % = & % % r r = & % O X h *.=.<.1.#.= t #.*.*.2.<.y 1 O.#.#.<.3.O.= h O.h y y t r r = = = = = = = r r r y h h y y y y y y y y =.sX4.#.O.O.h t r = % - 3 $ @ X O o o X o $ 3 - = y h x y h =.2.*.$.$.O.k h t                                                                                                                                                                                                                           ",
"                                  8.8.0.t.F.P..X.X.X*X:XwXzXxXxXnXNXDXHXHXGXGXGXSXvXhXiXY.u.S S S ] _ p.p.p._ R Z S S K i u r u j O.*.;.h r = % o X o X O O O O O O O O O O O O % = = * % * = = = % % O X y $.#.*.=.l = y $.;.*.<.=.t 6 O.*.*.3.iX*.= h *.$.#.=.$.r % % % % % % = = = r r t t y y y y y y y y y =.aXXX#.O.O.k d r = % $ $ $ o o o @ @ o o $ $ # = t x x y z =.2.=.#.$.O.l h t                                                                                                                                                                                                                           ",
"                                    8.0.t.s.F.H.H.P..X*X-XwXxXxXmXZXHXPXKXHXGXGXDXBXvXhXsX'.>.L w.S ~ R Z ~ ^ ~ ~ ~ ~ ~ D u r r y h $.#.k t = = = r r = % % % % # # # # # # # # % % % % = = % % % % % O O r h l l h r & t O.#.*.=.*.r 6 O.*.=.3.yX;.= k =.*.<.uX1.= . O . . . O % = = = r r t t x y y y y x y y =.aXXX#.O.O.W h t = % # o # % = * 2 3 $ # o X X % r y x y h =.2.=.#.$.O.l h t                                                                                                                                                                                                                           ",
"                                      0.e.t.s.D.F.H.P..X-XwXxXxXmXDXKXPXLXKXKXKXGXDXSXCXCXgX3.! v v H D D J E E E ~ ~ H g u r r t x O.$.k t = = r r t y t r = = = % % % % % % % % % % % = r = * % % # O . % r t r = % % u O.#.*.*.O.r 6 O.*.=.3.4.$.= l =.=.1.aX6.% . . . . . . # = = = = r r t h x y y y y y y -.sX4.;.O.O.O.k y = % o X o & = 2 2 2 - % @ o o = r y y y z =.2.=.#.$.O.l h t                                                                                                                                                                                                                           ",
"                                        9.q.t.s.F.F.H.I.=XwXxXxXmXDXKXPXLXPXPXPXKXGXFXFXGXCX4.J - - y j z l l k J E G i u r r r r y O.$.k t = = = r y h h h t r r = = % % % % % % % % = t y y r % % % X . o % % % O X % y O.#.#.$.k = 1 O.*.=.<.2.T = l =.=.2.iX<.% . . . . . . o % = = = r r t h h y y y y y y *.yX5.*.$.+.O.l y = % o X o % 2 2 * % % % * = = = r t y y z =.2.=.#.#.$.l h t                                                                                                                                                                                                                           ",
"                                          q.t.s.F.F.F.P.=XeXeXwXxXBXGXPXLXLXLXLXKXGXGXHXKXUX4.O.y 1 = = r h o.l l J J h y u r r r y O.#.k t r = = = r t t t r t t y t u r r r r r r r t h h h y r = = o . O X X O X % t l $.O.h r = o % t O.*.=.-.j = k *.=.2.iX<.% . . . . . . O o % = = = r t h h x y y y y y *.yX5.*.$.$.O.l t = % o X o % * 2 * & % * 2 2 = = r t y y z =.1.=.*.*.$.O.h r                                                                                                                                                                                                                           ",
"                                            a.s.D.F.F.P..X*X*X:XwXmXAXKXLXPXPXPXKXHXGXHXPXUXyX*.+.y # X % t l k z l l l h y t t r y $.*.l t r r = = = = = = = t h h k k h h h k h h h k k k k h y t r o . . . . O @ r k $.$.k r % X O X = y O.$.l r * h *.*.<.yX<.% . . . . . . . O % = = = r t y y y y y y y t #.yX3.*.#.#.$.l r * % o X o % * = = = = = 4 4 = = r t y y z =.1.<.*.*.$.O.h r                                                                                                                                                                                                                           ",
"                                            a.a.s.D.F.H.P..X*X-X:XwXmXAXHXKXKXKXHXGXGXGXKXJXdX3.%.h = = r r = = r k O.l k h h h y h $.*.l t r r = r r r = = r r t y h l l k h h h h h h h x x y t r = o . . . . O % r h l O.l h h y t r r r t r % X o d #.#.*.2.#.o . . . . . . . O = r r r r r t t t t t t t r O.3.1.*.#.*.#.W r % % o X o % * = = & = = 2 * & = r r t t h =.1.<.=.*.#.O.h r % X                                                                                                                                                                                                                       ",
"                                            a.a.t.s.D.F.F.P..X.X*X8XlXMXZXDXGXGXGXFXFXFXGXJXjXiX*.j t x h r o O % d l h h l O.l h h #.*.l t r c = r t r = = r r r r y l O.l h x h k h x t t u r r r = X . . . . O % r r y k l O.$.#.O.l h t = % o X o t l l l O.y X . . . . . . . O % = = = r r r r r r r r r r k =.=.#.#.$.O.k 6 % % o X X % * = % % * = = = % = r r r r h =.1.2.=.#.O.l y = o O                                                                                                                                                                                                                       ",
"                                              t.e.e.s.D.F.H.U.U.P.;X0XxXMXBXDXGXFXDXZXDXDXSXvXuX$.j k h y d y % X % * % t O.#.$.X.k #.*.l y r r = = r = = = = r r r y l O.l h t y h z h y t u r r r = X . . . . X = r r t y y h l O.O.l X.k h h h y t r 6 = % % o . . . . . . . . . X X X # & = r r r r = = = = r y l $.l h y u * # # o O X # % = % % % = = = * = r r r r y =.1.<.*.k h y r % o O O O O O O                                                                                                                                                                                                             ",
"                                                8.q.t.s.F.F.F.H.P.=XlXnXNXZXDXDXBXMXMXNXBXZXCXaX$.h O.h r z W r % % # X = l O.O.O.O.*.*.k t r r = = = = = = = = r r y l O.l h y t y h z h y t r r r = X . . . . X r t r u u r t h h h k l X.O.$.#.$.l t = & % ; o X O . . . . . . . . . . O o % = = = % % * = = * % r j h h y t 6 = = = % = 6 r r r 1 r r r r r r r r r r t $.=.*.O.t = = = % o O O O O O O O                                                                                                                                                                                                           ",
"                                                  0.q.t.s.D.F.P.*XwXnXBXDXFXZXMXxXlXlXzXMXZXFXjX%.k O.h r z O.h t j y % % = 1 r j #.=.*.k t r r = = = & % = = = = r y l O.l k h y t x h h y t r r e = X . . . . X r t r r r u u t y y y y h l l O.$.$.O.k l l h y r % . . . . . . . . . . . . O O X O O X # * 1 = % % 1 z $.$.O.k j z z z l O.O.O.l l l l k h y r = = = = = t h z d = % % % # X O O O O O O O O O O                                                                                                                                                                                                     ",
"                                                    8.e.t.s.F..X-XzXNXDXGXDXMXzX9X3X5X0XMXDXFXvX-.h h t r j T k k W k u 6 = = r x l %.*.$.k y r = = = % % % = = = r y l l k k l h y y y y t t r r c = X . . . . X r t r u r u u u r r r r t h h h l O.O.O.$.#.$.O.k t = % o X X O . . . . . . . . . . O X @ % = = - 2 y $.<.2.<.<.=.=.-.*.-.=.=.=.-.*.*.*.#.$.O.h r = = = = % = r r = = r r r = = % % o o o o o X O                                                                                                                                                                                                     ",
"                                                      0.q.e.s.P.-XzXMXDXDXMXzX4X$X@X%X0XNXFXDXkX-.u % % r y h T W j h l l h k l t r l *.=.;.h r = = = % % % % = = r y l l h k O.l h y t t t u r r c = X . . . . X r t r r u u u u u u u u t t t t y y h l l O.O.O.O.O.O.h t r = % o . . . . . O @ # # $ 3 - % % - 4 f *.2.3.yXyXyXyX3.1.2.2.2.2.2.2.2.<.=.=.*.*.O.t r r = = % % % = r h O.$.O.O.k y r = = = = = % X                                                                                                                                                                                                     ",
"                                                        9.e.s.P.-XwXxXBXNXzX4X#X|. X X>XVXDXZXkX7.h t r r r r k O.d h O.O.h k l y r y k X.l y r = = = = % % % % = r y W l h k O.X.k x t r u u r r r = X . . . . X r t r r r u u r r u u u u r r r r u y h h h h k l O.#.O.k z h d t r r t y y d h h d g g t r r t p Q =.7.<.6.5.3.1.<.<.=.*.*.*.*.*.*.;.#.$.$.$.X.h y y t r r r r r y k O.$.$.O.O.k h y t t t t = %                                                                                                                                                                                                     ",
"                                                        0.e.s.P.*XeXlXxXzX3X$XOX XT.T. XbXZXZXkX<.#.*.O.y = % h W y y W l y y h h h r & % & t t = = = = = = = % % = y O.O.k k k k k h y t r r u r r = o . . . . X r t u u u u u r r u r r r r r r r r t t t t t t h k O.O.O.O.$.$.#.*.=.<.<.<.<.=.-.*.#.$.O.W T l k O.#.Q Q #.*.$.O.O.O.O.h r r t t y t t t y h h k k k k k h h h z k k l l l l l k k k k k k k t =                                                                                                                                                                                                     ",
"                                                          t.s.H..X*X:XeX-XI.L.L.S.b.b. XbXZXZXkX<.#.*.%.o.u = h W l k l l l h y O.#.h = O o h h = = = = = = = % * 1 y O.O.l h h h h h h y t r u r r = o . . . . X r t u u u r r r r u r r r r r r r u r r r r r r t x h k k l l O.#.=.2.3.3.1.2.<.<.=.*.#.$.O.O.l l O.O.T k T O.l l k k l y & % % % % % % = t k l h h h h h z h h h h h h h h h h h h h h h h h t =                                                                                                                                                                                                     ",
"                                                          t.a.D.H..X*X*X.XH.F.F.s.d.L.7XmXZXZXkX-.O.%.-.-.O.h h l O.O.h k O.k y O.=.#.h % % h h r = = = = = = = = r y O.O.l h t y h z k h y t u u r r o . . . . X r t r r r r r r u u r r r r r r r u t u u u u r u r t y y y y h O.*.<.1.2.<.<.<.=.=.*.#.O.O.l k l l l l k l l O.O.l l O.d % X . . . . O % t O.O.h y y x x x x y y y y h h x x x x x x y y h y r =                                                                                                                                                                                                     ",
"                                                        0.q.e.t.D.H.P.P.U.F.D.t.t.G.;XzXBXDXZXgX@.k -.Y.c.:.*.k t h h y h l l k W $.-.*.y = = = = = = = r t h x t r y W O.l h h y t h h z h t r r r r o . . . . X r t r r r r r r r r u r r r r r r r r u r r r r r r r t t u u t h $.=.1.2.<.=.=.=.=.*.#.$.O.O.l k l k l l l l O.O.O.O.O.d % O . . . . . O = O.O.h y y x x x x y y y y h h x x y x x x x y y y r =                                                                                                                                                                                                     ",
"                                                        9.8.0.t.s.D.D.D.D.D.y.e.t.J.=XnXDXFXZXfXz x =.C.J.E.<.o.y y y u r t j O.j h *.=.O.r X X % = = = r k $.O.h t y O.O.k k k h t t h z h y t t r r o . . . . X r u r t t r r r r r r r u u r r r r r r r r r r r u u u u u u r y l *.<.<.=.=.=.=.=.*.#.$.O.O.O.l k k k k k l O.O.O.O.O.y % O . . . . . . % k l h y h x x x y h h h x y y x x y x x y y x h y r =                                                                                                                                                                                                     ",
"                                                    9.9.          e.e.e.e.y.y.t.t.d.;XzXNXZXNXoXz x =.C.G.M.<.=.*.*.O.u % % u l h t k $.*.l o . X % = = t #.,.*.O.t x +.O.h h X.k h t t h h y y y t r o . . . . X r u r t t r r r r r r u u u r r r r r t r r r r r r u u u r r r y k #.<.<.*.*.=.*.*.*.#.$.O.O.O.l h h h k k k l l O.O.O.t X . . . . . . . % k T h y d x x y y h h d x y x x h y x y t t y h x t r                                                                                                                                                                                                     ",
"                                                    9.            8.9.9.8.9.e.t.t.a.L.0XmXNXnXoXK K :.A.K.m.=.<.1.6.=.h = % r h y r r y #.O.= O X % = = t #.<.*.O.t h $.O.x z O.O.k y r t y h h y t r % . . . . X c u r t t r u u r r r u t t t u r r r u t r r r r r r r u r r r y l #.=.=.*.*.-.*.#.#.#.#.+.O.O.l z h h k k k k l O.O.O.r O . . . . . . . % l W h y x y y y y x x y y y y x h x x y t r y h y t r                                                                                                                                                                                                     ",
"                                                                      9.9.9.0.q.q.r.S.,XzXnXlX|.w.r.d.L.}.R.=.=.<.2.7.%.l h t t y t % % y k t = % % = = r W %.$.k t h $.O.k O.$.O.k h t u y h h x t r = o O . . X e t u t u r r u u u r u t y y u r r r t t t r r r r r r u r r r y l %.=.=.*.*.*.#.$.#.%.#.#.+.O.O.k h x h k k k l l l l r O . . . . . . . % l W h y y t r y y x y y y y y x x x x y y y y h y r =                                                                                                                                                                                                     ",
"                                                                      9.9.9.9.9.8.0.b.}.5XqXwX%Xb.b.I.=X<XR.#.*.=.>.>.7.=.#.O.k h r % o = y h y = = = = r h k h y r h $.#.O.$.#.$.O.k h h h k k h y r = % O . . X r t r r r r r r r u r t y y y t r r t u r r r r r r r r u r r r y l %.=.=.*.#.#.$.O.$.#.#.#.$.+.O.l h x x h k k k k l k r . . . . . . . . % k T h x y t r y h h h h h y y y y x y x x d x h x r =                                                                                                                                                                                                     ",
"                                                                                8.0.y.d.J.I.wXlX%X,XwXzXcX>.x #.>.S.A.>.<.2.2.<.O.r = & = u k k y r = = r r t u r r h *.*.O.$.#.#.$.O.O.O.W l k k h r = # O . . X r t r r r r r r r r t y y y y u r r r u r r u r r r r u u r r r y l #.=.=.*.#.$.O.O.O.$.$.$.$.+.O.T k h x h h h h k l k r . . . . . . . . % k l h y h y y y y h h y x y t r t y y x x h h h x r %                                                                                                                                                                                                     ",
"                                                                                  0.e.t.D.H.;X$X}.|.8XwXcXY.v ) B.L.S.>.2.1.1.1.*.o.k h r r z l k y = = r r r r r r h *.*.O.O.$.$.$.+.+.O.O.l l k h r & X . . . X r u r r r r r r r r t y h x t u r r r r r u u r r r r r u r r r y l #.=.=.#.O.O.O.O.O.O.O.O.O.O.O.O.k z h h y y h h k k r O . . . . . . . % k l h y y y y y y y y y y y t t y y y y x y y h y r %                                                                                                                                                                                                     ",
"                                                                                    9.e.s.F.H.G.r.y.H.;X$Xb.w.s.L.&X`.>.=.<.<.<.2.<.<.*.k y h z W h = = r r r r r r k =.*.O.l l l l O.O.O.O.O.O.k h r % . . . . X r u r r r r r r r u t y h y y t u r r r r u u u r r r r u r r r y l #.-.*.O.W l l l l l O.O.O.O.O.O.l l k h x x x h h k r O . . . . . . . % k l h y y y y y y y y y y y y y y x y y x y y d y r %                                                                                                                                                                                                     ",
"                                                                                    8.0.y.s.s.s.t.y.K.L.I.K.K.}.=XqXoX&.o.,.>.m.R.1.1.<.*.O.y r r r = = r r r r r r h =.=.O.l k k k k l O.$.O.O.l h r % . . . . X e t u r r r r r u u t y h h x t u u r r r u u u u r r r u r r r y l #.*.*.O.l l z h k l l O.O.O.O.O.l l l z h h h y h h = O . . . . . . . % h l h y y y y y y y y y y y y h h x y y h h h y y r %                                                                                                                                                                                                     ",
"                                                                                    9.9.9.q.t.s.F.K.T.b.J.L.$X0XzXxXoXD h :.N.G.M.<.1.1.1.=.h = X o = r r r r r r r k =.=.*.O.l l k h h O.#.+.O.l h r % . . . . X c t u u u u u u u t t y h k h t r u u u u u u r r r r r u u r r y l #.-.*.O.l l h h h k k l O.O.O.O.O.X.l k k l k h h x = O . . . . . . . % h k h y y y y y h y y y y y y h h y t y k l h h y r %                                                                                                                                                                                                     ",
"                                                                                      9.8.0.e.t.F.d.L S y.y.b.}.=XqX{.S S c.L.L.R.2.2.2.1.<.*.h O O = r r r y h h k #.<.<.*.O.l k k h k O.O.O.T k h r o . . . . X r t t t u u u u t t y y h k h t r u u u u u u u t r r r u u r r y l $.-.*.O.l k h x h h h h l l l O.O.O.l l k l k h h x = . . . . . . . . % h l h y y y y h h y h h h y y y x x y t t h k k h r =                                                                                                                                                                                                     ",
"                                                                                        9.9.9.y.D.p.0 v b 9.e.s.H.;X}.i.y.H..X#X].=.,.<.>.>.1.#.= % 6 = = r y h l $.=.<.2.=.#.l k l l l l k k k k h r o . . . . X r t y y r u u u t y h h h k h t u u u u t t u t t t t u u u u r y l #.-.*.l l k h h y y y h k k k l O.O.O.l l l l l k h = O . . . . . . . % k l h y y y y h h y y h h y y y y x h y r r k k h r =                                                                                                                                                                                                     ",
"                                                                                            8.y.D.a.b v v A S b.K.L.L.}.{.8XwXcXR.l #.>.c.B.>.<.*.z = * = = r t h $.*.=.<.2.-.O.l k l l l k h h h h t % . . . . X r y y y u r u t y y h h k k h y t u r r t t t u u u u u r u u r y l $.*.*.O.l l k h h y y h h h k l O.O.O.O.O.O.O.O.l k r O . . . . . . . % k W h y y y y h y t t y h y y x x x x y t r t h k y =                                                                                                                                                                                                     ",
"                                                                                            8.e.D.t.0.v , D ( v.b.G.G.}.>XwXzXcXY.0 ! R.K.S.>.1.5.#.* % = = = = t l O.$.*.<.-.$.O.X.l l l k h h h h y % . . . . X r y y y t t t y x h h k l l h h t t h h h h t u t t u u r u u r y l $.*.*.O.X.l l k h h x x x h k l O.O.O.O.O.O.O.O.O.l r O . . . . . . . % l O.h y y y y h y u t y y y y x x x x y h t r t h y =                                                                                                                                                                                                     ",
"                                                                                            9.e.a.t.0.b   E / f.v.r.e.r.b.L.=X2Xc.b r.S.L.).>.1.5.$.% o % % % % = = y l O.O.$.#.#.$.O.l l l k k k h y % . . . . X r t t y y y y y h h k l k l h h t y ;.,.#.h t u y t u r r u u r y l $.=.*.$.O.l l k k h h y x h h h l O.O.O.O.O.O.O.O.O.r O . . . . . . . % O.O.h y x y y y y y t r t y y x x y y y y y t r r 1 r                                                                                                                                                                                                     ",
"                                                                                            9.e.t.e.0.      /  . .S b b r.G.L.{.S.b.K..X=X1X6.1.3.#.% o % % # % % = r y y r h k l k h y y y y x h y r % . . . . X r t r y h h h h h k l l l l k x t y *.2.=.#.O.z h h x t r u u r y l $.=.*.$.O.l l k l k h h x y x h k l O.O.O.O.O.O.O.O.r O . . . . . . . = O.$.h h x y y y y h y r r t y x x y y y y x h u = = r                                                                                                                                                                                                     ",
"                                                                                                0.0.          &.@.i m G v.b.K.H.L.%X6XlXzXkX'.1.3.*.r % % o o % r x x r = * % % % % % % % % % % = = % X . . . . X r t r x k k k l O.O.O.l l O.k h t y l *.2.1.<.*.l l W h t r u r y l $.-.*.$.W l l k k k k h h y y h k l l O.O.O.O.O.O.O.r O . . . . . . . = $.#.k h x y y x y y y r r r t x x y y x y y y y y t r                                                                                                                                                                                                     ",
"                                                                                                9.9.            #.o.Q E } c.b.s.K.}.$XeXlXkX6.2.3.<.k r o X X % = y y = % % o X X X X X O O . O o o o O . . . . o r u r y h h h k l O.l l l O.l h t t h $.=.1.3.2.*.#.#.l t r u r y l $.*.*.$.W l l k k k l k h h x h h k k l O.O.O.O.O.O.r O . . . . . . . = *.*.l h h h x x y x y t u r t y y y y x h y y h h t r                                                                                                                                                                                                     ",
"                                                                                                9.9.              =.&.) ` h.u.q.0.r.G.P.;X+X>.<.3.1.*.y X O X # % = = = = = % % # % % o X O . . O X O . . . . O o r u r t t t t y h k l l l O.l h t t h O.O.*.<.1.2.<.=.l t r u r y l $.*.*.$.W l l l l l l k k h h y h h k l l l l O.O.O.r O . . . . . . . = *.*.l k k h h y y y y y y y t r t x h h h y y y y t r                                                                                                                                                                                                     ",
"                                                                                                9.9.                &.D E :.L v b S d.K.L._.>.7.1.3.<.k o O X @ % = = = = = = % % % % % o X . . . . . . . . . X % r u u r r r r t y h k l O.O.l h t t t d k $.*.7.<.<.=.O.t r u r y k $.=.*.+.T l l l l l l l l l h h y h h k k k l l O.O.r O . . . . . . . = *.*.l k k k h h y y y y h y t r t x y h h y y y y t r                                                                                                                                                                                                     ",
"                                                                                                9.9.                  > z -.$.i K ( v.b.G.S.:.,.<.3.3.O.% X X @ % = = r r r = % % % % % % o . . . . . . . . . o * r t r r r r r u t y h O.O.O.k h y r = = h O.$.#.#.*.*.O.t r r r y h $.=.=.O.l k l l k l l l O.O.l h h y h h k k k l X.O.u O . . . . . . . c *.-.X.k l l k h x y y y y y t r t x x h h y y y y t r                                                                                                                                                                                                     ",
"                                                                                                                        y k X.O.! ( v.v.y.r.:.=.<.3.3.O.o O X @ % = = r r r = & % % % % % # o X X . . . . . . o = t t r r r u r u u t y j k k h y t r e r d l O.O.O.O.O.h r r u r y h $.=.=.$.T l k k k l l l l l l k h h x h h h h k l l r O . . . . . . . r =.=.l k k l l k h h y y y x y t y y h x h y y x y r =                                                                                                                                                                                                     ",
"                                                                                                                          = h #.! ) { ] w.S &.,.<.3.3.k O . X @ % = = r r r = = & % % % % % % % % X . . . . . o * r t t t t u u r u r t y x y y t r u u u t h O.O.l h h y t t r r y h $.=.=.$.W l k k k l l l l l l l k h h h h h h k l l r O . . . . . . . r =.=.O.k k l l l k h h h h y y x x y y y y y y h y r %                                                                                                                                                                                                     ",
"                                                                                                                            r y z ! &.! K K %.,.<.3.3.l O . X # % = = = % % = = = & % % % % % % % # o X O . . O o = r y y y t r r r r r t t t t r r r t r r y O.#.l h t y h y r r t h $.=.=.$.O.l h h k l k k l l O.l k k h h h h k k l l r O . . . . . . . t =.=.l k k k l l k k z z h y y x h y y y t t y h y r %                                                                                                                                                                                                     ",
"                                                                                                                              % r h O.$.k k *.=.<.3.3.l X . O o % = = & % o = r 6 = * % % % % % % % % o X . . . . o = u d h y y t t r r u u u u r r u u r = t #.*.O.h t x h y u r t h $.=.=.$.W l h h h k k k l l O.O.l l k l k l k l l k r O . . . . . . . t <.<.O.k l l l l l l l l k h h x x y y y r r y h y r %                                                                                                                                                                                                     ",
"                                                                                                                                = r h $.*.*.*.*.=.1.3.l X . . O # = r r r = r r r 6 r = % % % % % % % % o O . . . . X = t k k h h y t r u u u r r u u u r r h *.=.O.h t t y t u r y k #.=.=.$.W l h x h h k k k l l X.O.l k k k k k l k h = . . . . . . . . t <.<.O.l k l l l l l l l l k h x x y y y y y y h y r %                                                                                                                                                                                                     ",
"                                                                                                                                  & t k #.*.#.*.=.1.3.l X . . . o = r r t t r r r r r = = % % % % % % % # X . . . . O o r h k k h y y t u u r u r u u t u r h O.%.#.X.x t u u u r y l #.<.=.$.W l h x y h h k k k k X.O.O.l l l l l k k h = O . . . . . . . t 2.2.$.l l l k l l k l k k k h h h h h y d y y h y r %                                                                                                                                                                                                     ",
"                                                                                                                                    = 1 t h O.#.=.1.3.X.X . . . X = t r r u t y y t r = = = % % % % % % % # o . . . . X % r y h h y y y t u r u r u u u u r r r h *.*.k y u r u r y k *.<.7.$.O.l h x x y h h k k k X.O.O.O.O.O.O.O.l k k r X . . . . . . . t 2.2.$.O.O.l k k l k k k k k k k h x h h h y y h y r %                                                                                                                                                                                                     ",
"                                                                                                                                      % * r j O.=.1.1.l X . . . X = t r u u t y y y r r r r = & % % % % % % # X O . . O o & r t t y y y t t u r u u r r r r r = y *.*.O.h t r t r y l *.2.<.#.O.k h y y h y h k k k X.O.O.O.O.O.O.O.l l l r X . . . . . . . t 2.2.$.O.O.O.l l k k l l k k l l z h h y y y x h x r %                                                                                                                                                                                                     ",
"                                                                                                                                        % * r k *.2.2.k X . . . X = t r u u u t y y y t r r r = = = = % % % % % o X O . X % = r r r y y y y t u u u u r r r r r y O.O.O.h t r t r y l *.2.<.*.O.l h y y x h h k k k X.O.O.O.O.O.O.O.O.O.l r O . . . . . . . t 2.2.$.O.O.O.O.l k k k k k l k l l k h y y x x h x r %                                                                                                                                                                                                     ",
"                                                                                                                                          % = r l =.<.k O . . . X = t t y h y t t h h h h y r r = = = = % % % % % o X O O o % = r r t y h h h y u r r r r r u u y h h h y r r r r y l *.1.2.*.$.l h y y x x h h k l l X.l O.O.O.O.O.O.O.l r O . . . . . . . r <.<.$.O.+.O.O.O.l l l k l k l k l k h h y y y h y r %                                                                                                                                                                                                     ",
"                                                                                                                                            % * r $.<.k . . . O o r r r h l h t t h h l O.k t r r r r = = = = % % % o X O X o % = r r t h l X.h y t t r r r u u r t t t r r r r r y l -.3.3.=.$.l h y y y y x y h k l l k l O.O.O.O.O.O.O.r O . . . . . . . r =.<.$.O.+.+.O.O.O.l l l l k k k l k k h h y y h y r %                                                                                                                                                                                                     ",
"                                                                                                                                              % = O.<.k . . O O ; r r r t h y r t y h k l l h y t t t r = c = = % % # o X . O o = = = r y h h k l k h y r r r r r r r r r r r r r y T -.3.3.<.*.l h h x y y y y h h k k k k l l l O.O.O.O.r O . . . . . . . r =.<.#.+.+.+.+.O.O.O.X.l l k k l l l l k h h h y y r %                                                                                                                                                                                                     ",
"                                                                                                                                                % l =.h O . O O ; r r = = r t t t t y h h l O.l h h y t r r r = = % % % o . O X % = = = r u t z $.O.l h y t t r r r r r r r r r r y l -.3.5.1.*.l h y x y y y y x x h k k k k k k l O.O.O.r O . . . . . . . r =.<.$.O.$.+.+.+.O.O.O.O.O.l k l l l l k k k h h y r %                                                                                                                                                                                                     ",
"                                                                                                                                                  y h 6 o O . O ; r r % % r h h h y y h h k O.+.O.h t t t r r r = = * * % o X X # & = = r r r y h z k l O.l h t r r r r r r r r r y l =.4.yX3.*.l h y y y y x x x x h l l l k l k k l O.O.r O . . . . . . . r =.=.$.O.$.+.+.+.+.O.O.O.O.O.l l l l l k k k k h x r %                                                                                                                                                                                                     ",
"                                                                                                                                                    % % # O . . o c = % % r k O.k y y y y h W $.#.k r t y t r r r = = = * % o X o % & = r r r r r t h X.$.O.l h y y t t r r r r r y W <.iXiX3.*.l h y x x x x x x x h k k k k l k k k l X.r O . . . . . . . = *.=.O.O.+.+.+.+.+.$.$.+.O.O.O.l l l l k k k l k h r %                                                                                                                                                                                                     ",
"                                                                                                                                                    # # # O . . X = = = = r O.*.X.t t t y h h O.#.h = r y y y h x r = = & % # @ o o % * = r r r r r t y h h k O.O.l h y t r r r r y #.6.aXaX5.=.l h y x y y h h h h x h h h k l l k k l l r X . . . . . . . = #.*.O.T O.O.+.$.+.+.+.+.+.O.O.O.l l l l l l l l k t =                                                                                                                                                                                                     ",
"                                                                                                                                                    1 r = o . . O % = r r r O.*.l u r t y y y l $.d % = y x h k z y r r = & % % o X # % % = r r r r r r r t h O.$.O.O.k h h y y h O.,.XXpXpXyX<.l h h x x y h h x x y y y h h k k k l l k r X . . . . . . . = #.*.l l O.O.O.+.+.+.+.+.+.+.+.O.O.l l l l l l l k y =                                                                                                                                                                                                     ",
"                                                                                                                                                    k O.l = . . O # * = r u k O.h r r t y y x l $.y X = y y h k k z h y r r = = % # % # o % = r r r r r r r t h l $.#.$.$.$.O.O.#.<.5.sXdXdXuX2.O.h x x y y y y y y y y y y h h h h k l k r O . . . . . . . = #.*.l k l O.O.O.+.+.+.+.+.+.+.O.O.O.l k k l l l l y =                                                                                                                                                                                                     ",
"                                                                                                                                                    O.$.O.y % O . o % & = r y h y r t y h h h O.#.y O = h h h k l l k h y u r = = % % % o o % = r r r r r r t t h l $.#.%.*.*.=.1.4.sXhXhXhXsX1.O.h y y y y y y y y y y y y y y y h h k k r O . . . . . . . = #.*.k h l l O.O.O.+.+.O.O.+.+.+.O.O.O.l k l k l l y =                                                                                                                                                                                                     ",
"                                                                                                                                                    O.O.l O.k % . o % % & = r t t t y h z k k $.*.y X = k O.O.l k k h h y y t r = = = * % # % % = = r r r r r t t y h O.$.*.<.3.yXuXpXhXjXhXsX1.O.h x x x y y y y y y x y y x y x y h h k r O . . . . . . . = *.*.h h k l l O.O.+.O.O.O.+.+.$.+.O.O.O.l l k l l t %                                                                                                                                                                                                     ",
"                                                                                                                                                    l h r y t o . o % % % = r t t y h h k k k $.*.y X = k O.O.O.l k h h h x y u r = % % % * = % % = = r r r r r r r y z l O.#.=.1.5.uXaXpXpXiX2.O.k h h y y y y y y y y y y y y y y y h h r O . . . . . . . = *.*.h h h k l l O.O.O.O.O.O.O.$.+.+.O.O.O.l l l k t %                                                                                                                                                                                                     ",
"                                                                                                                                                    h r o o X . O @ % % % % r y x h z k k k k $.*.y O % h l O.O.O.l l k h h y y t = % % = r r % o % = r r r r r r r r t t t x j O.*.<.3.5.4.3.<.O.l k h h h h h y y x x h h y h y y y x y = O . . . . . . . = #.#.h y h h k k l O.O.O.O.O.O.+.+.+.+.O.O.O.l l k t %                                                                                                                                                                                                     ",
"                                                                                                                                                    l r O . O O o # # X o % = t h z l k h h k $.*.y O % y l O.O.$.=.*.l h h h x y r = r l l r = % % % = r r r r r r r r r r u t d z O.$.#.#.#.*.*.$.O.l k k k h h y y y y y y y y y y y y = O . . . . . . . = #.#.h y y h h k l l l l O.O.O.+.O.O.O.O.O.O.l k h r %                                                                                                                                                                                                     ",
"                                                                                                                                                    l r X O X @ % % o . X % = r h k k h y y h $.*.h O % t k O.O.*.2.<.O.l k h h y y r h *.#.y r r % X % = r r r r r r r r r r r t t t t t t y O.=.-.$.$.$.O.O.l k h h h h h h h h h h h h r o O . . O O O O e #.$.h y x y h h k l l l l O.O.O.O.O.O.l k j j h y r %                                                                                                                                                                                                     ",
"                                                                                                                                                    k r X O X @ % % o . X = = c r t t y h h x O.*.h o % t h k O.$.*.,.<.*.k z h y t j O.;.%.$.X.h = o o % = r r r r r r r r r r u r r r r r y $.2.<.=.*.*.*.*.$.$.O.O.O.O.O.O.O.O.O.O.O.O.h = % % % = r y y z $.O.h h h h h h z l l l l X.O.O.l h y t r r r r r =                                                                                                                                                                                                       ",
"                                                                                                                                                    h = X O X % % % o . o r = & = = = r h h t l *.h o & t y h l O.O.*.1.<.O.l k y t k O.O.#.*.$.k r % o X % = r r r r r t t r u u r u t r t x #.<.<.=.*.*.*.*.#.$.$.$.$.$.$.O.O.$.$.$.$.$.l y = = = r h k l k k h t r t t t u t x h h h h h k j t r = % % % % =                                                                                                                                                                                                         ",
"                                                                                                                                                    h = X O X * = = % . o r = o % % = r y h y l #.x o = y y h k l O.#.=.<.<.*.k h h y j O.$.O.l h r % # o o % = r r r r r t t t r r r r r u x O.%.$.l l l l k k k k k k k h r = y h h h h h h r o X o % % % % % % o o o o o o o % % % % % = 6 r r =                                                                                                                                                                                                                     ",
"                                                                                                                                                    y = X O o = = = % O o r % X o % % = r y h W $.y o = y h h k O.$.$.#.=.1.=.O.l k y y k l k h y = % % % o o % = r r r r u u r r r r r r u y l O.k y y y y y y y y y y h t % O = t t r r y h r o O . . . . . . . . . . . . . . O X X X o % * = =                                                                                                                                                                                                                       ",
"                                                                                                                                                    = % X o % % * = % O ; r = O O X X o = t k O.O.y % 6 h h k l O.#.#.$.%.=.*.*.O.k z h y y h y r = % % % # o o % = r r r t u u r r t t r t y l O.k y y y y y y y y y y h t % X = u t r r t t t r % O . . . . . . . . . . . . O % = = = r r t t t                                                                                                                                                                                                                       ",
"                                                                                                                                                    o X X o % = 6 = % O X = % O O O O X % r k O.O.y = r h k l O.O.$.$.$.#.%.=.<.*.O.O.l y y h y r = * % % % # o o % = r r u t t t u r r r t h l O.k x y h h y x y y x x h y % X = t r r r r r h h r % O . . . . . X O . . . . X = t t t t y x h h                                                                                                                                                                                                                       ",
"                                                                                                                                                    X X O O # t h r % O . X X O O O O O X % y k k y = t k O.O.O.O.O.$.#.#.*.<.3.<.*.#.O.l k k h y r r = = % % % % % & = r u y y t r r r r y k O.O.k y y h h x x y y y y h t % O = t r r r r u h W h r o . . . . o = % . . . . X = t r r r t y y y                                                                                                                                                                                                                       ",
"                                                                                                                                                    O O O O X = r % X . . . X % % % X O O o = r r r = r h k O.O.O.O.O.#.#.*.2.3.2.=.*.*.#.$.O.l h h y r = % % % % % % & = r t y y t t r u y k O.O.k x y y y x x h h h y h t % O = t u y h x t z O.l t o . . . . % r % . . . . X = t r r r t x x x                                                                                                                                                                                                                       ",
"                                                                                                                                                    O O O . . . O . . . . . % = r = ; O O X X X X % = = r h k l l O.$.#.#.*.<.3.<.=.=.=.=.*.#.O.k k h t r & % % % % % % & = r t y y t u u y k O.O.k x y y y x x h k h h h t % O = r u h $.l t h O.l t o . . . O % r % . . . . X = t t u r t x x x                                                                                                                                                                                                                       ",
"                                                                                                                                                    O O O . . . . . . . . . X % % % O . . . O O O o % % = r h k l O.$.#.*.*.2.3.<.=.=.=.*.*.$.l h y y t r = % % % % % % % & = r t y y t t y k O.O.k x y y y y x h W k h h t % O = r r k =.$.y h O.l t o . . . O % r % . . . . X = y j h t t y x y                                                                                                                                                                                                                       ",
"                                                                                                                                                    O X o X O O O . O O . . O O O . . . . . O O O o % % % = t h l O.O.#.*.=.<.1.<.=.=.*.*.O.l h r r r r r = = % % % % % % % & = t y y y t y k O.O.k y y y y y x z O.l h h t ; O = t t O.<.#.y h O.l t o . . . O % r % . . . . O = h O.l t t h h y                                                                                                                                                                                                                       ",
"                                                                                                                                                    O # 5 8 9 9 0 8 $ O . . . . . . . . . . O O O X o @ % = r y h O.O.$.$.%.=.<.=.*.*.*.O.k y r r r r r r = = % # @ % % % % & = r r y y t y k O.$.l x y y t t y h l k x x t ; O = y l O.O.k t h O.k t o . . . o = u & . . . . O = h #.O.y y k h y                                                                                                                                                                                                                       ",
"                                                                                                                                                    # 8 F ~ ~ ~ R D 8 o . O O O O O . . . . O O O O X o % = r r y k O.O.O.$.*.=.*.#.#.O.l h r r r r r r r = = % @ X o % % % & = = = t t t y k O.#.l h x y r r y h k h h x t ; O = h O.l y r t h O.k t o . . O % 6 t = . . . . O = h #.O.y h O.k y                                                                                                                                                                                                                       ",
"                                                                                                                                                    0 ~ j.[ ~ R F g t = = = = = = = % o o X O O O O O X o % = = r r h O.O.+.*.*.$.O.O.k y r r r r r = = = * % % # @ # % % % % % % * = r r y k $.*.O.h y y r r y h h h y h t ; O = y h h u r t h O.k t o . . O % r y = . . . . O = y h h t h O.k y                                                                                                                                                                                                                       ",
"                                                                                                                                                  N C ` k.[ ~ D g y y t t t t u u r = % * % ; o X O O O O o % & = = r k O.$.*.*.O.k k h r r r r r = = = = % % % % % % % % % % % % % & = r y k #.*.O.h y y r r y y y y y h t % O = t u r u r t h O.k t o . . X = r y = . . . . X r y u r u h O.k y                                                                                                                                                                                                                       ",
"                                                                                                                                                N C ~ R ~ ` ( D t t t y y y y t u u r r r r r = % X . . . O o % % % = t z +.*.*.O.k l h t r r r r = = = = % % % % % % % % % % % % % % = r y k #.*.O.h y y r r y y y h h h t % O = t r u u r t h O.k t o . . X = y h = . . . . X t h t r u h O.k y                                                                                                                                                                                                                       ",
"                                                                                                                                                N C R R ~ ` ( i r r t y h x y t t t t t t t t r = @ O . . O X o o % % = t l ;.=.$.k h h r r r r r = = = * % % % % # @ @ @ @ % % % % % & r y k #.*.O.x y y t t y y y y y x t % O = t r r u r t h O.k t o . . X = h k r . . . . X t h t r t z O.l y                                                                                                                                                                                                                       ",
"                                                                                                                                                N N C { z.f.R 0 = r t y y x y y y y y y y y t r r = @ O . O O . O # % % = t O.*.$.z y r r r r r = = = % % % % % # X X X X X o % % % % % = t k #.*.O.h y y y y x y x t r y t % O = t r r u r t z O.k t o . . X = h l r . . . . O r t t r t k $.l h                                                                                                                                                                                                                       ",
"                                                                                                                                                M G [ N.^.j.R i e r t y y x h h h h h h h y y t r r = @ O O O . O X o o % = d l k h u r r r r = = = = = % % % # o o X O X o o o o o o o % r k $.*.O.h h y x y y x y t t y t % O = r r r r r t z O.l t o . . X = h l r . . . . O = t r r t l ;.O.h                                                                                                                                                                                                                       ",
"                                                                                                                                                B [ (.{.(.k.R i r r t y y y h h z h z h h x x y t r r = # X X O O . . . X % & = = r r r = = = = = = = = = % @ X X # o X o @ o X X O . O # r h O.#.$.O.h x y h h h h y y h t ; O = t u u t u t k O.l t o . . X = h k e . . . . X = t u r t X.*.O.h                                                                                                                                                                                                                       ",
"                                                                                                                                                [ E.#X[.N.( D y u t y y y y h h h h z h h h h h x y r r = = % @ X . . . O X X O o % % % o o o o o o o o o X O . O X X O O X X O O O O O X * y O.=.*.#.O.l k k k k k k k k h % O r h h h h h h l +.l t o . . X = h k r . . . . X = t u r t O.=.O.h                                                                                                                                                                                                                       ",
"                                                                                                                                                /.@X,X^.' D u r t y x x h h h k k k h h z z z h h y t r r r r * # X X X O . . . . . . . . . . . . . . . . . . . . . . . . . O O O O O O . o r O.=.=.*.%.$.O.O.X.O.O.O.X.l h % X u k k k k k k O.#.l t o . . X = h l r . . . . X = t u r t O.=.$.h                                                                                                                                                                                                                       ",
"                                                                                                                                              +XrX0X2X^.` i e r t y x x h h k l l l k h z z z h h y y y y t r r = = % o X . . . . . . . . . . . . . . . . . . . . . . . . . . . . . . . . O % y O.$.O.l k h h h h h h y y r % X r h h h h x h $.*.O.t o . . O = y k r . . . . X = t u r t $.<.#.y                                                                                                                                                                                                                       ",
"                                                                                                                                            ).<XlXlX,X!.` 0 = r t y y y h h l O.O.O.l k k k z h h y y y y t t t t u r & % X O . O O . . . . . . . . . . . . . . . . . . . . . . . . . . . . O % t y t r r r r r r = = & = % X X = t t u u r t $.=.$.t o . . O % t h r . . . O o r t u r t $.2.#.h                                                                                                                                                                                                                       ",
"                                                                                                                                          +XrXcXwX6X@XZ.` 0 = r t y y y h z l O.O.O.O.O.O.l k h h h y y y y y y y t r r 1 = ; O O O . . O . . . . . . . . . . . . . . . . . . . . . . . . . . X % % o o o o o o X X X O O O . O = u u u u r t $.=.$.t o . . O % y k r . . . X % r t u r t #.1.*.h                                                                                                                                                                                                                       ",
"                                                                                                                                        ^.+X0XlX3X#X[.B.` w = r t y x x h z l O.O.O.#.#.O.O.k k h h h x y y y y y t t u t r = o X X . . O . . . . . . . . . . . . . . . . . . . . . . . . . . . O . . . . . . . O O O O O O O X = t r r u r t $.,.$.t o . . O % y l r . . . o * r t r r t *.3.*.h                                                                                                                                                                                                                       ",
"                                                                                                                                      ^.(.[.#X$X@X[.W.z._ i = r t y y x h z k k X.O.#.#.O.O.O.l k h h h y x x y h y y t r r r = % o O O . . . . O . . . . . . . . . . . . . . . . . . . . . . . . . . . . . . o # % % % % % % % r r r u r r t #.<.#.t o . . O % u k r . . . % = r r r r t *.3.*.h                                                                                                                                                                                                                       ",
"                                                                                                                                    !./.).[.[.[.[.^.C.k.` g e r t y x x h h h k l O.#.#.#.$.$.O.l k z h h h y y y y y t t t t r = * % o O . . . . . . . . . . . . . . . . . . . . . . . . . . . . . . . . . O # & = = = c c c r r u u u r r t #.2.#.t o . . O # r h = . . X % r r r r r r #.3.*.h                                                                                                                                                                                                                       ",
"                                                                                                                                  N.W./.).).(././.^.C.k.` D r r t y x x y h h k l O.#.*.*.=.*.#.O.l z h h h y y y y x y y y t r r r r = % o O . . . . O O . . . . . . . . . . . . . . . . . O . . . . . . . O o % = = r r r r r r u u r r r t #.2.#.t o . . O # r h c O X = = r r r r r t #.3.*.h                                                                                                                                                                                                                       ",
"                                                                                                                                E.W.E.E.!.^.!.!.!.!.W.z.` D u r t y y y y y h k l O.#.*.*.=.=.*.$.O.l k z h h x h h h h x x y t t t t r = = % o O . . . O . . . . . . . . . . . . . . . . . . . . . . . . . . X # % = r r r t u u u u r r t h -.1.;.t o . . . o r h r X % = r r r r r h O.=.<.$.h                                                                                                                                                                                                                       ",
"                                                                                                                              E.^.^.C.m.M.C.Z.E.E.W.W.m.` D r r t y x y y y h k l O.#.%.*.*.=.*.#.$.O.k z h h h h h h h x x x y t u u u r r r = % o O . . O O O . . . . . . . . . . . . . . . . . . . . . . . O O O % r r r r r u u u r t h O.<.6.#.u o . . . O = h u % = r r r r r r O.2.<.#.k d                                                                                                                                                                                                                       ",
"                                                                                                                              Z.^.(.E.z.k.z.B.C.Z.W.E.z.` D r r t y y y y y h k l O.$.$.#.*.=.*.*.$.O.l h h h h h h h h h x x x y y y t t t t r = = % X . . O O . . O . . . . . . . . . . . . . . . . . . . . . . . o = r r r r u r r t h k l #.*.h % O . . . O = h y = = r r r r y l #.=.#.k j                                                                                                                                                                                                                         ",
"                                                                                                                              E.^.(.Q.m.j.j.m.N.C.C.M.k._ w = r t y y y x y h k l O.O.O.#.*.=.*.*.$.O.l k h z h h h h h h h y h h h h y t r u r r u r % O . . . . O O O O . . . . . . . . . . . . . . . . . . . . . X = r r r r r t t j W l x x y % . . . . . O = h y = c r r r r h #.$.h h h                                                                                                                                                                                                                           ",
"                                                                                                                              !.^.^.E.x.j.j.z.m.M.M.M.k._ w = r t y x x x x h k k l O.O.#.*.=.*.*.#.$.O.l k h h z h h h h y y y y h y y y t t t t u r r % X . . . . O O O O . . . . . . . . . . . . . . . . . o X . X % = r r r r h $.$.l t & % % O . . . . . . % y y r r r r r r y l l y y                                                                                                                                                                                                                             ",
"                                                                                                                              ^.^.!.E.M.j.h.j.k.k.m.m.k._ w = r t y x x x x h z k k l O.$.*.=.*.*.*.#.$.O.l k h z h h h h y y y y y y y y y y y u u t t r % X O O . . O O O . . . . . . . . . . . . . . . . O % % . O % = r r r r k <.=.h = O . . . . . . . . . % t y r r r r t y y y y y                                                                                                                                                                                                                               ",
"                                                                                                                              E.E.W.W.C.k.[ f.j.k.m.m.k._ w = r t y y x x x h z z k X.O.O.#.*.=.*.*.#.$.O.O.l k h z h h h y y y y y y y y y y y y y y t r r % o O O . . O O O . . . . . . . . . . . . . . . . O O . X % = r r t r k =.=.h = . . . . . . . . . . % t y r r r r y O.O.h y                                                                                                                                                                                                                                 ",
"                                                                                                                              M.N.C.W.E.k.' { h.k.k.j.f./ i = r t y y x x x h z z k l O.O.$.*.=.=.*.*.$.O.O.O.l k k k h h h h y y y y y y y y x y y y t t t r % X O . . . O O O . . . . . . . . . . . . . . . . . . O # % = r r r h *.*.h = . . . . . . . . . . % t t r r t y k $.$.h y                                                                                                                                                                                                                                 ",
"                                                                                                                              m.M.N.C.B.k.' ` ` [ f.[ ' ~ g r r t y y y x x h z z z k l O.O.;.*.=.=.*.*.#.O.O.O.O.O.l k h h h y h x h y y y y y x x y y y t r r % X O O . . O O O O O . . . . . . . . . . . . . . . O X # % = r r h *.*.h = . . . . . . . . . . % t y r r y O.#.O.k                                                                                                                                                                                                                                     ",
"                                                                                                                              k.x.M.M.x.j.` ~ ~ ^ ^ ^ / ~ g r r t y y y y x h h h z h k O.$.#.*.*.=.=.*.*.$.O.O.O.O.O.k k h h h h h x y h h h h h h h h y y t t r % o X O . . O O O O O . . . . . . . . . . . . . . . O X % = r r h #.$.h = . . . . . . . . . . % t y r r y *.=.l y                                                                                                                                                                                                                                     ",
"                                                                                                                              j.z.M.m.k.j.` F B C C C R R i = r t y x x y y x h h z h k O.O.#.*.*.*.=.=.*.$.O.O.O.O.O.O.l z h h h h h h h h h h h h h h x y y t r r = % X O . . . . O O O O . . . . . . . . . . . . . . O o = r r d O.O.h = . . . . . . .     . % y y r r y *.=.l y                                                                                                                                                                                                                                     ",
"                                                                                                                              h.k.m.m.z.j.[ ~ C N B C R F w 6 r t y y x y y x x h h h k l O.$.$.#.*.*.=.=.#.O.O.O.O.O.O.O.l l k k h h h h z z k l l l h h h h t t t r = % % X . . . O O O O . . . . . . . . . . . . . . . O % r 6 t T W h = O . . . . . .   . . % t y r r y *.=.l y                                                                                                                                                                                                                                     ",
"                                                                                                                                k.m.m.M.m.j.' ~ B C ~ G N M w t r u t y y y y x d h h h k l O.O.O.$.*.-.=.*.#.O.O.O.O.O.O.O.O.O.l h h z h h z l O.O.O.k h h h h y y y r r r % O O O . . O O O . . . . . . . . . . . . . . . % = % 6 l O.h = X . . . . . . . . . % t y u r x *.=.l y                                                                                                                                                                                                                                     ",
"                                                                                                                                j.j.z.m.m.k.[ ^ B B F M n M M t r r t y y x x y h h h h h k O.O.O.$.;.*.=.*.*.$.$.$.$.$.O.O.O.O.X.l l l l l l l O.O.O.l l l k h h h h y y t = % X O . . . O O O . . . . . . . . . . . . . . X o X * l O.h = O . . . . . . . . . % u y u r x *.=.l y                                                                                                                                                                                                                                     ",
"                                                                                                                                f.h.k.k.n.k.[ ^ C w q 0 8 n V 7 = r t y x y x y x x x h h l O.O.O.$.#.*.=.=.*.*.#.#.%.#.$.O.O.O.O.O.O.O.O.O.O.O.O.O.O.O.O.O.O.k h h h h h y t r % X O O . . O O O . . O O . . . . . . . . . O O . % z O.h = O . . . . . . . . . o r t u r y *.=.l y                                                                                                                                                                                                                                     ",
"                                                                                                                                  f.j.k.k.k.[ / R B w 0 8 V V 7 = r t t y x x x y x x h h k l X.O.O.$.#.*.=.=.*.#.#.*.;.#.$.$.$.O.O.$.#.#.$.O.O.$.$.$.#.#.O.O.l l l k h h x t r = % # X . . . . . . . . . . . . . . . . . . . . . % j W y & . . . . . .     . . ; r t u r x *.=.l y                                                                                                                                                                                                                                     ",
"                                                                                                                                    [ f.k.k.[ _ ^ R N 0 8 n V 6 = r r u t y x x y y y h h z h l O.O.O.$.*.*.-.*.#.;.;.;.%.;.;.#.$.O.#.#.#.$.O.$.#.#.*.*.*.#.O.O.O.O.l k h h y t t r = % o O . . . . . . . . . . . . . . . . . . . % h l t % . . . . .         . o r t r r y *.=.l y                                                                                                                                                                                                                                     ",
"                                                                                                                                    ' [ j.j.[ ` ` ~ N 9 8 0 8 > & = r r t y x x y y y h h z z k k l O.$.*.*.*.*.#.#.;.;.%.;.;.;.#.$.$.$.$.O.O.$.#.*.*.-.=.*.*.#.$.O.O.l k h y y y t r = = % o O O . O . . . . . . . . . . . . . . o h k t % . .               . o r t r r y #.*.k y                                                                                                                                                                                                                                     ",
"                                                                                                                                    ` [ j.k.[ ' ` ~ N 9 8 8 5 - % = c r t y y y y y h h h h h h h l O.$.#.#.#.#.*.*.*.*.*.;.;.;.*.#.O.O.O.O.O.$.#.#.#.*.=.=.*.*.$.O.O.O.X.k h h y y t t r r * % o o o o X O O O . . . . . . . . . o y h r % O .               . ; r t u r y $.*.k y                                                                                                                                                                                                                                     ",
"                                                                                                                                    ' { f.f.{ ` / R N M V 0 4 - % = c r y y y y y y h h h h h h h l O.O.O.O.$.#.*.*.=.-.*.;.;.;.*.#.O.O.O.O.O.O.O.O.O.#.*.*.*.$.O.O.O.O.O.O.k h h y y y t r r r = = % % % % % @ O . . . . . . . . o t y r % O . . . . . . . . . ; r t u r y $.*.k y                                                                                                                                                                                                                                     ",
"                                                                                                                                    ` ' [ [ ' _ ~ G C B M w 4 > - * = r t y y y y y x h y h h h k X.O.O.O.O.O.#.*.=.=.=.*.*.;.;.#.$.O.O.O.O.O.O.O.O.O.$.#.#.$.O.O.O.O.O.O.O.k h h h h x t t t t t r = = = = = % @ O . . . . . . . X r t = % O . . . . . . . . . o r t r r y $.*.k y                                                                                                                                                                                                                                     ",
"                                                                                                                                    ^ / ' ' ' ^ C C R C N M w 8 > - % = r t y y y y x h y h h k O.O.O.O.O.O.O.#.*.=.=.=.*.*.;.#.$.O.O.O.O.O.O.O.O.O.O.O.O.O.O.O.O.O.O.O.l k k h h h h h y y y y y t r r r = = = % # O . . . . . . X = r = % . . . . . . . . . . o r t u r y $.*.k y                                                                                                                                                                                                                                     ",
"                                                                                                                                    G ~ _ ' ' ~ B C R C N M 9 5 $ # % = r r t y y y y h h h h k l O.O.O.O.O.O.#.*.*.*.*.*.;.#.$.O.O.O.O.O.X.l l X.O.l l l l X.X.l l l l k h h h h h h h h h h h y y t t r = = = = & o . . . . . . X = = = % . . . . . . . . . . o r t r r y $.*.k y                                                                                                                                                                                                                                     ",
"                                                                                                                                    N C / ' / R B N B N M w 4 $ o # % = r r t t y y y h h h z k k l O.O.O.O.O.#.%.%.;.;.*.#.$.O.O.O.O.O.k k k k k k k k k k k k k k k k k h h h h h h h h h h h y x y t r = = r r = o . . . . . . O % = % %                   . ; r t u r y $.*.k y                                                                                                                                                                                                                                     ",
"                                                                                                                                      C _ ' / ~ G C N M 9 5 5 8 0 0 5 * = r r r y y x h h h h h z l O.O.O.O.O.$.$.$.$.$.$.$.O.l l l l l k k l l l l l k h h h h h z z h h h h y y y y h h z h h x x y t r r r r r = o . . . . . . O o % o o                   . % r t u r y $.*.k y                                                                                                                                                                                                                                     ",
"                                                                                                                                        ' _ ^ ~ ~ G N 9 8 8 n ^ ' ^ N * % = r r y y x y x y y h z l O.O.O.O.O.O.O.O.O.O.O.O.l k z k k k k l O.O.O.O.O.k k k k k z z z z h h y y y y y h h h h x h x y t r r r r r = o . . . . . . . O X X O                   . ; r t r r y #.*.k y                                                                                                                                                                                                                                     ",
"                                                                                                                                        ` ^ R F G C N n n H ` z.m.` N * % = r u y y y x x x x h h l O.O.O.X.l l l l l l l l k z h h k l l O.O.O.l l l l X.O.O.O.l k z k k k h y h h h h h h y y y y h y y t r r = = o . . . . . . . . . . . O O . . . . . . . . o r t r r y #.*.k y                                                                                                                                                                                                                                     ",
"                                                                                                                                        ~ R C N N N N N F h.W./.E.[ H , * = r u y y y y x x x h h l O.O.O.l h h h h h h h h z z z k O.O.O.O.O.l k h z l O.$.$.O.l z h h l X.k h h z k h h x y y y y y y y t r = = = o . . . . . . . . . . . O . . . . . . . . . o r t r r y #.*.k y                                                                                                                                                                                                                                     ",
"                                                                                                                                        C F G C N M N R [ N.).@X[.k.~ H 0 = r r t t y y y y y h h k l O.O.l h h h h h h h h h k l O.O.O.l l k k h h h h h k k h h y y y h k O.O.l k l l h h y y x y t t t r = = = = o . . . . . . . . . . . . . . . . . . . . . o r t r r y #.*.k y                                                                                                                                                                                                                                     ",
"                                                                                                                                        N C R R C C G ` m.!.+X2X#XM.` ^ D > = r r u y y y y y h h h k l O.k h h x h h y x h h k X.O.O.l k z k k k k h h h h h h x y t t t x l O.l k X.l k h h y y t r t r = = = = = o . . . . . . . . . . . . . . . . . . . . . o r t r r y $.*.k y                                                                                                                                                                                                                                     ",
"                                                                                                                                            C G ^ ' h.j.m.!.+X2X#XM.` ( M * & = r u t t y y y h h h h k k h h x h x y y h h h k X.O.l k h k l O.O.$.O.O.O.O.O.X.k h h y t t x h h k k k k h h y t t r t r = = = = % o . . . . . . . . . . .                   . o r r r r y O.#.k y                                                                                                                                                                                                                                     ",
"                                                                                                                                            M G ' k.C.M.m.W.+X,X@Xm.[ ` D * % = r u u t y y y y y h h h h h x x y x y h h h k k O.O.k z k l O.$.#.*.*.*.*.*.#.$.O.k h h t r r t y h h h h h y t r r r r r r = = = % X . . . . . . . . . . .                   . o = r r r y O.O.h y                                                                                                                                                                                                                                     ",
"                                                                                                                                                [ M.^.C.m.W.[.#X+Xx.h.l.G * % = r u u u t y y y y h h h h y x x y y h h h h l O.O.O.k k l O.O.$.;.*.*.*.*.*.#.O.l k h x y u r u t y h h h h x y r r = = = r r = & % X . . . . . . . . . . .                   . o = = = r t l O.h y                                                                                                                                                                                                                                     ",
"                                                                                                                                                [ m.!.C.m.!.[.@X[.M.j.j.~ 5 * = = r r r r t y x y y y y y h h h y h h h k k O.O.O.l k k O.O.O.O.#.#.#.#.$.$.O.O.l k h x y t t u r t h h h y x y t r = = = r r = * % X . . . . . . . . . . .                 . . X % % % = t l O.h y                                                                                                                                                                                                                                     ",
"                                                                                                                                                ' k.B.M.m.!.[.OX[.W.m.j.^ M 5 % & = r u u t y x y y y y h h h h h h h h l O.O.O.l k z k O.O.O.O.O.O.O.O.O.l k k k h h h y y t r u t y h x h x x y t r = = = = = = % X . . . . . . . . . . . . . . . . . . . . . O X X o = y l O.h y                                                                                                                                                                                                                                     ",
"                                                                                                                                                ' g.m.m.m.N.!.^.^.Z.m.h./ B 8 > * = r u u t y y y y y h h h h h h h h h l O.O.l k h h k O.O.O.O.O.O.O.O.O.l k l k k z h h h y t u r t y y y x y y t r c = = = = % @ O . . . . . . . . . . . . . . . . . . . . . . . . O = y l O.h y                                                                                                                                                                                                                                     ",
"                                                                                                                                                ' f.k.k.k.m.m.C.C.m.k.h.^ B 9 8 > = r r u t y y y y y h h k k h z z h h l O.l k z z z k O.O.O.O.O.O.O.#.#.O.O.O.O.O.X.k k z h y t t t t y y y t r r r c = = = % @ X O . . . . . . . . . . . . . . . . . . . . . . . . . % t k W h y                                                                                                                                                                                                                                     ",
"                                                                                                                                                  [ f.j.k.k.m.M.M.m.j.f.^ B 9 8 , = = r r t t y y y h h k k z z k k z h k l h h h z z k l l l O.$.$.$.*.*.*.;.;.;.;.#.$.$.O.l k h y y y y y y u r r r = = * % o X O . . . . . . . . . . . . .               . . . . . . X = h O.h y                                                                                                                                                                                                                                     ",
"                                                                                                                                                    ' { h.z.m.m.k.k.j.' ~ N 0 8 , = = = r u u t y x h h h h h z k k k z z h h h h h z h h h h O.#.;.*.*.=.=.=.=.=.=.=.=.*.#.$.O.l z h h h h y r = = = = = % # X O . . O . . . . . . . . . .                   . . . . . . X y l h y                                                                                                                                                                                                                                     ",
"                                                                                                                                                    / ' f.j.j.k.j.g.' ~ N 9 8 8 > % = = r u u t y y h h h h h h k k z z h h h h h h z h h h h l O.#.*.*.*.=.=.=.=.=.=.*.*.*.*.*.#.O.X.k h h y t r r = = = % # X O . . O O O O O . . . . . .                   . . . . . . O t l h y                                                                                                                                                                                                                                     ",
"                                                                                                                                                    ^ ` [ [ [ [ [ ' ~ N 9 8 8 8 > % & = r r u t y y y y y y h h h h h h h h h k h h h h h h h l O.$.$.$.#.*.*.*.*.=.*.*.*.*.*.*.#.$.O.l k h h y y r = = = % o X O . . O O O O O . . . . . .                   . . . . . . O u k h y                                                                                                                                                                                                                                     ",
"                                                                                                                                                      ( ( ' { [ ` R N 9 8 4 5 8 > % & = = r r y x x x y y y x h h h h h h h h z z h h h h h z l O.O.l k k k X.$.#.*.*.;.#.$.O.O.O.l l k h h y h y r = & % o X X O . . O O . . . . . . . . . . . . . . . . . . . . . . . . O u k h y                                                                                                                                                                                                                                     ",
"                                                                                                                                                        ^ ` _ _ ~ B 9 8 5 4 5 5 > - * = = = r t y y y y y y y y y y y y y y h h k h h h h h h k X.k h h y y h l $.#.*.;.$.O.l h h h h h h y h y y r = % % X O O . . . O O . . . . . . . . . . . . . . . . . . . . . . . . O r h h y                                                                                                                                                                                                                                     ",
"                                                                                                                                                          ( ~ G B N 9 8 5 5 5 4 5 , * % = = = r t y y y y y y y h d y y y y h h k h h h h h h k k h h y y y h l $.#.*.;.$.O.k h h h h h h y y y r r = % % X O O . . . O O O O O . . . . . . . . . . . . . . . . . . . . . O = t y y                                                                                                                                                                                                                                     ",
"                                                                                                                                                          ~ ~ R ~ ( ~ N N N V 0 8 8 $ % = = = = r t y y y y x h h h h h h h h k h h h h h h h h h h y y h h k l l O.O.O.O.X.l k X.O.O.l k k k h h t r = % o X X O . . O O O O O . . . . . . . . . . . . . . . . . . . . . O % r t y                                                                                                                                                                                                                                     ",
"                                                                                                                                                          ~ ( [ m.E.M.' ' | ~ M 0 5 $ % = = = = r t y y y y x h h h h h h h z k h h h x h h h h h y t h k O.O.z h h h h h k l O.;.*.*.*.#.$.#.#.$.l h r = = % X O O O O O O . . . . . . . .                   . . . . . . O % = r t                                                                                                                                                                                                                                     ",
"                                                                                                                                                          [ j.N.).OX(.g.f.k.( N 9 5 * % = = = r r y y y y y h h h h h h k l l l k h h h x x x y y y y h l *.*.k y h h h k l O.#.,.2.2.<.<.=.=.=.=.*.O.h t r = % o o X O O O . . . . . . . .                   . . . . . . . @ = r r                                                                                                                                                                                                                                     ",
"                                                                                                                                                          z.N.).$X2X+Xk.' [ ~ N 0 5 * % & = r r t y x x y y h x h h h h l O.O.O.k h h h h x x y t y h y k <.2.l x h k O.O.O.$.*.2.3.3.1.2.2.2.<.=.=.*.O.k h r = % % o X O O . . O O . . . .                   . . . . . . . o & 6 r                                                                                                                                                                                                                                     ",
"                                                                                                                                                        f.j.M.[.2X3X+Xm.[ { ~ N 9 5 * % = = r r t y h x y y y x h h h k l O.O.O.O.l k h h x y t t h h r y <.1.O.y h h k k l $.=.<.2.=.*.$.$.$.O.O.O.l h y r r r r = % O O O O . . . . . . . .               . . . . . . . . o % = r                                                                                                                                                                                                                                     ",
"                                                                                                                                                      h.h.[ k.).,X5X+XM.f.' ~ N 9 5 - % = = = = r y x x y y y x h h h h l O.O.O.O.O.k h h x y t t h h > r =.2.O.y y y y h l #.=.=.*.O.h h y y y y y y r r r r r t r % . . O O O . . . . . . . . . . . . . . . . . . . . . . o % = =                                                                                                                                                                                                                                     ",
"                                                                                                                                                      z.k.j.k.(.%X@X).M.h.( G N 9 , # o % = = = r t x y t y y y h h h h h l O.O.O.O.k h h y y y y h h r y *.=.l y t t t k #.#.#.O.O.h l #.*.*.#.$.O.O.O.O.l k h h h = . . O O . . . . . . . . . . . . O O O O X O . . . . . X o % &                                                                                                                                                                                                                                     ",
"                                                                                                                                                      M.x.j.k.W.[.).!.m.[ ^ G N 9 , + X o % = = = r y t t t y y y h y y h h l O.O.O.k h h y y y y y y y h ;.*.k y t t y O.*.$.O.l l k $.<.2.2.<.=.=.*.*.*.#.O.k h h = O . O . . . . . . . . . O O O O O O O o % o . . . . . O X @ %                                                                                                                                                                                                                                     ",
"                                                                                                                                                      k.j.` ` M.W.W.N.j.[ ^ G N 9 , + O X o % = = = r r u t t t y y y y h h l O.O.O.h h x y y t t t t y k *.*.k x h h k l l h z O.*.*.*.*.*.*.#.O.O.O.O.O.k h h h y = . . . O O . . . . . O % = c =         @ % o O . . . . O X X X                                                                                                                                                                                                                                     ",
"                                                                                                                                                      j.h.' ` k.x.z.k.[ ` ~ C M 0 , + O O X o % % * = e r r r r t y h h h h l O.O.l h x g z l h t u t h O.#.$.h x h k l k h h l #.*.*.#.O.O.O.O.l l l l l l l l k k r . . . O O . . . . . o = r y y           % o O . . . . . O O O                                                                                                                                                                                                                                     ",
"                                                                                                                                                      m.z.j.[ h.h.` ` ( ~ C V 0 8 , # O O X X X X @ % = c r u r t y h h h h h k h h x g H ! =.#.h t h O.#.O.h y t h h h h z O.#.#.O.l k k l O.$.*.*.*.*.=.,.=.=.=.*.h O . . O O O O O . . % y t r t h h h     % o X . . . . . . O O                                                                                                                                                                                                                                     ",
"                                                                                                                                                      M.m.k.j.j.[ ` ^ ~ R N 9 8 5 > + O O O O X X o % & = r r r t y h h h h h h h y y J ` :.<.;.h y h #.*.l y t t y y x h k #.=.#.l h h h k O.#.*.=.=.<.<.2.<.<.<.<.k X . . O O O O O O . % r = % = r r =     o o O . . . . . . O O                                                                                                                                                                                                                                     ",
"                                                                                                                                                      m.x.k.k.k.j.{ _ ^ R N 9 8 > % o O O O O X % % % & = = = r t y h h h h h h h y y J m.R.&.X.h y h $.*.l y t t y x x h k #.*.#.O.k h h l O.$.*.-.=.=.=.*.*.*.-.=.h X . O O O O O O O O O X O O O O X O . . X X O O . . . . . O O                                                                                                                                                                                                                                     ",
"                                                                                                                                                      j.j.j.j.k.f.' _ ^ F w 0 8 $ o X O O O O X o % % % * = = r r t y h h h h h x d g E |  .J h x h l O.O.d r r r y h h k O.$.$.O.l X.O.l X.O.O.$.$.$.$.$.O.X.l O.O.t X . O O O O . O O O . . . . . . . . . . . O O . . O O . . O O                                                                                                                                                                                                                                     ",
"                                                                                                                                                      h.h.h.f.[ ' / / ~ B 4 5 5 + X O O O O O X X o % % % = = = = r t y h x y t y g G E J h h x h l $.l y = % = r h h k O.$.O.k h h O.$.O.O.O.l k h h h h y t t y t = X . . O O . . . . . . . . . . . . . . . . . O . . X @ O . O O                                                                                                                                                                                                                                     ",
"                                                                                                                                                      { [ [ ' ' / / R B w 5 4 > + X X o O X o o o % = % % % & = = r t h y t t y i D D D x y y h l O.l h r = * = y l O.O.O.l h h k O.O.W z g g i r e = = = 6 7 7 > = % X . . O O . . . . . . . . . O X + + - % . . O . . o % X . O O                                                                                                                                                                                                                                     ",
"                                                                                                                                                        ' ' ' / ~ ~ C 4 4 8 > % o X o % o ; = = = r r = % % % = = r y h h t y x g D g d h y h l $.l y r = = r t k $.#.#.X.h x h O.$.l d 0 8 8 , * * * * > 8 0 0 5 * # O . . . O . . O O O O o o o # - , 8 t e O . O . . % & X . O O                                                                                                                                                                                                                                     ",
"                                                                                                                                                          _ ^ R C N 9 4 5 8 > % X X o & r t h k l h r = = = = = r y z l h t t y i i y x h h h h k y r r r r y l O.O.O.O.z h k O.O.k u 6 , 8 8 0 m N H H H ~ ~ G G H , O . . . . . . . . . $ 9 0 8 0 0 8 0 d r X . . . . % = X . O O                                                                                                                                                                                                                                     ",
"                                                                                                                                                          ^ ~ C M 0 5 4 4 , > % o o @ = t h O.#.*.O.y r r r r = r h l O.k t r r r t y h h h h y r r = r t y k O.O.k h h h h O.$.h r * > 8 9 9 B ( [ h.j.k.z.z.k.k.j.m O . . . . . . . . . : B B 9 9 9 8 5 u = O . . . . % = o . O O                                                                                                                                                                                                                                     ",
"                                                                                                                                                              B V 8 5 4 3 # # % = = % % = t l *.=.=.#.l h t r = r h l O.k y r r r y x y r t h t = = r y h k l O.l h x h z l l h r * > 0 G ~ ~ ` j.m.M.C.E.W.E.E.E.C.G O . . . . . . . . . X : : + + + + + @ X . . . . . % = X . O O                                                                                                                                                                                                                                     ",
"                                                                                                                                                              N V 8 5 4 $ X X # = = = = % = h $.=.<.<.$.h r r = r h l O.l h r r r t y r = r y t r t h h k l l h h h h h l l h r = > 8 C ' k.j.z.C.E.W.^./.(.(.(.).^.~ O . . . . . . . . . . . . . . . . . . . . . . . . # % X . O O                                                                                                                                                                                                                                     ",
"                                                                                                                                                                  8 8 5 $ X . O X % y h r = r h $.=.,.O.t = = = r k O.$.O.h y t r = = = = r y h k O.O.O.l k h h z O.O.X.l k r = 5 V B / k.m.x.C.W.!.^./.).[.OXOXOX(./ X . . . . . . . . . . . . . . . . . . . O . . . . o % O . O O                                                                                                                                                                                                                                     ",
"                                                                                                                                                                  M n n 5 # O . . o y h r = = r h O.#.h r = = = r k O.$.O.l l l y r r = = r y k O.#.#.O.k h x h l $.$.O.h y 6 5 M R ` j.M.N.N.W.^./.(.).[.OX@X@X@X[.( X . . . . . . . . . + , , , , , : : : $ o O . . . X o O . O O                                                                                                                                                                                                                                     ",
"                                                                                                                                                                  / ^ ~ N , + . . X = t r c = = r r r r = = = = r y k O.$.#.*.*.O.h y t r r y l $.#.O.k h x h l O.O.O.k u = w G R ( k.N.C.C.C.W.^.(.).[.OXOX@XOX@X{.` X . . . . . . . . . 0 [ j.h.h.[ ` ^ / H * o O . . O X . . O O                                                                                                                                                                                                                                     ",
"                                                                                                                                                                  ' ' ` Z 0 + . . X % r y y = = = = & = = = = = = r h l O.#.=.=.O.h y t t y h O.$.O.k h h h l l l k h t 6 5 N ^ / { m.E.W.W.E.!.(.[.[.OX@X@X@X@X#XOX` X . . . . . . . . . N E.(.W.W.Z.M.x.m.( , o X . . O O . . O O                                                                                                                                                                                                                                     ",
"                                                                                                                                                                  ^ / ` Z 8 + O O X @ = h h r = = = = = = = = = = r t h l O.#.#.l y u r y h l O.O.k h y h O.$.l h y r * 5 M G ^ _ [ z.Z.!.W.E.!.).[.OXOX@X#X#X#X$X@X} X . . . . . . . . . m E.^.W.E.N.M.m.M.( , o X . . O O . . O O                                                                                                                                                                                                                                     ",
"                                                                                                                                                                  G ~ / Z 0 + X O X o * u y y t t y h h u r = = = r t h l O.O.l h t r t h O.*.#.O.z x h l O.O.h t 1 > 5 V G ~ _ [ k.M.Z.W.W.C.W.(.[.@X@X#X$X$X$X2X$X| X . . . . . . . . . : H ~ G G H H H H 9 # O O . . . . . . O O                                                                                                                                                                                                                                     ",
"                                                                                                                                                                  N C ~ Z 8 $ X O X # % % r k l k $.*.O.h t r = = r t h l O.k h t r y h O.#.=.*.O.z h k O.l h t r & 7 M C ~ _ { k.m.N.Z.Z.C.N.E.^.[.OX#X$X,X,X2X5X,X| X . . . . . . . . . . O O O O O O O O . . . O O . . . . . O X                                                                                                                                                                                                                                     ",
"                                                                                                                                                                  0 M C N 8 : # % % % % # r l $.#.=.=.*.l h u r = = r h h h h y t y h O.*.*.*.O.k k l l l h t r = % 5 F ~ ` [ k.m.N.C.Z.Z.N.m.N.W.).OX#X$X,X2X2X3X,X| X . . . . . . . . . . . . . . . . . . . . . . . . . . . . O + N                                                                                                                                                                                                                                   ",
"                                                                                                                                                                  8 0 M n 8 > % = = = % % 1 j $.*.=.=.#.O.h y t r = r y y y y y x h l #.=.*.O.k h k O.l h y r = * * 0 ~ _ ' j.m.N.Z.Z.Z.Z.N.m.M.E.(.OX@X$X,X2X3X3X,X| X . . . . . . . . . O + + + + + + + + + . . . . . . . . . . > G (                                                                                                                                                                                                                                 ",
"                                                                                                                                                                    8 0 8 4 * % % % = = % * r h $.*.#.O.l l k h y r r r r r r t h X.$.#.#.O.k z l l k h t r = % > M F ~ ` ' j.m.N.E.Z.Z.Z.C.N.N.Z.^.[.OX#X,X2X2X3X2Xl.X . . . . . . . . . 8 } l.h.h.h.l.l.l.G + . . . . . . X X O > ~ [ '                                                                                                                                                                                                                               ",
"                                                                                                                                                                      8 5 4 $ # X X = r = % = r k l l z h k l k h t r r r r r t h O.#.$.O.k h z l k h t r = * - 0 R / ^ / ' j.m.M.C.Z.Z.Z.Z.Z.C.E.^.[.OX@X$X,X,X3X2Xl.X . . . . . . . . . H [.%X@X@X%X%X%X%Xx.: . . . . . . X o O , ` j.[ '                                                                                                                                                                                                                             ",
"                                                                                                                                                                      8 8 5 $ X O o r t = * = = r r r t y y y h h y r = c r r y h l O.O.z h l k x y t r = % * 8 N ~ ^ ~ ^ ( h.k.m.M.C.Z.Z.Z.Z.C.E.^.[.OX@X#X$X,X5X,X| X . . . . . . . . . H [.%X@X%X%X$X=X=XE.: . . . . . . O O O , [ m.j.[ ^                                                                                                                                                                                                                           ",
"                                                                                                                                                                      : , , - @ X X = r r r = = = = = c r r r t t t r = = r t h h l l l h k O.k t r r = * - > V F ~ / ~ ~ / | k.k.m.N.E.!.W.W.E.W.^.[.OXOX@X#X$X2X,X| X . . . . . . . . . 9 l.M.x.x.M.E.Q.Q.( + . . . . . . O O . 8 h.C.m.h.( ^                                                                                                                                                                                                                         ",
"                                                                                                                                                                      o # - = 1 % X X = h h r = = = = = = r r r = = = = = = r h l l h h l O.O.k t r = & - > 8 V C / _ ^ ~ / | k.k.m.N.W.^./.^.!.^.(.[.[.OXOX@X#X2X,X| X . . . . . . . . . X : : : : : > > > + . . . . . . . O O . 8 j.Z.M.j.[ ` ~                                                                                                                                                                                                                       ",
"                                                                                                                                                                      O X @ = r = % X % y h = = = c r r r r r r r = = = = = t h O.O.h h O.O.k h t c = * > , 0 V C / _ ( ^ ^ | z.m.M.C.W.(.(././.(.).[.{.{.OX@X#X2X,X| X . . . . . . . . . . . . . . . . . . . . . . . . . . O O . 8 k.W.N.m.k.[ ( '                                                                                                                                                                                                                     ",
"                                                                                                                                                                      X O X = r r r % % r r = = r t y y y y y y t r = = = r h O.O.l h h l k y t r = % > 8 8 0 M C ~ ` [ ` ( | m.N.C.C.W.^.^.^./.).[.{.{.OXOX@X#X,X,X| X . . . . . . . . . . . . . . . . . . . . . . . . . O O O . 0 x.^.E.N.M.k.[ f.[ ( ~                                                                                                                                                                                                               ",
"                                                                                                                                                                      r % X = y y r = % * 6 t h h h h l O.O.l k h t r r r r h l l k x x h h t r r = % > 8 0 m C R ( [ j.h.[ j.m.N.Z.Z.E.W.W.W.W.^.).[.OXOXOX@X@X$X#X| X . . . . . . . . . . . . . . . . . . . . . . . . . . O O . 0 N.).^.!.W.C.m.z.j.' ( ^                                                                                                                                                                                                             ",
"                                                                                                                                                                      h r @ r h h r r = % r k O.O.l l #.-.*.#.O.l h y x t r y h h y t t y y t r = % - > 8 n B R ( [ j.k.k.k.k.m.N.Z.Z.Z.Z.C.N.C.E.^.[.OXOX@XOX@X%X#X} X . . . . . . . . . . . . . . . . . . . . . . . . . . O O . 9 Q.OX).).(./.!.C.m.j.[ ( ^                                                                                                                                                                                                           ",
"                                                                                                                                                                      = r t y h h z h t r u h l O.$.#.=.<.=.*.#.$.O.O.l h r r t y t r r y y t 1 * * > 8 n M C ~ ` j.z.M.N.M.M.N.C.Z.Z.C.C.C.N.Z.W.^.(.{.@X@X@X@X$X@X} X . . . . . . . . . . . . . . . . . . . . . . . . . . . . . 9 ^.%XOX[.[.).(.^.E.m.j.' ' [ ` ~                                                                                                                                                                                                     ",
"                                                                                                                                                                      . = z h t h O.l k h h y h l $.*.=.<.=.=.*.#.#.$.O.h r r r r r = = t y t = % > 8 n N N C ~ ' j.M.C.E.E.Z.Z.Z.Z.E.E.E.E.E.W.^.^./.[.@X#X#X#X$X#X} X . . . . . . . . . . . . . . . . . . . . . . . . . . . . . m /.$X@XOX[.[.).(.!.C.m.j.h.h.' ( ^                                                                                                                                                                                                   ",
"                                                                                                                                                                        % = = = u h W O.$.l r r y l #.=.<.=.*.*.$.O.k h y r r r r = * = r t u = % > 8 n N F R ~ ` j.M.Z.W.!.W.Z.C.E.W.!.!.!.!.^.^.^./.[.OX#X#X#X$X#X} . . . . . . . . . . . . . . . . . . . . . . . . . . . . . . m `.2X#XOXOX[.).(.^.W.E.m.z.z.j.` ( ~                                                                                                                                                                                                 ",
"                                                                                                                                                                          O X % = t z $.=.#.y 1 r y l #.*.#.O.$.O.h y t r = = r = = % & r u u = % > 8 V C ~ / / [ k.M.C.!.^.W.E.Z.E.!.^.^.^./././.^./.[.OX#X#X#X$X#Xl.5 O . . . . . . . . . . . . . . . . . . . . . . . . . . . . m `.5X$X#X@X[.).(././.^.C.N.M.z.j.` (                                                                                                                                                                                                 ",
"                                                                                                                                                                            O X % r t l =.7.O.y r r r t y y y y y r r r = % = = = = % % = r r = % : 8 N ~ / ' h.k.M.C.Z.!.^.^.!.E.Z.E.W.^./.(.).(.^.^.[.OX#X$X#X$X#X{.Q.m . . . . . . . . . . . . . . . . . . . . . . . . . . . . i `.5X$X#X#XOX).).).).(.^.E.M.M.z.j.' ( ~                                                                                                                                                                                             ",
"                                                                                                                                                                              * * = = h *.=.*.O.y r = = = r r r r r r = * % % % = * % % = = r = % > 9 Z / ' f.k.M.C.Z.Z.W.!.^.^.W.E.E.W.^.).[.[.[.[.[.[.OX@X#X#X#X#X2X$Xl.8 X . . . . . . . . . . . . . . . . . . . . . . . . . ,  .+X5X$X$X#XOX[.[.).).).(.W.C.C.C.x.j.' (                                                                                                                                                                                             ",
"                                                                                                                                                                              z r % = r h $.<.=.k y r r r r r r r r r r = % o o % % o o % = = & % 5 M G / ' h.k.m.C.Z.Z.E.W.!.^.^.^.^.^.(.[.OXOXOX@X#X@XOXOXOX@X@X#X$X$X+XE.9 . . . . . . . . . . . . . . . . . . . . . . . . : l.+X,X3X,X$X#X@XOX[.).).).).(.^.!.W.C.x.j.' ( ~                                                                                                                                                                                         ",
"                                                                                                                                                                            j d t 6 = = r k *.$.h r r r r r t t t r r r = = o X o o X X % = = & % 7 0 N G ( [ k.m.M.C.C.Z.Z.W.!.^.^.^./.(.[.OXOX@X#X$X@XOXOXOX@X#X#X#X#X=X@Xh.N K 0 O . . . . . . . . . . . . . . . . . , m m ) [.3X3X2X,X,X$X#X@XOX[.[.[.).(.(./.^.W.C.x.j.' (                                                                                                                                                                                         ",
"                                                                                                                                                                              % r h 1 & 6 t y u = % & = r r t y y y y t r r % X O X O X % % = = = * * 5 n G ` l.m.m.M.C.Z.Z.Z.W.!.^.^.^.^.(.[.OXOX@X@X@XOXOX@X#X#X#X#X#X$X#X+X).+XR., . . . . . . . . . . . . . . . . + ( ).+X+X,X2X2X2X,X,X,X$X#X@XOXOXOX[.).).(.^.^.!.C.x.j.' ( ~                                                                                                                                                                                     ",
"                                                                                                                                                                              X = r r r = r d h y r = = = r u y h z l O.l h = O O O X o % % = = e = % : 0 Z ` h.k.k.M.C.Z.Z.Z.E.W.!.^.^./.).[.OX@X@X@X@X@X@X@X#X#X#X#X#X#X$X$X2X5X+X| G G ~ ~ G ~ G ) ) ) ) ) ) ) ~ G ) ~.,X5X2X2X,X,X2X3X5X,X$X#X#X@X@XOX{.[.[.(.^.^.^.W.C.x.j.' ( ^                                                                                                                                                                                   ",
"                                                                                                                                                                                X % t h r u l $.$.l y 6 = r t y h O.%.=.*.O.r X O X @ % % % = r r = % > 0 Z ( [ j.k.M.C.Z.Z.C.C.Z.W.!./.(.[.{.@X#X$X$X#X#X#X#X@XOX@X@X#X#X#X#X#X%X#X#X#X#X@X#X#X#X#X#X>X,X,X,X,X>X#X#X#X#X#X#X$X,X,X,X3X9X4X2X$X#X#X#X@XOXOXOX[.(.^.^.^.^.!.C.x.j.` ( ^                                                                                                                                                                                 ",
"                                                                                                                                                                                  o 6 t y y j l O.O.O.k j k l X.O.$.*.=.=.#.y % X X # % % % % = r = % > 0 N G R ` k.m.M.N.C.N.M.C.E.^./.).[.{.@X$X2X3X,X$X$X#X@XOXOX@X@X@X@X#X#X#X$X2X2X2X2X2X5X5X5X3X4X9X9X9X9X4X3X3X5X2X$X#X$X,X,X,X3X4X4X2X,X$X$X#X#X@X@XOXOX[.(./.^.(.(.!.C.x.j.` ' [ `                                                                                                                                                                             ",
"                                                                                                                                                                                    % = y h r t k O.$.$.#.#.#.#.#.#.*.-.=.*.k = o X o % % % % = r = % > 8 V N N ~ j.z.n.M.C.M.m.N.E.!./.).[.{.OX#X5X4X3X,X$X#X@XOXOXOXOXOX@X#X#X#X#X#X#X#X#X#X$X,X,X2X2X3X3X3X3X3X3X3X2X,X,X$X$X,X,X,X2X3X3X3X2X,X$X$X#X#X@X@XOXOX).(./.(.)./.W.C.x.j.f.[ ' /                                                                                                                                                                           ",
"                                                                                                                                                                                    % = 6 r r r y h h l O.$.$.#.#.#.#.#.#.$.k r % O X o o o % = r e * , 8 V B F ^ h.j.k.m.M.M.M.M.M.E.!./.).[.OX@X$X2X2X,X,X$X#X@XOXOXOXOXOX@X@X#X#X#X#X#X#X#X$X$X,X,X2X2X3X3X3X4X6X4X3X2X,X,X,X,X,X,X2X2X2X2X2X,X,X$X$X#X#X@X@X{.[.).(.(././.^.W.C.x.k.f.[ ' ( ~                                                                                                                                                                       ",
"                                                                                                                                                                                    = * % % = r r r r y k l O.O.O.O.O.X.X.l h t % X O O O X % = r r = , 8 n B R / ' j.k.k.n.M.N.m.m.N.W.!./.).[.{.@X#X$X,X,X,X$X@XOXOXOXOXOXOX@X#X#X#X#X#X#X#X#X#X,X,X,X2X3X3X3X4X9X9X4X2X,X,X,X,X,X,X,X,X2X2X2X2X2X,X$X$X#X#X@XOX[.[.).(././././.!.C.x.j.j.h.' /                                                                                                                                                                       ",
"                                                                                                                                                                                    4 2 % % % = r r r t y h h j h h h h h y y r = % X O O X % = = r r = > 9 B C G ^ [ k.m.k.m.m.M.N.C.Z.E.!./.).[.{.OX#X$X,X,X$X@XOX{.OXOXOXOX@X#X#X@X@X#X#X#X#X#X$X$X,X2X2X2X3X4XqXqX9X3X,X,X,X,X,X,X,X,X2X3X3X3X2X,X,X$X$X#X#X@XOX[.).(.(.(.).).(.!.C.x.z.z.h.' ( ~                                                                                                                                                                   ",
"                                                                                                                                                                                    4 4 2 * = = = = = = = r r r r r r = = = = = = % X O O X % % = r r = - 0 N N C ~ ` j.k.k.k.m.N.Z.Z.Z.Z.W.!.^.).[.{.@X#X$X,X$X#XOXOX{.OXOXOX@X#X#X@X@X@X#X#X#X#X#X$X$X,X,X2X3X4X9XqX9X3X2X,X,X2X2X,X,X,X2X3X4X3X2X,X,X,X$X$X#X#X@XOX[.[.).).).).(./.W.C.C.C.z.h.' (                                                                                                                                                                   ",
"                                                                                                                                                                                    q q q p d r % X o o o o % % % # o o o o o o X X O O O X % % % = = % - 0 N N C ~ ` [ j.n.k.m.N.Z.Z.Z.Z.Z.E.!./.).[.{.@X#X$X$X#X#X@XOXOXOXOX@X#X#X@XOXOX@X#X#X#X#X#X$X$X,X,X2X3X4X9X9X4X3X2X2X3X3X2X,X,X2X3X4X3X2X,X,X,X,X$X$X#X#X@XOX[.).).)./.(.)./.^.!.W.C.z.h.' ( ~                                                                                                                                                               ",
"                                                                                                                                                                                    q a f k h r % % = = = = = r r = = = = = = = = = = % o o % % % % = % - 8 V n N G ^ ` f.j.k.m.M.N.C.Z.Z.Z.Z.W.^./.).[.{.@X@X@X#X#X@XOXOXOXOX@X@X@X@XOXOXOX@X#X#X#X#X#X$X,X,X,X2X3X6XqX9X4X3X2X3X3X2X2X2X3X3X3X3X2X,X,X,X,X,X$X$X#X#X@XOX[.[.).(.(.).(./.^.^.W.N.z.h.' (                                                                                                                                                               ",
"                                                                                                                                                                                    q s Q T r = r t h k k l l T T l l l l k k k k k h y * # % % % & = % - 5 8 8 9 N R ` [ h.j.k.m.m.N.C.Z.C.Z.W.^.^./.).[.{.OXOX@X#X@XOX{.OXOXOX@X@XOXOXOXOXOX@X#X#X#X#X$X,X,X,X2X3X6X9XqX9X4X3X3X3X3X3X3X3X3X3X3X2X,X,X,X,X,X,X$X#X#X#X@XOX[.).).).).(.^.^.^.^.W.C.z.h.' / ~                                                                                                                                                           ",
"                                                                                                                                                                                    q s $.O.r = 1 r y y y d h h h h h h h h h h h h h y 6 = = = = = = e 6 5 8 0 w B ~ ' [ [ j.j.k.m.M.M.M.N.C.W.W.^.^./.).[.[.[.OX@X@X@XOX{.OXOXOXOXOXOXOXOX@X@X#X#X#X#X$X$X,X,X2X2X3X4X6X6X3X3X3X3X3X4X4X4X3X3X3X3X2X2X2X2X,X,X,X#X#X#X%X@XOX[.[.).).).(.(.(.(./.W.N.z.h.' (                                                                                                                                                           ",
"                                                                                                                                                                                    q s $.O.t = % % % @ o % * * & & & & & & & & % = r r r r r r r r r y d 0 8 q D R / ' [ f.f.h.k.n.m.m.m.M.C.Z.E.!.^.^./.).[.).[.{.@X#X@X{.{.{.{.OXOXOXOX@X#X#X#X#X#X#X#X#X$X,X,X2X2X2X3X3X2X,X,X2X3X4X9X6X4X3X3X3X3X3X3X2X,X,X,X#X@X@X@X#X@XOX[.).).).).).).).)./.W.C.z.h.' / ~                                                                                                                                                       ",
"                                                                                                                                                                                    q s +.O.y = = % # O . # * * % % % % & * * * % & = r r = = = c = r x z d i w D ~ / _ [ j.j.h.j.k.k.m.M.N.C.W.W.W.W.^./.(.(./.(.[.OXOXOX{.{.{.{.OXOXOXOX@X#X#X@X@X@X#X#X#X$X,X,X,X,X,X2X2X2X,X,X2X3X4XqX9X6X6X4X4X3X3X3X2X,X$X$X$X#X@X@X@X@XOX[.).).).).).(.(.(.(./.W.C.z.h.' ( ~ ~                                                                                                                                                   ",
"                                                                                                                                                                                    q a W l y u r 1 % X O = r t t y y t t r u r c = = = = = r = = = 6 y h j g D C ~ ~ ^ [ j.j.h.j.z.k.m.N.C.Z.!.^.W.E.!.^.^.^.^.(.).[.[.[.{.{.{.{.OXOXOXOX@X#X#X@X@X@X#X#X#X$X,X,X,X,X,X,X,X,X,X,X2X3X4X9XqXqXqX9X4X4X3X3X2X,X$X$X,X$X#X@X@X@XOX[.[.[.[.).(./.^./.).)./.W.C.z.h.' / ^ ^                                                                                                                                                 ",
"                                                                                                                                                                                    q a l k p g l x = % % t l $.-.<.<.=.#.l l k t = = = = t l y = 2 t u u t 0 M C ~ ^ ^ ' f.[ [ k.m.m.m.m.N.C.W.W.E.Z.E.W.W.W.^./.).).).[.[.{.{.{.OXOXOXOX@X#X#X#X#X@X@X@X#X$X$X,X,X,X,X,X,X,X2X2X3X3X4X4X9XqXqXqX9X6X4X3X3X,X$X$X$X,X$X#X@X#X@XOX{.OX[.).).(.(.(.).)./.^.W.C.z.h.' ' ' ( ~ ~                                                                                                                                           ",
"                                                                                                                                                                                    q a z j p Y #.l r = r h ;.<.4.uXuX4.2.*.%.$.y = = = = h *.l = 7 a t 6 5 8 m B R ~ ~ / ' ` [ k.M.m.k.k.M.C.Z.Z.Z.Z.E.E.E.W.^./.).).).).).[.{.{.OXOXOXOX@X#X#X#X#X#X@X@X#X#X#X$X,X,X,X,X,X,X2X3X3X3X3X3X4X9XqXqX9X9X4X3X3X2X$X#X#X$X,X$X$X#X#X@XOXOXOX[.[.).[.[.[.)./.^.^.W.C.z.j.j.h.` / / /                                                                                                                                         ",
"                                                                                                                                                                                    q a z h t l *.O.r = r h %.1.yXpXaX'.2.=.*.O.t r h h r h *.O.r t a a 7 t i 0 n B R ~ ^ / _ { k.m.m.k.k.m.C.Z.Z.C.E.!.!.!.!.^././.(.).(./.).[.{.{.OXOXOX@X@X@X@X#X#X#X#X#X#X#X$X$X,X,X,X,X,X,X2X2X3X3X3X4X4X9X9X9X4X3X3X3X3X,X$X#X$X$X,X,X$X#X#X@X@XOXOX[.[.[.OX[.)./.^.^.^.W.C.x.z.k.| ` ` ` /                                                                                                                                       ",
"                                                                                                                                                                                    q a z h y l *.T r = r h %.1.iXdXaX4.2.=.*.O.t r h h e h *.$.y p a a a p i 8 0 M F ~ ^ ^ _ { j.k.k.k.k.m.N.C.Z.Z.E.!.^.^.^.^.!.!.^.(.(./.(.[.[.{.{.OXOXOXOXOXOX@X#X#X#X#X#X#X#X#X$X,X,X,X,X,X,X2X3X3X3X3X3X4X9X4X4X4X4X3X3X2X,X$X#X$X,X,X$X#X#X#X@XOXOXOX[.OXOX[.).(./.^././.W.C.C.N.k.j.j.[ ` /                                                                                                                                     ",
"                                                                                                                                                                                    q a z k z T $.z r = r z %.1.iXdXaX4.2.=.%.O.t = r r = h ,.-.f a a a a     8 0 M F ~ ^ ^ _ ' { f.k.n.z.n.m.M.C.Z.E.!.^.^.^.W.E.E.!./.(.).).).[.[.{.{.OXOXOXOXOX@X@X@X@X@X@X#X#X#X$X$X$X$X,X,X,X,X2X2X3X3X3X4X4X9X9X9X9X4X3X3X2X,X$X$X,X,X$X#X#X@X@XOXOXOXOX[.[.[.).).(.^./.(./.!.!.W.N.x.m.k.[ ` ^ ~ ~                                                                                                                               ",
"                                                                                                                                                                                    q a z l l O.+.k y t y l %.1.iXhXpX4.2.=.%.O.h t t t y O.=.%.I U a a q     8 8 n N R ~ ^ / _ ` { j.k.k.m.m.N.C.Z.E.W.!.^.!.E.Z.W.W.^.(.[.).).).[.{.{.{.{.{.OXOXOXOXOXOX@X@X#X#X#X#X#X#X$X,X,X,X,X,X2X3X3X3X3X3X4X9XqX9X4X3X3X3X,X,X$X,X,X$X$X#X#X@X@X@X@XOXOX[.[.[.[.).(.(.).).(./.^.W.C.Z.N.k.[ ` ( ( (                                                                                                                             ",
"                                                                                                                                                                                    q a z l k O.#.O.k h k W %.1.uXhXhXyX2.=.#.+.W O.O.$.#.*.#.Q I P a a a     8 8 8 9 N R ~ ^ / _ ' f.j.k.m.N.C.Z.Z.Z.E.W.^.!.E.W.!.^.^.(.).).).).[.{.{.{.{.{.OXOXOXOXOX@X#X#X#X#X#X#X#X#X$X,X,X,X,X,X,X2X2X2X3X3X4X4X9X9X4X3X3X3X2X,X,X,X,X,X,X$X#X#X#X#X@XOXOXOXOXOX[.).).).).).).(.^.^.^.^.W.N.k.[ [ [ ` ^                                                                                                                           ",
"                                                                                                                                                                                    q a z l l T +.O.T l W O.%.1.uXhXhXiX6.=.*.$.#.#.#.*.-.*.$.Y I P a a q       8 8 0 N G ~ ^ ^ / ' [ j.k.m.M.C.Z.C.N.C.E.^.^.E.W.^.^.^.(.).[.).).[.[.{.{.{.{.OXOXOXOXOX@X@X#X#X#X#X#X#X#X$X,X,X,X,X,X,X,X2X2X3X3X3X4X4X6X4X4X3X3X2X2X2X2X2X2X2X,X$X#X#X#X@XOXOXOX@XOX{.[.[.).).).(.(.(.(.(./.^.Q.M.k.j.k.[ ` /                                                                                                                         ",
"                                                                                                                                                                                    q a z l l k I Y O.O.O.O.%.1.uXhXhXsX3.=.*.#.#.#.$.$.#.#.$.W I P a a q         8 0 M G ~ ~ ~ ~ ( [ j.k.n.m.M.C.M.m.N.E.!.!.E.W.^.^.^.(.).).).).).[.[.{.{.{.{.{.{.OXOXOXOX@X#X#X@X@X#X#X$X,X,X$X$X,X,X,X2X3X3X3X3X3X4X4X9X9X4X3X3X2X2X2X3X3X3X2X,X$X#X#X@X@XOXOXOXOXOXOX[.).).(./.(.).).)./.^.^.Q.N.M.M.k.[ ` ^ ~ ^                                                                                                                   ",
"                                                                                                                                                                                    q a z l k f s Y O.O.O.O.%.1.uXhXhXaX5.=.*.#.O.k T O.O.$.$.+.Q I a a q         8 8 9 N G ~ ^ ~ ( [ j.k.n.k.m.M.m.m.N.E.W.W.Z.W.^.^.^./.(.(.(.).).).[.[.{.{.{.{.OXOXOXOXOX@X@X@X@X@X@X#X$X,X,X$X$X,X,X,X2X2X2X2X3X4X4X6X6X4X4X3X3X2X,X3X3X3X2X2X,X,X$X#X#X@X@X@X@XOXOXOXOX[.).(.(.).).).).(.(./.!.W.E.E.M.j.[ ` ` ` ^                                                                                                                 ",
"                                                                                                                                                                                    q a z k I P I Y O.O.O.O.%.2.uXhXhXsX3.=.*.#.h t h l l O.#.#.+.Q s a q         8 8 8 9 N G ~ ~ ( [ h.k.n.k.k.z.n.m.N.Z.Z.Z.Z.W.^.^.^.^.^.^./.(.).[.[.[.[.{.{.{.OXOXOXOXOXOX@X@X#X@X@X@X$X,X,X$X$X,X,X,X,X,X,X2X3X4X9X9X4X3X3X4X3X3X2X3X3X2X,X,X,X,X,X$X#X#X#X#X@XOXOXOXOXOX[.[.[.).).[.[.).(./.^.^.^.^.E.M.j.h.h.[ ( ^                                                                                                               ",
"                                                                                                                                                                                    q a z k f P I Y O.O.O.O.;.<.iXhXhXiX6.=.*.#.h r y h k O.*.*.$.Y s a q           8 8 8 9 N G ~ / ( ` h.j.k.k.k.k.m.N.Z.Z.E.W.^.^.!.W.!.^.(.(.(.(.[.[.[.[.[.{.{.OXOXOXOXOX@X@X#X#X@X@X@X#X$X$X$X$X,X,X,X,X,X,X2X3X4X4X4X4X3X3X4X9X4X4X4X3X2X,X,X,X,X,X,X$X#X#X#X#X@X@XOXOXOXOXOXOX[.[.[.[.[.(.^./.(.(.^.!.E.M.z.z.j.' ` ^                                                                                                             ",
"                                                                                                                                                                                    q a z k f P I Y O.O.O.O.#.<.yXhXhXyX2.=.*.$.h t y h k $.=.=.$.Y s a q             8 8 8 9 N G ~ ~ ( [ j.k.n.k.k.m.M.C.Z.E.!.^.^.W.E.W.^.(.)./.(.[.{.[.).).[.{.{.OXOXOXOX@X#X#X#X@X@X@X#X$X$X#X$X,X,X,X,X,X,X2X2X3X3X3X3X3X3X4X9XqX9X4X3X2X2X,X,X2X2X,X$X$X#X#X#X#X@XOXOXOXOXOXOX[.[.OXOX[.)./.(.).(./.^.^.E.N.N.M.k.[ ( ^                                                                                                           ",
"                                                                                                                                                                                    q a z k I P I Y O.O.O.O.#.<.yXhXhXyX2.=.*.#.k y h h k #.<.=.$.Y s a q               8 8 8 9 N F ~ / ' f.k.m.k.k.k.m.M.C.E.W.!.^.W.E.W.^./.(.(.).{.{.[.).).[.[.{.OXOXOXOX@X@X#X#X@X@X@X$X$X$X$X#X$X,X,X,X$X,X,X2X2X2X2X3X3X3X4X4X9XqX4X3X3X2X2X2X3X2X,X,X,X$X#X#X#X@XOXOXOXOX@XOXOXOX[.[.OX[.).).).).(./.^.!.W.W.E.M.k.' ` ~                                                                                                         ",
"                                                                                                                                                                                    q a z k I P I Y O.O.O.O.#.<.yXhXhXyX2.=.*.#.l h k l l #.<.=.$.Y s a q                 8 8 8 n B ~ / ' [ k.k.k.k.k.k.m.N.Z.Z.W.^.!.W.W.^.^./.).[.{.{.[.).).).[.[.OXOXOXOXOXOX@X#X#X@X@X#X$X,X$X$X$X$X,X$X#X$X,X,X,X,X2X3X3X3X3X3X4X9X4X3X4X3X2X2X3X3X2X2X,X$X$X$X#X@X@X@X@XOXOXOX@XOX[.[.OXOX[.).).).).(.^.^.^.^.!.E.M.k.' ( ^                                                                                                       ",
"                                                                                                                                                                                    q a z k f P I Y O.O.O.O.#.<.yXhXhXyX2.=.*.#.$.$.O.O.O.$.;.#.+.Y P a q                   8 8 n B ~ / ' { [ f.j.j.k.k.m.N.Z.Z.W.^.^.!.W.W.!./.[.{.{.{.[.).).).[.[.OXOXOXOXOXOX@X#X#X#X@X@X#X$X,X,X,X$X$X$X#X$X$X,X,X,X2X3X3X3X3X3X4X4X4X4X9X9X3X2X2X2X3X2X,X,X,X$X#X#X#X#X@XOXOXOX@XOX[.).[.[.[.).).).).(.^.^.^.^.^.W.E.m.k.[ ` ~ ~ ~                                                                                                 ",
"                                                                                                                                                                                    q a z k f P I Y O.O.O.O.#.<.yXhXhXyX2.=.*.*.*.;.$.+.$.+.O.O.W Y P a q                   8 8 9 N G ~ _ ` _ ' [ k.k.k.m.N.Z.Z.W.^./.^.!.W.!./.[.[.[.[.[.).).).[.[.{.OXOXOXOXOX@X#X#X#X@X@X#X$X$X,X,X,X$X$X$X$X$X,X,X,X2X3X3X3X3X3X3X3X3X4X9X9X6X3X2X2X3X2X,X,X,X$X#X#X#X#X#X@X@X@X@XOX{.[.).).).[.[.[.).(./.^.^././.^.!.E.M.k.[ ( ( ( /                                                                                               ",
"                                                                                                                                                                                    q a z k f P I Y O.O.O.O.#.<.yXhXhXyX2.=.*.%.;.#.$.$.+.+.+.W I I U a q                   8 8 8 0 N F ~ / ^ _ ' j.k.k.m.N.Z.Z.W.^.^.^.^.^.^./.).).(.(.).).).).).[.[.{.OXOXOXOXOX@X@X@XOX@X#X#X@X#X,X,X,X,X,X,X,X,X,X,X,X2X2X2X2X2X3X3X3X4X9XqX9X6X3X3X3X2X,X,X,X$X#X#X#X#X#X#X#X#X@XOXOXOX[.).).[.OX[.[.).)././.(.(.^.^.^.E.m.k.[ [ ' ( ~                                                                                             ",
"                                                                                                                                                                                    q a z k f P I Y O.O.O.O.#.<.yXhXhXyX2.=.*.#.$.O.O.O.O.O.O.Q Y I U a q                     8 8 8 9 M F ~ ~ ` [ j.j.k.m.N.Z.Z.W.^./././.^./.(.).).(.(.).[.).).).).[.[.[.{.{.{.OXOXOXOXOX@X#X#X@X#X$X,X,X2X,X,X,X,X,X,X,X,X,X,X2X2X2X3X3X4X4X9XqX9X6X4X3X2X,X2X2X,X$X#X$X$X$X$X$X#X#X@X@XOX{.[.[.[.OXOX[.[.[.(.^.).)./.^.^.!.E.M.k.j.j.` ( ^                                                                                           ",
"                                                                                                                                                                                    q a z k I P I Y O.O.O.O.;.<.'.dXpX4.2.=.*.#.l h k l l W O.$.O.Y s a q                       8 8 8 0 N F ~ ` [ f.h.j.m.N.Z.C.W.^.(.).(.^.(.).).).).).).).).).).).).[.[.{.{.{.OXOXOXOXOX@X#X#X#X#X#X$X,X,X,X,X,X$X$X,X,X,X,X,X2X3X2X2X3X3X3X4X9XqX9X9X4X2X2X2X3X2X,X$X$X,X,X,X$X#X#X#X@XOXOXOX[.).[.[.OXOXOX)./.).)./.^.^.^.^.E.M.M.m.j.' ( ~                                                                                         ",
"                                                                                                                                                                                    q a z k I P I Y O.O.O.O.;.<.4.pXaX4.2.=.=.#.h r y h k O.*.*.$.Y s a q                         8 8 0 M C ~ ( ' [ h.j.m.M.M.M.N.W.^.(./.^.(.).(.(.(.(.(.(.).[.[.[.[.[.[.{.{.{.OXOXOXOXOX@X#X#X#X#X#X$X$X,X,X,X,X,X$X$X,X,X,X,X2X2X2X2X3X3X3X4X4X9XqX9X4X3X2X3X3X2X,X,X,X,X,X,X,X$X$X#X#X@X@XOXOX[.).[.[.OX[.[.[.).).(./.^.^.^.W.Q.W.Z.m.j.' ( ^                                                                                       ",
"                                                                                                                                                                                    q a z k I P I Y O.O.O.O.;.<.'.pXaX4.2.=.=.*.h 1 t h k $.=.=.$.Y s a q                           8 0 M C ~ ~ ^ ' h.j.k.n.n.m.M.C.W.^.^./.(.)./.^.^.^.^.(.).[.{.[.[.[.{.{.{.{.OXOXOXOXOX@X#X#X@X@X#X#X#X$X,X,X,X,X,X$X$X,X,X,X,X2X2X3X3X3X3X3X3X4X9XqX9X4X3X3X3X2X,X,X,X,X2X2X,X,X$X$X#X#X@XOXOXOX[.).[.).[.OXOX[.[.).(./.^.^.^.^.^.!.C.m.j.' ( ~                                                                                     ",
"                                                                                                                                                                                    q a z k f P I Y O.O.O.O.;.<.tXpXaX4.2.=.=.*.h r y h k #.<.=.$.Y s a q                           8 8 0 M C R ^ ' h.j.k.k.m.M.N.C.E.W.^.(.(./.^.^.^.^.^./.).[.[.[.[.{.{.{.{.{.OXOXOXOXOXOX@X@XOX@X#X#X#X$X,X2X,X,X,X,X,X,X,X,X,X,X2X2X2X2X3X3X3X4X4X9XqX6X3X3X3X3X2X2X2X2X3X2X,X$X$X,X,X$X#X@X@XOXOX[.).).[.OXOXOX[.[.).(./.^.^.^.^.^.W.Z.m.j.' ( ~                                                                                   ",
"                                                                                                                                                                                    q a z k f P I Y O.O.O.O.#.<.'.pXaX4.2.=.=.*.k t h l l #.<.=.$.Y s a q                           8 8 8 0 M Z ~ ` [ j.k.k.m.C.Z.Z.Z.E.^.).(.^.^.^.^.^.^.(.).).).).[.[.{.{.{.{.{.{.OXOXOXOXOXOXOX@X#X#X#X$X,X,X,X2X2X,X,X,X,X,X,X,X,X,X,X2X3X3X3X3X3X4X9X9X4X3X3X4X3X2X2X3X3X3X2X$X$X,X,X,X$X#X@X@XOXOX[.).[.{.OXOXOX[.[.).(./.^.^.^.^.^.!.C.m.j.' ( ^                                                                                 ",
"                                                                                                                                                                                    q a z k f P I Y O.O.O.O.#.<.XXpXaX4.2.=.=.=.$.O.O.O.O.$.*.%.+.Y s a q                             8 8 8 0 M C ~ ` j.z.k.m.C.E.Z.Z.Z.!././.^.^.^.^./.(.).).).).).[.[.[.[.[.[.[.{.OXOXOXOXOXOXOX@X@X#X#X#X#X$X2X2X3X2X,X,X,X$X,X,X,X,X,X,X2X2X3X3X3X4X9X9X9X4X4X6X6X3X2X2X3X3X2X,X$X$X$X$X,X$X#X@X@XOXOX[.).[.[.OXOXOX[.[.).(.(.(./.^.^.^.W.E.m.j.' ( ~                                                                               ",
"                                                                                                                                                                                    q a z k I P I Y O.O.O.O.#.<.4.pXpX4.1.=.=.=.*.#.$.+.+.+.+.+.+.Q P a q                               8 8 8 9 N G ( | k.n.m.N.C.C.C.Z.!.^././.^.^.^./.).).).).).).).).).).).[.[.{.{.{.OXOXOXOXOXOXOX@X#X#X@X#X,X2X3X2X,X,X,X$X$X,X,X,X2X2X2X2X3X3X3X4X9XqX9X6X4X9X9X4X3X2X2X3X3X,X$X$X#X$X,X,X$X#X@X@X@XOX[.).[.OXOXOXOX[.[.).).).(./././.^.!.C.m.j.' ( ^                                                                             ",
"                                                                                                                                                                                    q a z k I P I Y O.O.O.O.#.=.5.pXaX4.1.<.=.=.*.#.$.+.+.+.+.+.+.Q P a q                                 8 8 9 N G / [ j.k.m.m.m.m.B.Z.!.^.(.(./.^.^.^./.(.).[.).(./.).).).[.[.{.{.{.{.OXOXOXOXOXOXOX@X#X#X#X#X$X,X2X2X,X,X,X$X$X,X,X2X2X3X3X3X3X3X3X4X4X9XqX9X9X4X4X3X3X3X3X3X2X,X,X,X$X$X,X,X,X$X#X#X#X@XOX[.).[.[.OXOXOX[.[.).).).).).(./.^.!.E.m.j.[ ( ~                                                                           ",
"                                                                                                                                                                                    q a z k f P I Y O.O.O.O.#.=.3.aXaX4.1.<.=.=.#.O.O.O.O.O.O.+.W Y s a q                                   8 0 M C ~ ` [ j.k.k.k.k.M.Z.W.^.(.(./.^.^.^.^.(.).[.)./.^.(.).).[.[.{.{.{.{.OXOXOXOXOXOXOX@X#X#X#X#X$X,X,X2X2X2X,X$X,X,X,X2X2X3X3X3X3X3X3X3X3X6XqXqX9X6X4X4X4X4X4X3X3X2X2X,X$X$X,X,X,X,X$X$X#X@XOX{.[.).[.{.OXOXOX[.[.).).).).)./.^.^.W.N.k.[ ` ~                                                                           ",
"                                                                                                                                                                                    q a z k f P I Y O.O.O.$.*.=.3.uXuX4.1.<.,.*.l y h l l W O.W I I a a q                                   8 8 0 V C ~ ( ' f.k.k.k.M.C.E.W.^./.^.^.^.^.^.(.).[.)././.(.).).[.[.[.[.[.{.[.[.OXOXOXOXOX@X@X@X#X#X$X,X2X3X3X2X,X,X,X,X,X,X2X2X2X2X2X2X3X3X3X6XqXqXqX9X9X9X9X9X6X4X3X3X2X,X,X,X,X,X,X,X,X$X#X@XOXOXOX[.).[.[.OXOXOX[.).(./.).)./.^.^.W.N.k.[ ` ~                                                                           ",
"                                                                                                                                                                                    q a z k f P I Y O.O.O.$.*.=.3.iXiX4.1.<.<.*.h r y k k O.;.@.Y I a a q                                   8 8 8 9 N R ^ ' f.k.k.k.m.N.C.Z.!.^././.^.^.^./.(.).).(.(.(.).).[.[.[.[.[.{.[.[.OXOXOXOX@X@XOX@X#X#X$X$X,X2X2X2X,X,X,X,X,X,X,X,X,X,X,X2X2X3X3X4X9X9X9X9XqXqXqXqX9X4X4X3X3X2X2X2X2X,X,X,X,X,X#X@XOXOXOX{.[.[.{.OX@XOXOX[.[.).).)./.^.^.W.E.m.k.[ ( ^                                                                         ",
"                                                                                                                                                                                    q a z k f P I Y O.O.O.$.*.=.3.iXiX4.1.<.<.*.h 6 t h k $.=.*.+.Y s a q                                     8 8 9 N R ( ' j.k.k.k.k.m.M.E.!.^.(.(./.^.^.^./.(.).).)././.).[.{.{.{.{.{.{.{.OXOXOXOX@X@XOX@X#X#X#X#X$X,X2X,X,X,X,X,X$X$X,X,X,X,X,X,X2X2X2X3X4X4X4X9XqXqXqXqXqX9X4X3X3X3X3X3X2X,X,X,X,X,X#X@XOXOXOXOXOXOXOXOXOXOXOXOXOXOX[.)./.^.^.^.^.E.M.k.[ ( ~                                                                       ",
"                                                                                                                                                                                    q a f f I P P Y O.O.O.$.*.=.3.iXiX5.1.<.<.*.h r y h k #.<.=.$.Y P a q                                       8 9 B R ( [ j.k.n.n.k.n.M.Z.W.!./.(.(.^.!.!.^.(.).).(.^./.).[.[.[.[.{.{.{.{.OXOXOX@XOXOXOX@X#X#X#X#X$X$X,X,X,X,X,X,X,X$X,X,X,X,X,X,X,X2X2X3X3X4X4X6X9X9XqXqXqXqX9X4X4X3X3X3X3X2X2X,X,X,X$X#X@X@X@X@X@X@XOXOXOX{.[.OXOXOXOX[.(./.^.^.^.W.E.M.k.[ ( ^                                                                     ",
"                                                                                                                                                                                    q a a I P P I Y O.O.O.$.*.=.3.iXyX3.2.<.=.*.l h z k l #.<.7.$.Y P a q                                       8 9 N R ( [ j.k.k.k.n.n.M.Z.Z.E.!./.).^.W.W.^.(.).(.^.^./.).[.[.).[.[.{.{.{.{.OXOX@XOXOXOX@X#X@X@X#X#X#X$X,X,X,X,X,X,X,X,X,X,X,X$X$X,X2X3X3X4X6X9X4X4X9XqXqXqXqXqX9X4X4X3X3X3X3X2X,X,X,X,X$X#X#X#X#X#X@XOXOXOX[.).[.OXOXOXOX[.(.^.^.^.^.^.E.M.k.[ ( ^                                                                   ",
"                                                                                                                                                                                    q a a P P I Q Q O.O.O.$.*.=.3.iXyX3.2.<.=.=.$.O.O.O.O.$.-.*.$.Y s a q                                         0 n G ( [ h.j.j.k.k.n.M.Z.Z.Z.E.!.(.(.!.!.^./.(./.^.^./.).).).).).[.{.{.{.{.{.OXOXOXOXOX@X%X#X@X@X@X#X$X,X2X2X2X,X,X,X,X$X,X,X$X$X,X2X3X4X4X4X4X4X4X9XqXqXqXqX9X6X6X6X4X3X3X3X2X,X,X,X,X$X#X#X@X@X@XOXOXOXOX{.[.).[.{.OXOX[.).(./.^.^.^.!.E.M.k.' ( ^                                                                 ",
"                                                                                                                                                                                    q a a P P Y O.O.O.O.$.#.*.=.3.iXyX3.2.<.=.=.*.#.$.+.+.+.+.+.O.Y s a q                                         8 0 B ^ ` [ f.j.k.k.n.M.C.Z.Z.Z.!.(.)./.^.^.^.^.^.^.^./.).).).).).[.{.{.{.{.{.{.OXOXOXOX@X#X#X#X@X@X#X$X,X2X3X2X,X,X,X$X$X,X,X$X$X,X2X3X3X3X3X3X3X4X9XqXqXqXqX6X4X6X9X4X3X3X3X2X,X,X,X,X$X#X@X@X@X@X@X@XOXOXOX{.[.).[.OXOX[.[.).(./.^.^.^.^.C.m.j.' ( ^                                                               ",
"                                                                                                                                                                                    q a a P P Y O.O.O.O.$.#.*.=.3.iXiX5.1.<.=.=.*.#.#.$.$.+.O.W Y I a a q                                         8 8 M G ^ ' [ j.k.k.k.m.m.N.E.W.^.).).).(.^.^.^.^.^.^./.).[.).).).[.[.[.[.{.{.{.OXOXOXOX@X@X#X#X#X#X#X$X$X$X,X,X,X,X,X$X$X,X,X,X$X$X,X2X2X2X3X3X3X4X9XqXqXqXqX4X3X4X4X4X3X3X3X3X2X2X,X,X$X#X#X#X#X#X#X@XOXOXOXOXOX[.).[.[.OX[.[.).(./.^./.^.Z.M.x.k.[ ` ^                                                             ",
"                                                                                                                                                                                    q a a I I Y O.O.O.O.$.#.*.=.3.iXiX4.1.<.=.=.#.$.O.O.O.O.+.W I I a a q                                         8 8 9 N R ( [ j.k.z.k.m.m.N.E.!.^.).[.).(.^.^.^.^.^.^./.(.).).).).[.).).[.[.{.{.OXOXOXOXOX@X@X#X#X#X#X#X#X#X#X$X2X2X,X$X$X,X,X,X,X$X$X,X,X,X2X3X3X4X9X9XqXqXqX9X4X4X4X4X4X3X3X3X3X2X,X,X$X$X#X#X#X#X#X#X@X@X@X@XOXOX[.).[.OXOX[.[.).(.^.^.^.C.B.N.M.k.[ ( ^                                                           ",
"                                                                                                                                                                                    q a a I W O.O.O.O.O.$.#.*.=.3.iXuX4.1.<.=.*.O.k l T l W O.O.Q Y s a q                                         8 8 8 n G ( [ j.k.k.z.M.N.C.E.E.!.(.[.).(.^.^.^.^.^.^.^./././.(.).).[.).[.[.{.{.OXOXOXOXOXOX@X@X@X@X@X@X#X#X#X,X3X2X,X,X,X,X,X,X,X,X,X,X,X,X2X2X3X4X4X4X9XqXqX9X9X9X9X9X9X4X3X3X3X2X,X,X,X,X$X#X#X#X#X#X#X#X#X#X@XOXOX[.).[.[.OX[.[.(.^.^.^.C.N.Q.E.M.k.[ ` ^                                                         ",
"                                                                                                                                                                                    q a a Y @.+.l l O.O.$.#.*.=.3.iXiX5.1.<.=.*.k y h k k O.#.#.+.Q s a q                                           8 8 0 C ^ [ j.j.k.n.M.N.N.N.N.E.^.).).(.^.^.!.!.^.^.^.^.^.^./.).[.[.[.[.[.{.{.OXOXOXOXOXOXOXOXOXOX@X@X#X#X#X,X3X2X,X,X,X,X,X,X,X,X,X,X,X,X2X2X3X3X3X4X9XqXqXqXqXqXqXqX9X4X3X3X3X2X,X,X,X,X$X$X#X#X#X#X#X#X#X#X#X@XOX[.[.).[.OX[.[.(.^.^.^.E.E.^.W.N.z.h.` ^                                                         ",
"                                                                                                                                                                                    q a a Q %.+.h h O.O.$.#.*.=.3.iXyX3.2.<.<.*.h r t h k +.=.*.$.Y s a q                                             8 8 M R ` h.h.k.k.m.m.m.m.m.M.!.(.).(.^.!.E.E.W.!.^.^.^.^./.).[.{.{.{.[.[.{.{.OXOXOXOXOXOXOXOX@X#X#X#X#X@X#X2X2X,X,X,X$X$X,X,X,X,X$X$X,X2X3X3X3X3X4X9XqXqXqXqXqXqXqX9X4X3X3X3X2X,X,X,X,X,X,X$X#X#X#X#X#X@X#X#X@XOXOXOX[.).[.[.).(.^.^.^.^.^.^.W.N.z.h.` ^                                                         ",
"                                                                                                                                                                                    q q a Q *.O.t h O.+.$.#.*.=.3.iXyX3.<.<.=.*.h = t h k #.<.=.$.Y s a q                                             8 8 m F ' f.f.h.j.k.k.m.m.m.M.W.^.(./.!.W.W.Z.E.!.^.^.^.^./.(.[.[.{.{.[.[.{.{.{.OXOXOXOXOXOXOX@X@X#X#X#X@X#X$X,X,X,X,X$X$X,X,X,X,X$X$X,X2X3X3X3X3X4X6X9X9X9X9X9XqXqX9X4X3X3X3X2X2X,X,X,X,X,X$X$X$X$X#X#X@X#X#X@X@X@XOXOX[.).).).(.(./././.^.^.!.E.M.j.[ ` /                                                       ",
"                                                                                                                                                                                    q a a Q *.O.t h O.+.$.#.*.=.3.iXyX3.<.=.=.*.h r h k l #.<.7.$.Y s a q                                             8 8 V C _ [ [ [ [ j.n.M.C.C.C.Z.W.^.!.E.W.^.W.E.!.^.^.^.^.^./.(.[.[.{.[.[.{.{.{.{.{.OXOXOXOXOXOXOX@X#X#X#X@X@X$X,X,X,X,X,X,X,X,X,X,X$X$X2X3X3X3X3X3X4X4X4X4X4X9XqXqX9X4X3X3X3X3X2X2X,X,X,X,X,X,X,X,X$X#X#X#X#X#X#X#X#XOXOX[.).).).).).)./.^.^.^.^.Q.M.k.[ ` ^                                                     ",
"                                                                                                                                                                                    q a g Q -.O.r y O.+.$.#.*.=.3.sXuX3.<.=.=.*.l h l W W $.=.*.$.Y s a q                                             8 8 V C ^ ' { { [ j.n.M.N.C.Z.Z.W.^.^.W.W.!.W.W.W.!.^.^.^./.(.(.).[.{.[.[.[.[.{.{.[.[.{.OXOXOXOXOX@X#X#X#X@X@X#X,X,X,X,X,X,X,X,X2X,X,X$X2X3X3X3X3X3X3X3X3X3X3X9XqX9X6X4X4X4X3X3X3X2X2X2X2X,X,X,X,X,X$X#X#X#X#X#X#X#X#X@XOX[.[.[.[.).).).(./.^.^.W.W.E.M.k.[ ` ^                                                   ",
"                                                                                                                                                                                    q p j $.=.$.r y O.O.$.#.*.=.3.aXaX3.<.=.*.*.#.$.$.O.O.+.$.$.+.Y s a q                                             8 8 V C ~ / ' [ f.k.k.k.m.N.Z.Z.W.^.^.^.W.E.!.^.W.W.^.^.^./.).).[.[.{.{.{.[.[.{.[.[.[.[.[.OXOXOXOX@X#X#X@X@X#X#X$X,X,X,X,X$X$X,X,X,X,X,X3X3X2X2X3X3X3X3X3X3X4X9X9X4X4X9X9X4X3X3X3X3X3X3X2X,X,X,X,X,X$X#X#X#X#X@X@X#X#X@XOXOXOXOX[.[.).).).)./.W.C.E.!.W.M.k.[ ` ~                                                 ",
"                                                                                                                                                                                    q p j $.<.#.r y O.O.$.#.*.<.4.pXaX3.<.=.*.*.*.*.$.$.$.+.O.+.+.Q s a q                                               8 0 V C ~ ` [ f.j.j.k.m.N.Z.Z.E.W.!.^.W.E.!.^.W.E.!.^.^./.(.).).[.[.[.[.[.[.{.{.[.[.[.{.OXOXOXOX@X@X@XOX@X@X#X#X$X$X,X,X$X#X$X,X,X,X2X2X2X2X,X2X3X3X3X2X3X3X4X4X4X4X9X9X4X3X3X3X2X3X3X2X,X,X,X,X,X,X$X#X#X#X#X#X#X#X#X@X@X@XOXOX{.[.).).)./.!.Q.W.^.^.W.N.k.[ ` (                                               ",
"                                                                                                                                                                                    a a z #.<.*.t y O.O.$.#.*.<.4.pXaX3.<.=.=.=.*.$.+.O.O.O.+.+.O.Y s a q                                                 8 0 M G _ [ f.f.h.j.m.N.C.C.C.Z.W.^.W.E.!.^.W.W.^.^.^.^.^.(.).[.).).).).[.{.{.{.{.{.OXOXOXOXOXOXOXOXOXOXOX@X#X#X$X,X,X$X#X#X$X,X,X,X,X,X,X,X,X2X3X3X2X2X3X3X3X3X4X9X9X4X3X3X3X2X3X3X2X,X,X2X,X,X,X,X$X#X#X#X#X#X#X#X#X@X@XOXOXOX[.[.[.)./.^.^.^.^.^.!.E.M.k.[ ( ~                                             ",
"                                                                                                                                                                                    j j z #.<.*.t x O.O.$.#.*.<.5.pXaX5.2.=.=.*.O.l l W T O.O.Q Y I a a q                                                 8 8 M G _ [ f.f.h.j.m.m.M.m.M.C.E.W.W.!.W.W.W.!.^.^.^.^.^.(.).(.(.).[.).[.{.{.{.{.[.{.OXOXOXOXOXOXOXOXOXOX@X@X#X$X$X$X,X$X#X$X$X,X,X,X,X,X,X,X2X3X3X2X2X3X3X3X3X4X4X4X4X3X3X3X3X3X3X2X2X2X2X2X,X,X,X,X$X#X#X@X@X@X#X#X@XOXOXOX[.[.{.[.).).(./.^.^.W.Z.N.M.k.[ ( ~                                             ",
"                                                                                                                                                                                    k k k #.<.*.y y O.O.$.#.*.=.5.pXaX4.2.=.=.*.k y h k k O.$.Q I I U a q                                                 8 8 m C _ { [ [ h.k.k.n.k.k.m.C.Z.Z.W.^.W.E.!.^.^.^.^.^.^.(.)././.(.).).[.{.{.{.[.[.[.{.{.OXOXOXOXOXOXOXOXOX@X%X#X#X$X,X,X$X#X#X$X,X,X,X,X,X,X2X3X2X2X2X3X3X3X3X3X3X3X3X4X4X4X3X3X3X2X2X3X3X2X,X,X,X,X,X$X@X@XOX@X#X#X@X@XOX{.[.OXOX[.).).(./.^.^.W.C.N.N.k.[ ` ^                                             ",
"                                                                                                                                                                                    k l l *.2.*.t y O.O.$.#.*.=.5.pXaX4.1.<.=.#.h r t h k O.*.%.Q Y I a q                                                 8 8 8 N ~ ' ' [ f.h.j.k.n.k.m.C.Z.Z.W.^.W.E.!.^.W.W.^.^.^././.^.^.(.).).[.{.{.[.[.[.[.[.OXOXOXOXOXOXOXOXOXOXOX@X@X#X$X$X$X,X$X#X$X$X$X$X,X,X,X2X2X2X,X2X3X3X2X3X3X3X3X3X4X9X4X3X3X3X3X3X3X3X2X,X,X,X,X,X,X$X#X@X@X#X#X#X@XOXOXOXOXOX[.).).(./.^.^.^.W.W.W.N.k.[ ' /                                           ",
"                                                                                                                                                                                    l l O.*.2.*.y h O.O.$.#.*.=.5.pXaX4.1.<.=.$.y r t h k #.<.=.$.Y f a q                                                 8 8 8 n G / ' [ f.[ f.j.n.k.m.N.C.Z.W.!.W.E.!.^.E.W.^.^.^.^.^.^./.(.).).[.{.[.[.[.[.[.[.OXOXOXOXOXOXOXOXOXOXOX@X@X@X#X#X$X,X,X$X$X#X#X$X$X,X,X,X,X,X,X2X3X2X2X2X3X3X3X3X4X9X9X4X4X3X3X3X3X3X2X,X,X,X,X,X,X$X#X@X@X#X#X#X@X@X@XOXOXOX[.[.[.).(.^.^.^.^./.^.W.N.k.[ ` ^                                         ",
"                                                                                                                                                                                    O.O.O.*.2.*.y h O.+.$.#.*.=.5.pXaX4.1.<.=.$.z y h k k #.<.7.$.Y f a q                                                     8 0 N ~ ' [ f.f.h.k.k.k.z.m.M.C.E.E.Z.E.!.^.E.W.^.^.^.^.^.^./.(.).).[.[.[.{.[.[.).[.[.OX{.OXOXOXOXOXOXOXOX@XOX@X@X#X$X,X,X,X$X#X#X#X$X$X,X,X,X,X,X2X2X2X,X2X2X3X3X3X4X9XqX9X4X3X3X3X3X3X2X,X,X,X,X,X,X$X#X#X#X#X#X@X@X#X@XOXOXOXOXOXOX{.).(.^.^.^.^.^.^.W.N.k.[ ` ^                                       ",
"                                                                                                                                                                                    O.O.O.*.2.*.x j O.$.$.#.*.=.5.pXpX4.1.<.=.#.O.l O.O.l $.=.-.$.Y s a q                                                     8 8 n C ~ ' [ [ h.k.n.k.m.m.M.N.C.Z.E.W.!.!.W.W.^.^.^.^.^.^.^.(.(.(.(.(.[.[.[.).[.[.[.[.{.OXOXOXOXOXOXOXOX@X@X@X@X#X$X,X,X,X,X$X$X$X#X$X$X,X,X,X,X2X2X2X,X2X2X3X3X3X4X9XqXqX4X3X3X3X3X3X2X,X,X,X,X,X,X,X$X$X#X#X@XOX@X#X#X@X@XOXOX@X@XOX[.(.^.^.^.^.^./.^.C.m.k.[ ` /                                     ",
"                                                                                                                                                                                =.*.$.O.O.*.2.*.x j O.$.$.#.*.=.5.pXaX4.1.<.=.#.#.$.#.$.+.$.#.$.+.Y s a q                                                     8 8 8 9 B ~ ' [ h.k.n.k.m.N.M.m.M.Z.!.!.W.W.!.^.^.^.^.^.^.^.^.^././.^.^.(.).[.[.[.{.[.[.{.OXOXOXOXOXOXOX@X@X#X#X#X#X#X$X$X,X,X,X,X,X$X#X$X$X,X,X,X2X3X2X2X2X3X3X3X3X4X9XqXqX4X3X3X3X3X3X2X,X,X,X,X,X,X,X,X$X#X@XOXOX@X#X#X#X@XOXOXOXOXOX[.(.^.^.^.^.^.^.!.C.M.M.k.f.` ^                                   ",
"                                                                                                                                                                                @.+.O.O.O.*.2.*.y h O.$.$.#.*.=.3.pXaX4.3.<.=.*.*.*.*.#.$.+.O.Q Q I a a q                                                       8 8 0 N ~ ` [ h.k.n.n.m.M.m.n.M.Z.W.W.E.E.W.!.^.^.!.!.^.^.^.^.^././.^.^.(.).[.{.{.[.[.[.[.{.OXOX@XOXOX@X#X$X$X%X#X#X#X$X,X,X2X2X,X,X$X#X$X$X,X,X2X2X2X2X2X3X3X3X3X4X9XqXqX9X4X4X3X3X3X2X2X,X2X2X2X,X,X,X$X#X@X@X@X@X@X#X#X#X@X@XOXOXOX[.[.(./.^.^.^.^.!.C.N.E.N.k.[ ` (                                 ",
"                                                                                                                                                                                a a j l O.*.2.*.x j O.$.$.#.*.=.3.pXaX4.6.<.=.=.*.#.#.#.$.+.+.W I I a a q                                                         8 0 N ~ ' [ f.k.n.k.k.n.z.m.M.C.Z.Z.Z.Z.E.W.^.!.E.W.^.^.^.^./.(.(./.^./.).{.{.{.{.{.[.[.[.[.OXOXOXOX@X#X#X#X#X#X#X#X#X#X$X,X,X,X,X,X$X#X#X$X,X,X,X,X,X,X2X3X3X3X4X9XqXqXqX9X4X3X3X3X3X3X2X2X3X2X2X,X,X$X#X#X#X#X@X@X@X#X#X#X@XOXOXOXOXOX).(.^.^.^.^.!.C.C.W.W.N.k.f.` ^                               ",
"                                                                                                                                                                                q a j l l ;.2.=.k k O.+.$.#.*.=.5.pXpXXX1.<.=.-.O.k O.O.O.O.O.Q Q I a a q                                                         8 0 N ~ ' [ [ j.j.k.k.k.m.M.M.M.N.Z.Z.E.W.!.^.!.E.W.^./.^.^.^.(.(.(.(.(.).[.[.[.{.{.[.[.[.[.[.OXOXOXOX@X@X@X#X#X#X@X@X@X#X#X,X,X2X,X$X#X#X$X$X,X,X,X,X,X,X2X3X3X4X4X4X6X9XqX4X3X3X3X3X3X2X2X3X3X2X2X,X,X$X$X#X@X@X@X@X@X#X#X@XOXOXOXOXOX).(.(.(.(./.^.W.W.^.^.W.N.k.[ ` /                             ",
"                                                                                                                                                                                q a j k k $.<.=.l l O.+.$.#.*.=.3.pXpXXX1.<.<.*.h r h k k W $.$.+.Y s a q                                                         8 0 N R _ ` ' [ h.k.k.n.M.N.M.m.M.Z.Z.E.!.^.^.W.E.W.^.^.^.^.^.^./.).).).).).[.[.[.{.{.{.[.).[.[.OXOXOXOXOXOX@X#X#X@XOX@X@X@X$X,X,X,X$X#X#X#X#X$X,X,X,X,X,X,X2X3X3X3X3X4X6X9X4X3X3X3X3X3X2X2X3X3X3X2X2X,X,X$X#X@X@X#X@X@X#X#X@X@X@X@XOXOX[.).).[.)./.^.^.^.^.^.^.W.N.k.f.` ^                           ",
"                                                                                                                                                                                    a f k O.*.O.h z O.+.+.#.*.=.3.pXaX4.3.2.<.*.h r t h k O.*.*.$.Y s a q                                                           8 9 N R / ' ' [ h.j.k.m.m.m.m.M.Z.Z.E.W.W.W.E.Z.E.W.W.W.^.^.^./.).[.).).).[.[.{.{.{.{.[.[.[.OXOXOXOXOXOXOX@X@X@XOX@X#X#X#X$X$X$X$X$X#X#X#X#X$X,X,X,X,X,X,X2X2X3X3X3X3X4X4X4X3X2X2X3X3X2X2X2X3X3X3X2X2X,X$X#X#X#X#X#X#X@X@X#X#X#X@X@XOXOXOXOX[.)./.^.(.(.^.^.^.^.W.N.k.[ ` /                         ",
"                                                                                                                                                                                    a a j l O.k y j O.$.#.#.*.=.5.pXaX4.3.1.<.*.h c t h k $.<.=.$.Y s a q                                                             8 0 N ~ _ ` ' [ j.k.k.k.k.m.N.Z.Z.Z.Z.Z.Z.Z.Z.Z.Z.Z.W.!.^.^./.(.).).).[.[.{.{.{.{.{.[.[.{.OXOXOXOXOXOXOXOXOXOXOX@X#X#X#X#X#X#X#X#X#X#X#X#X$X,X,X,X,X,X,X,X,X2X3X3X3X3X3X3X3X2X2X3X3X2X,X,X2X3X4X3X2X,X$X$X#X#X%X%X#X@X@X@X#X#X#X@XOXOXOXOX[.).(./.).)./.^.^.^.^.W.N.k.f.` ^                       ",
"                                                                                                                                                                                    j j g k Q O.l T $.*.=.*.*.<.4.pXaX4.3.1.<.*.h r x h k #.<.7.$.Y P a q                                                             8 8 0 N R / ' [ h.j.j.k.k.m.N.Z.Z.Z.Z.Z.Z.Z.Z.C.Z.W.!.^.^.^.^./.(.).).).[.[.{.{.{.{.{.{.{.OXOXOXOXOXOXOXOXOXOXOX@X@X#X#X#X@X@X@X#X#X#X#X#X$X$X,X,X,X,X,X,X,X2X3X3X3X3X3X3X3X2X,X2X2X3X2X2X2X3X4X3X3X2X,X$X$X#X#X#X#X@XOX@X@X#X#X@XOXOXOX[.[.).).).).).).(.^.^.^.^.W.N.k.[ ' /                     ",
"                                                                                                                                                                                    l z g f Q $.$.$.$.*.=.=.=.2.yXdXpX4.3.1.<.*.l h k l l #.<.=.$.Y f a q                                                             8 8 8 9 C / [ [ f.f.j.k.k.n.M.C.C.Z.Z.Z.Z.E.E.E.W.W.^.^.^.^.^.^./.(.).).).[.{.{.{.{.{.{.{.{.{.{.{.OXOXOXOXOX@X@X@X@X#X#X#X@XOX@X#X#X#X#X#X#X#X,X,X,X,X,X,X,X2X3X3X3X3X3X3X3X2X2X,X2X3X2X2X2X3X3X3X3X3X2X,X$X$X#X#X#X@X@X@X@X#X@X@XOXOXOX[.[.).).).).).).(.^.^.^./.^.E.M.k.[ ` /                   ",
"                                                                                                                                                                                        z z l $.=.*.O.+.%.7.2.1.yXhXhXtX3.1.<.-.#.O.$.$.O.$.#.#.+.W k g q                                                               8 8 9 C / [ [ f.f.h.h.j.k.m.m.N.Z.Z.Z.Z.W.!.^.^.W.W.!.^.^.^.^.^./.(.).).[.[.{.[.[.{.{.{.{.{.{.{.{.OXOXOXOX@X#X#X#X#X#X#X#X@X@X#X#X#X#X#X#X#X,X,X,X,X,X,X,X,X2X3X3X3X3X3X3X3X3X2X,X2X2X,X2X2X3X3X3X3X3X2X,X$X#X#X#X#X#X#X#X@X@XOXOXOXOXOX[.).).).).).).(.^.^.^./.^.E.M.m.k.f.` ^                 ",
"                                                                                                                                                                                        l k k O.*.*.*.$.$.=.<.2.yXhXhXaXiXyX3.2.<.=.=.=.*.#.+.+.+.O.l g q                                                               8 8 0 N R _ [ f.[ [ f.k.k.k.m.N.Z.Z.Z.Z.W.^.^.!.W.E.W.!.^.^.^.^.^./.(.).[.[.[.[.[.{.{.{.{.{.{.{.{.OXOXOXOX@X#X#X#X#X#X#X#X@X@X@X#X#X#X#X#X#X$X,X,X,X,X,X,X,X,X2X3X3X3X3X3X3X3X2X2X,X,X,X,X2X3X3X3X3X3X3X5X,X$X$X#X#X#X#X#X@X@X@X@X@X@XOXOX[.[.).).).).).(.^.^.^.^.C.B.C.N.k.[ ` /               ",
"                                                                                                                                                                                            k l O.*.<.*.$.#.=.<.yXhXjXjXhXdXsXiX4.3.1.2.<.*.$.O.+.O.W f q                                                               8 8 8 0 M R ' [ ' { f.k.k.k.m.N.Z.Z.Z.Z.W.^.!.E.Z.Z.Z.W.^.^.^.^.^.^./.(.).[.[.[.{.{.[.[.[.{.{.{.{.OXOXOXOXOX@X@X@X@X@X#X#X@XOX@X@X#X#X#X#X#X$X$X$X$X,X,X,X,X,X,X2X2X2X3X3X3X3X3X3X2X,X,X,X2X3X3X3X3X3X3X3X2X,X$X#X#X#X#X#X#X#X#X#X#X@XOXOXOX[.).).).).).).(.^.^.^.C.N.W.W.N.k.f.` ^             ",
"                                                                                                                                                                                            f j k *.1.2.=.=.=.<.3.uXaXaXsXsXyX4.3.1.2.<.=.*.$.O.O.W z p 7                                                                 8 8 8 0 N ~ / ' [ f.j.j.k.m.M.N.C.E.Z.W.W.W.Z.Z.Z.C.E.W.!.^.^.^.^.^.(.[.[.[.[.[.[.[.[.[.{.{.{.{.{.OXOX@XOXOXOXOXOXOX@X@X@XOXOX@X@X#X#X#X#X#X#X#X$X,X,X,X,X,X,X,X,X,X2X3X3X4X4X3X2X,X,X,X,X2X3X3X3X3X3X3X3X2X,X$X$X$X$X#X#X#X#X#X#X#X@X@XOXOX[.[.[.[.).).).(./.^.W.E.^.^.W.N.k.[ ` (           ",
"                                                                                                                                                                                            a g l *.2.3.3.3.1.2.2.1.1.1.3.3.6.2.2.<.<.=.*.;.$.$.$.l h y u                                                                   8 8 8 9 M R _ [ [ f.h.j.k.z.m.N.C.C.Z.E.Z.Z.Z.Z.Z.Z.Z.W.^.^.^.^.^.(.[.[.{.[.[.[.).).[.{.{.{.{.{.{.OXOXOXOXOXOXOXOXOXOXOXOXOXOXOX@X#X#X#X#X#X#X$X,X,X,X,X,X,X,X,X,X,X2X3X3X3X3X2X,X,X,X,X,X2X3X3X3X3X3X3X2X,X,X,X,X$X#X#X#X#X#X#X#X#X@XOXOXOXOXOX[.).).).).(.^.^.^.^.^.^.W.N.k.f.` ^         ",
"                                                                                                                                                                                              p f Q *.2.5.XXyXuXsXuXuXuXuXuXiXyXiXyX4.3.3.1.<.<.<.=.*.#.$.$.                                                                8 8 8 8 V Z _ { [ [ f.j.k.k.k.k.m.C.Z.Z.Z.Z.Z.Z.Z.Z.C.W.^.^.^.^.^./.(.[.[.[.).).).).[.[.[.[.[.[.{.OXOXOXOXOXOXOXOXOXOXOXOXOXOXOX@X@X@X@X#X#X#X$X,X,X,X,X,X,X,X,X,X,X,X2X2X2X2X,X,X,X,X,X,X2X3X3X3X3X3X3X2X2X,X,X,X$X#X#X#X#X#X#X#X#X#X@X%X@X@XOXOX[.[.).).(.^.^.^.^.^.^.^.W.N.z.f.' ( ~ ~ ~ ",
"                                                                                                                                                                                                a f l *.1.yXaXhXjXjXjXjXhXdXpXpXdXpXsXiXiXyX5.3.3.3.2.2.<.%.O.                                                              8 8 8 0 M G _ ' ' [ f.f.h.k.j.[ g.N.E.Z.Z.Z.Z.Z.Z.Z.Z.W.^.^.^.^.^.^./.(.).).).).).).[.).).).).[.{.OXOXOXOXOXOXOXOXOXOXOXOXOXOXOXOXOXOXOX@X#X#X$X,X,X,X,X,X,X,X,X,X,X,X,X,X,X,X,X,X,X,X,X,X2X3X3X3X3X3X3X3X2X,X,X,X$X#X#X#X#X#X#X#X#X#X#X#X#X@XOXOXOX[.).).(.^.^.^.^.^.^.^.^.W.M.k.[ ` ~ ~ ~ ",
"                                                                                                                                                                                                  d l O.=.3.uXhXhXpXaXaXiX4.5.5.5.5.3.3.3.3.2.2.2.<.<.<.=.O.z                                                                                                                                                                                                                                                                                                                                                           ",
"                                                                                                                                                                                                    l l $.<.yXaXaX4.3.3.2.=.=.=.=.=.=.*.*.*.*.=.=.=.=.*.$.h y                                                                                                                                                                                                                                                                                                                                                           ",
"                                                                                                                                                                                                      k O.=.5.sXiX1.<.<.=.=.=.=.*.      y h k *.2.<.=.*.$.h t                                                                                                                                                                                                                                                                                                                                                           ",
"                                                                                                                                                                                                      k O.=.3.iXyX<.*.=.=.=.=.=.        = = y *.3.1.=.*.$.h r                                                                                                                                                                                                                                                                                                                                                           "
};
