/* XPM */
static char *e490253990614461b28757436d0b8b4af6Ly6vOsneH4OBcM[] = {
/* columns rows colors chars-per-pixel */
"300 329 223 2 ",
"   c None",
".  c #020202",
"X  c #090604",
"o  c #070806",
"O  c #090807",
"+  c #0B0B0B",
"@  c #070808",
"#  c #140E09",
"$  c #160E09",
"%  c #0F100D",
"&  c #11110E",
"*  c #1A130C",
"=  c #1A1D0E",
"-  c #161A0C",
";  c #141413",
":  c #191712",
">  c #171816",
",  c #191916",
"<  c #1C1C1B",
"1  c #171818",
"2  c #23170E",
"3  c #251A0E",
"4  c #291C0E",
"5  c #241C12",
"6  c #2B1E11",
"7  c #211E1A",
"8  c #301F0D",
"9  c #1C210E",
"0  c #1E2213",
"q  c #1F201E",
"w  c #25270F",
"e  c #2D2312",
"r  c #21211E",
"t  c #2B231B",
"y  c #262A14",
"u  c #332312",
"i  c #392714",
"p  c #332A15",
"a  c #3C2A15",
"s  c #32261C",
"d  c #3C2D1B",
"f  c #35291C",
"g  c #2F371F",
"h  c #3A331A",
"j  c #1E1F20",
"k  c #1F2021",
"l  c #252525",
"z  c #272727",
"x  c #262625",
"c  c #252524",
"v  c #272825",
"b  c #292926",
"n  c #2B2B2B",
"m  c #292929",
"M  c #2F2F2F",
"N  c #2E2E2E",
"B  c #2D2D2D",
"V  c #2D2D2D",
"C  c #282725",
"Z  c #332B23",
"A  c #382F27",
"S  c #2F302E",
"D  c #2E3423",
"F  c #313625",
"G  c #343B23",
"H  c #31312E",
"J  c #333929",
"K  c #3A362A",
"L  c #2F2F30",
"P  c #2F3030",
"I  c #303030",
"U  c #323332",
"Y  c #363636",
"T  c #343433",
"R  c #373934",
"E  c #393A36",
"W  c #393939",
"Q  c #3E3E3E",
"!  c #3B3B3B",
"~  c #3A3734",
"^  c #302F30",
"/  c #201F20",
"(  c #412E17",
")  c #442E1A",
"_  c #4A2E1D",
"`  c #45321A",
"'  c #4A351C",
"]  c #4E391D",
"[  c #46391C",
"{  c #533B1E",
"}  c #52361C",
"|  c #483724",
" . c #543621",
".. c #563C21",
"X. c #5A3E22",
"o. c #5D3D29",
"O. c #553F2B",
"+. c #423E3B",
"@. c #613F29",
"#. c #384026",
"$. c #39402A",
"%. c #374025",
"&. c #3D4331",
"*. c #3F413B",
"=. c #5D4122",
"-. c #5C422A",
";. c #404536",
":. c #41423E",
">. c #464A3D",
",. c #5F4736",
"<. c #644425",
"1. c #694726",
"2. c #6C4827",
"3. c #62412C",
"4. c #6D4928",
"5. c #6A462A",
"6. c #724B27",
"7. c #744D2A",
"8. c #794F2A",
"9. c #7D512D",
"0. c #76502D",
"q. c #744B31",
"w. c #7D5332",
"e. c #7D553B",
"r. c #664936",
"t. c #3F3F40",
"y. c #403F40",
"u. c #434343",
"i. c #474844",
"p. c #494946",
"a. c #4C4C4C",
"s. c #464748",
"d. c #4F504D",
"f. c #4E5245",
"g. c #50514F",
"h. c #535353",
"j. c #585857",
"k. c #5B5B5B",
"l. c #575856",
"z. c #4F4F50",
"x. c #61615E",
"c. c #79604B",
"v. c #636363",
"b. c #6B6B6B",
"n. c #686866",
"m. c #71716F",
"M. c #737373",
"N. c #7A7A7A",
"B. c #797877",
"V. c #6F6F70",
"C. c #605951",
"Z. c #81542F",
"A. c #88592F",
"S. c #845631",
"D. c #865832",
"F. c #8C5C35",
"G. c #885939",
"H. c #915E37",
"J. c #945F38",
"K. c #916037",
"L. c #946139",
"P. c #9B653B",
"I. c #9F683D",
"U. c #A1673E",
"Y. c #A36A3F",
"T. c #9D6742",
"R. c #8F6644",
"E. c #A66C40",
"W. c #AA6E42",
"Q. c #AE7044",
"!. c #B37347",
"~. c #B67548",
"^. c #B97749",
"/. c #BE7A4B",
"(. c #B87649",
"). c #BC7D53",
"_. c #AB7A56",
"`. c #817F7E",
"'. c #815F47",
"]. c #C37D4D",
"[. c #CA7F4F",
"{. c #C47E51",
"}. c #81807E",
"|. c #C68154",
" X c #CE8252",
".X c #CE885B",
"XX c #CC8559",
"oX c #D18555",
"OX c #D68A5A",
"+X c #D98D5D",
"@X c #DA8955",
"#X c #D68A58",
"$X c #E3925F",
"%X c #D48E61",
"&X c #DE9262",
"*X c #DB9468",
"=X c #D19169",
"-X c #E19565",
";X c #E69A6A",
":X c #E99D6D",
">X c #E69867",
",X c #EC9F70",
"<X c #EFA06F",
"1X c #EEA172",
"2X c #E9A47B",
"3X c #F0A374",
"4X c #F3AA7E",
"5X c #848483",
"6X c #888785",
"7X c #898887",
"8X c #8C8C8B",
"9X c #908F8E",
"0X c #949392",
"qX c #9C9C9B",
"wX c #9A9795",
"eX c #91908F",
"rX c #A19E9C",
"tX c #A3A19E",
"yX c #A5A4A3",
"uX c #ACACAB",
"iX c #A8A7A6",
"pX c #B2B2B2",
"aX c #EFAD86",
/* pixels */
"                                                                                                                                                                                                                                                                                                                                                                                                                                                                                                                                                                                                                        ",
"                                                                                                                                                                                                                                                                                                                                                                                                                                                                                                                                                                                                                        ",
"                                                                                                                                                                                                                                                                                                                                                                                                                                                                                                                                                                                                                        ",
"                                                                                                                                                                                                                                                                                                                                                                                                                                                                                                                                                                                                                        ",
"                                                                                                                                                                                                                                                                                                                                                                                                                                                                                                                                                                                                                        ",
"                                                                                                                                                                                                                                                                                                                                                                                                                                                                                                                                                                                                                        ",
"                                                                                                                                                                                                                                                                                                                                                                                                                                                                                                                                                                                                                        ",
"                                                                                                                                                                                                                                                                                                                                                                                                                                                                                                                                                                                                                        ",
"                                                                                                                                                                                                                                                                                                                                                                                                                                                                                                                                                                                                                        ",
"                                                                                                                                                                                                                                                                                                                                                                                                                                                                                                                                                                                                                        ",
"                                                                                                                                                                                                                                                                                                                                                                                                                                                                                                                                                                                                                        ",
"                                                                                                                                                                                                                                                                                                                                                                                                                                                                                                                                                                                                                        ",
"                                                                                                                                                                                                                                                                                                                                                                                                                                                                                                                                                                                                                        ",
"                                                                                                                                                                                                                                                                                                                                                                                                                                                                                                                                                                                                                        ",
"                                                                                                                                                                                                                                                                                                                                                                                                                                                                                                                                                                                                                        ",
"                                                                      @ @ @ @                                                                                                                                                                                                                                                                                                                                                                                                                                                                                                                                           ",
"                                                                    @ + ; ; +                                                                                                                                                                                                                                                                                                                                                                                                                                                                                                                                           ",
"                                                                  o + > < , ; @ o                                 o o o o o o                                                                                                                                                                                                                                                                                                                                                                                                                                                                                           ",
"                                                                  o + < c < > ; + o                             o o o o o o o o                                                                                                                                                                                                                                                                                                                                                                                                                                                                                         ",
"                                                                  o + c x c < < ; @                           o o o o o o @ @ @ @                                                                                                                                                                                                                                                                                                                                                                                                                                                                                       ",
"                                                                  o ; x M I M c 1 %                           o @ @ o @ @ + % + & ;                                                                                                                                                                                                                                                                                                                                                                                                                                                                                     ",
"                                                                  o ; x Y W Y m < > ;                         o @ @ @ @ + ; ; ; ; ;                                                                                                                                                                                                                                                                                                                                                                                                                                                                                     ",
"                                                                o o ; x Y W Y M c , , ,                     o o @ @ @ + ; 1 , , , ,                                                                                                                                                                                                                                                                                                                                                                                                                                                                                     ",
"                                                              o o o ; x I Y Y I m c < <                   o o o o o @ & 1 < < < < <                                                                                                                                                                                                                                                                                                                                                                                                                                                                                     ",
"                                                              o o o ; x I I Y W I m x c                   o o o o . o & , c x c c c                                                                                                                                                                                                                                                                                                                                                                                                                                                                                     ",
"                                                              o o @ ; z I M I Y W W M x                   o o o o o @ & , x x x x c ,                                                                                                                                                                                                                                                                                                                                                                                                                                                                                   ",
"                                                              o @ + , m I M M I u.a.Y x                   o o o @ + ; ; , x m x m x ; o                                                                                                                                                                                                                                                                                                                                                                                                                                                                                 ",
"                                                              o @ ; < m I M M I i.h.Q z >                 o o o @ & > , c m M M M x ; o                                                                                                                                                                                                                                                                                                                                                                                                                                                                                 ",
"                                                              o @ > c m I M M I a.k.i.m ; o               o o o @ % 1 c m M Y W Y m > o                                                                                                                                                                                                                                                                                                                                                                                                                                                                                 ",
"                                                              + ; , x M M M M I h.n.h.T , +               o o o @ @ > x M I W :.W m > o                                                                                                                                                                                                                                                                                                                                                                                                                                                                                 ",
"                                                              ; > c m M M M M I a.v.j.:.c ;               o o o o o ; x M M ! i.Q m > o                                                                                                                                                                                                                                                                                                                                                                                                                                                                                 ",
"                                                              ; > x M M M M M I W i.h.a.M <               o o o o o ; x m m Q g.u.m > o                                                                                                     o + , < , + o o o o                                                                                                                                                                                                                                                                                                                                                         ",
"                                                              & > x M M M M M M M I a.h.W x               o o o o o + < c x Q h.i.M > o                                                                                                     @ ; , < , ; @ @ @ @ @                                                                                                                                                                                                                                                                                                                                                       ",
"                                                              & > c m M M M M M m M a.k.a.I > .         o o o . . o + > , < Y a.a.Y , o o o                                                                                             o @ + ; , , , > > > > ; + @ o o                                   o o o o o o o @ @                                                                                                                                                                                                                                                                                             ",
"                                                              ; > q x m M M M M m m i.j.a.Y , @         o o o . . o @ & > < I a.a.Q c + o o                                                                                             o + > < x x c c c < < , ; + + + +                                 @ + @ + + + + @ @ o                                                                                                                                                                                                                                                                                           ",
"                                                            ; > , < c x m x m M m m W a.i.W c ; @       o o o . . o @ & > , M u.i.u.M < + o                                                                                         o o o + < M W W Y M m x c c < , > > > ;                         o o @ ; > > > > , > + @ o @ o o                                                                                                                                                                                                                                                                                     ",
"                                                          ; > , , ; > c x x x m m m I W u.! x > + @   o o o o . . . o + ; > c I E W Y M c c                                                                                         o o @ ; c I W W W W Y I m x c c c < , > &                     o o @ & r m m m c < , > + @ o o o                                                                                                                                                                                                                                                                                     ",
"                                                        ; > , < > @ @ < x x x x x x m M Q Q m < ; + @ o o o . . . . . o @ @ % 1 c M W Q Q Q u.u.                                                                                    o @ % 1 x M I I I W Q Q I m x x x c < , + o                 o o @ + 1 M W Q W M x < , > + @ o o o o                                                                                                                                                                                                                                                                                 ",
"                                                        ; > , < , o o > c x x x x x x m Q Q M < > & + @ o o . . . . . . . . o @ ; < b M S I Y I <                                                                                 o o @ & , x m M M I Y W W Y I M x x c c < ; + +               o o @ & < M W W W W I m x < > % + + + @ @                                                                                                                                                                                                                                                                               ",
"                                                        ; > < c < @ . % , x x x x x x V Q :.M r > ; ; + @ o o . . . . . . . . . + > 1 1 > < x c > + o . . . . . o                                                               o o o @ ; , x m M M M I I M Y Q W m c c c c , ; ; ;             o o @ ; < m I I Y Q Q W I x < , , , ; + @ @                                                                                                                                                                                                                                                                             ",
"                                                        ; , c c , o . + > < c c c x x M i.a.I r > ; ; & + + + o . . . . . . o + < b m x , , < < , < < , + + ; , c < > ; o . . . . . .                                           o @ @ ; , r x m m M M M M M I Y Y I m x c c q < 1 > ,         o o o @ > c m M M I W W Y Y Y m c c < , ; + ; ,                                                                                                                                                                                                                                                                           ",
"                                                        ; , < < , @ o ; > , , , r x x M a.a.I < > & & ; ; ; ; + @ @ @ o . o + < M Y E I c , , , , x I x 1 > < M I x < 1 ; @ o o @ @ o @                                         o @ % 1 c x x x m M M M M M M M Y W I x c c c c < , , ,     @ @ o o @ , x m M M M M M I W Q I m x c < , > > , <                                                                                                                                                                                                                                                                         ",
"                                                        o @ + , < , > 1 > > ; > > , < x u.i.I < + o o & , , 1 > > , , > > , c M m c c r 1 ; ; ; ; > > + @ o + , x M M M I W I m I W M m Y Q Q a.j.h.Q m < , , ,                 o @ ; < c x x m M M M M M M M M Y Q W n x c c c c < < , , ; @ o o + & , c x M M M M M M I Y W Y M m c < , , , , ,                                                                                                                                                                                                                                                                       ",
"                                                      . o . o > c c c < , > > > > > > c I W m , @ . . @ > , , , < x x x c < m T c ; & ; 1 , , < < > + + + + ; > q H Y Y Q a.Q I u.i.W I I I I ! i.u.I c > > , < c               @ @ > < x m m m M M M M M M M M Y Q W I m x c c c c < < , ; @ o @ + ; 1 < x m M M M M M M I W Q Y M x c < < , , ,                                                                                                                                                                                                                                                                       ",
"                                                . . . @ ; ; > , < < / c c c c c c < < < c x c , % o . . @ & > < c x x x , + , z < ; & > b I I W i.Q M Y u.i.u.Y M x c < , , ; + > > ; + + + % ; > > + @ o + , n Y W I c , < < , + @ > < x m M M M M M M M M M M I Y W Q Y m x c c c c < 1 & @ o @ + ; 1 < x m M I M M M M M I Y W Y m c < , , , ,                                                                                                                                                                                                                                                                       ",
"                                                ; + @ ; < < < < , , < c c x x c c c c < < < < < , ; o . . o & , c c r r ; . + j 1 & > c M I M E i.u.Y Q a.a.i.W M x c c < > < c , > > > > ; + + + ; > < c q c M Y T x > ; ; > ; @ @ > < x m M M M M M M M M M M M M Y u.u.W M c c c x < ; + @ @ @ + ; 1 < x m n M M M M M M M I W W I x j < < < ,                                                                                                                                                                                                                                                                       ",
"                                            Q W I m c c x x x < , , , < < < , 1 < c x x m m x x c < & o . . o > < 1 > > + . ; < ; @ c H c > + ; q r < < c c r < r M Q a.a.a.v.M.k.a.a.a.a.u.I M I W a.n.b.a.P x c c > o . o o o o @ > < x m m m M M M M M M M M M M Y u.z.h.W c c c x < + + & + @ + ; 1 < x x x m M M M M M M I Q u.W M x c c < ,                                                                                                                                                                                                                                                                       ",
"                                            I Y Y Y I M M m x c < < < < , , 1 > , < q c x x c c c < , ; + + + , , & + + o . > x ; o c M < + o o @ ; < r < < q q c m Y u.i.a.j.n.j.i.i.i.i.y.I M I W a.k.n.s.n < < c m ^ m < , ; @ @ > < x x x m M I I I M M M M M M I Q h.v.u.x c c x , @ @ ; & + % ; > , < r r v m M M M M M I W u.i.Q m c c c < <                                                                                                                                                                                                                                                                     ",
"                                        ; 1 c m m M Y W W M x x x x c < , , , , > > ; > > > > > > , c c c c c c < @ . . . . , I , o 1 c 1 ; & @ o , I Y Y Y Y Y M < < c x x x m x x x c x c c c c c x m m x < , c I h.M.n.a.u.M > @ > < c x x x m I W Y M M M M M M M I h.n.i.x c c x , @ @ ; ; ; ; ; ; ; ; , w y c m M M M M M I Q h.a.M c c c c < ,                                                                                                                                                                                                                                                                   ",
"                                        1 < c x m M I Y I I I I M m x c c c < , 1 > > > > > > ; ; > < < q c c c < ; + ; ; ; , < + o > j , > ; + . > I Y M M M x c c c x x x x x x m I Y Y Q a.h.a.i.Y m m I Y M m M u.k.h.u.W M , + ; , < c x M I T I I I M M M M M M I h.b.a.m x c x , @ @ ; ; ; & + + & - = 9 0 < x M I M M M M Q j.h.M x x x c c <                                                                                                                                                                                                                                                                   ",
"                                        c x x m M M m m m I W W Y M z z x x c < < , , , , , , , ; ; ; ; > , < < < < c m m x > @ . o > c < , ; + . > m m < < , @ ; M W W W W W Y Y Q a.h.h.v.N.5X5Xb.h.u.W a.a.Q M c < x c c j < > ; ; > , < x Y Q Y m m M M M M M M M I h.M.h.M x c c , + @ ; ; ; + o o + 9 0 : ; ; q M I M M M M Q j.h.I m M m c c c                                                                                                                                                                                                                                                                   ",
"                                        I M m x m m x x z M I I I I I I M m x c c c c c < < , , > > > < c x x x x x x m m x c < + o > c < , > + . ; x x c m x @ + Y i.Q W W H m I W E Y W u.h.j.h.i.Y V b I Y V c , < x m m q > > 1 , , , < x W h.u.x , , x M M M M M I h.M.h.Y m x c < > ; ; & + & - + + 9 9 & @ @ > m M M M M M Q j.h.W I Y M c c c                                                                                                                                                                                                                                                                   ",
"                                        W Y M m x x x x x x z z m Y W W Y m m m m x x x < < < < < < < x M M M M n x c c c c M I , o > c < 1 ; @ . ; x x m I M + ; Q a.u.Q Q m 1 V E x , < < < < c < 1 > , q c , 1 < x Y W Y c > 1 , , < , < c Q j.i.x + @ c I I M M M I h.M.j.W M x x c < 1 ; + @ - 9 % + 9 9 + o . ; x M M M M M Q j.j.u.W W M x c c                                                                                                                                                                                                                                                                   ",
"                                        Q W Y I m x x x x x x x m I Y W W Y Y I M x x x c c c x M M m x x x x x c c j < < < x m , + + ; > ; @ . . % c x x M x @ ; Q h.a.h.h.Y 1 I u.T m m c > < m m m m M W Q I V I M x c c < , , , , < < / c W a.Q c @ o < I I M M M I k.N.v.Q I m x c < 1 ; & % & & + @ - : & o . + c M M M M M Q k.x.p.u.Q I x x x                                                                                                                                                                                                                                                                   ",
"                                        Q Q Q Y M m x x x x z z m m I Y W W ! W I m m m m m m H Y Y M x < , > , , , > > , , , > > ; + @ + + o . . + c x c c , o ; Q h.j.n.n.:.< T a.i.u.u.Y , c W Q W W Q a.a.u.W I x ; & > , , , , , < c c c M Q Y x ; + c I I M M M I v.5Xn.u.Y M m c < 1 ; ; & + + o @ & : ; + . + < m M M M M Q v.v.a.u.u.Y m x x                                                                                                                                                                                                                                                                   ",
"                                        i.u.:.W Y I m x x x z z x m m M M I Y W W Y W W I H W E M x c < , + @ > 1 + o o ; , ; @ + ; > ; @ o + o . + c c < , ; o ; Q h.j.n.n.:.< T a.h.h.k.a.q c *.u.W W Y M M R I , @ o + < < , , , , < c c c m M Y Y x < x M M M M M I v.5Xn.u.W Y m c < 1 ; + + - = % + = 0 : + o + 1 x M I M M Q v.v.a.u.u.W M m x                                                                                                                                                                                                                                                                   ",
"                                        E Y I I W Y M m m m x x x x x x m M I Y Y Y ! Q Y W p.:.m < , , ; o . + ; o . . o ; @ . o + ; ; @ @ ; % o ; c c , > % . ; Q h.j.n.n.u.< T h.h.k.b.h.c c u.i.u.a.i.x , Y I > @ + > c c < , , , < c c c x x Y Q I m M M M M M M I v.8Xn.u.Q W M x < 1 ; & % - 9 % + - = & % % % ; c M I M M Q v.n.a.i.u.! I m x                                                                                                                                                                                                                                                                   ",
"                                        > ; ; < Y Q W Y Y M x x x x x x x m m m n M M I ! p.h.a.M c , ; o . . . o . . . . o . . . . o @ ; > , > & 1 c c , > % . ; Q h.j.n.n.:.< T a.h.j.n.h.c x p.a.a.b.M.Y < W i.I M M m x < < , , , < < < c x x M I I M M M M M M M I b.wXV.i.u.Q I z < > ; = 9 - + o o + + @ & 9 = ; c M I M M Q v.n.h.a.i.:.E M x                                                                                                                                                                                                                                                                   ",
"                                          . . + c I Y Q Q Y M M M m x x x x z x x x x m R i.h.a.I c < ; @ @ + @ o o o o o o o o o o . @ ; , , > > , < < 1 > & . + Y a.h.h.h.T , I a.a.h.n.d.r x a.h.h.N.5XQ < u.h.a.h.k.u.< ; ; ; ; ; > , < c c x m M M M M M M M M V I b.qXm.i.u.u.E M c , ; - = & + + + % % + & = - & < M M M M Q v.n.h.a.i.u.W M x                                                                                                                                                                                                                                                                   ",
"                                            . o @ , M Y W W W W Y M x x x z z z x x x m M W a.a.I x < < < c c , > ; & & & & & & & & & & ; ; ; > , 1 > ; ; ; & . @ m W Q W I r 1 H p.a.h.j.i.< v a.h.k.N.5X! < i.j.h.M.8Xj.+ . o . . . @ > < < j c x m M M M M M M M M I b.qXV.p.u.u.Q I x < ; + + ; , , 1 0 9 - + + o + , z M M M Q v.n.h.a.i.u.W M x                                                                                                                                                                                                                                                                   ",
"                                              @ > < < c x M W Q W I M M M m x x x x x x m I i.i.Y x < < c m M m m c < , 1 > ; ; & ; ; ; ; & & 1 c c < > ; ; % o o < x m c > & > H p.a.h.h.Q < m a.h.k.M.M.W q i.k.j.B.wXk.@ . . . . . o ; , , < c c x M M M M M M M M I n.0XV.a.i.u.u.Y m < ; + o & 1 0 0 0 , ; & + + ; < z M M M Q v.n.h.a.a.u.W M x                                                                                                                                                                                                                                                                   ",
"                                                Y m ; @ + < M Y W W W W Y m x m x x x x x I i.i.Y x < , < x M Y Y M m x / < 1 ; ; ; ; ; ; ; ; < m M M r ; ; & o o & > > + o @ 1 T p.a.a.i.I , x a.h.j.n.n.I q i.j.j.M.8Xh.@ . . . . . o % > , , < c x M M M M M M M M I v.8Xb.a.p.i.u.W m < ; + @ + : 0 w : ; ; ; 1 , , c x M M M Q v.n.h.a.a.i.W M x                                                                                                                                                                                                                                                                   ",
"                                                Q M , , c q , , x W u.Q W I I I M z x x x I a.a.Y m c < < c x m m x x m m M m x c c x x c c x M Y W Y V c < > o . o o o o @ , M :.a.:.I x > @ > I i.h.k.h.m q u.h.j.M.8Xh.@ . . . . . . o % , , , c x M M I M M M M m M k.8Xb.a.a.a.i.W x , ; + @ + ; , 0 , > > , 0 0 < c x M M M Q v.n.j.h.a.a.Q M x                                                                                                                                                                                                                                                                   ",
"                                                W Y m Y :.x + @ > I Q W W W Q W I m m m x T a.a.Y m x < , < < < < < c m I Y W W Y I Y Y I I Y W W W W I M x < @ . . . . o ; m Q a.a.Y c + o o + < Y p.i.W < < Q h.h.b.5Xa.@ . . . . . . . @ , , , < x m M M M M M M m m j.5Xb.a.a.a.i.E c > ; + @ + ; , < < , , 0 w 0 < j x m M M Q v.n.k.h.a.a.u.M c                                                                                                                                                                                                                                                                   ",
"                                                  W ! u.i.M , < x c < , m *.u.Q W I I I M Y h.a.Y m x < < c x < , < c x m M Y Q Q Y Y Y Y Y Y I I M M M m c , @ . . . . @ > x Y Q u.W Y I M m x x v b < > @ ; W a.a.k.n.Q o . . . . . . . @ < c c c c x m m m m m m x m h.N.n.h.z.a.a.E < ; ; + @ + ; , , 1 1 , < 0 , > < c m m m W v.b.v.j.h.a.u.M < ;                                                                                                                                                                                                                                                                 ",
"                                                    u.u.:.T m I I < + o 1 Y ! Y W Q Q Q T W h.a.Y m x < < x m c < c c c c x I u.t.W I I Y W I M m m x x c < > @ . . . . @ , c m I W Q u.a.a.i.Q I x , ; @ o ; H *.! Q u.x o . . . . . . . @ , < < < c c c c c x x x c x u.k.j.a.a.p.u.T , & ; + @ + ; , , ; ; , , , > > < c x x x W v.b.n.j.a.i.Q m > + o                                                                                                                                                                                                                                                               ",
"                                                    Q W I Y W I M I v + @ > > , I a.a.a.Q Q h.a.Y m x < < < c < < < < c c c I u.u.W M m I Y Y Y M m x x c < > @ . . . . + c x x m M M Y Q u.u.Q Q W T Y Y M x c < , > > @ . . . . . . . . o @ @ + ; , r x x c j < < < < x H :.p.W I M c > & & + o + ; > , ; ; , , , , , < c x x c Y v.b.v.a.Y I M q ; @ o o o o o o                                                                                                                                                                                                                                                     ",
"                                                    W I M W u.M m Q ! < + ; + @ x :.u.u.u.i.h.a.Y m x < , , , , , , < c c c I u.u.W I m M I Y Y I m x x c < > @ . . . . ; x m z x x x m I Y Y W Q u.u.a.a.i.W x , > ; + + @ . . . . . . . . . . . o % > , < , > > , , < > ; b E Y I M x q < < , > , r x x r q c x c c < c c c c c I h.k.h.Q x < < > & @ o o o o o o o                                                                                                                                                                                                                                                   ",
"                                                      Y Y :.u.H m Q :.M V T v ; > q < x Q h.j.a.Y m x c , , , > > , < < < c I u.u.W W Y M m I I I M x x c < > @ . . . . + c m x z z z m m m m M M Y Q u.u.a.a.Q W Q W Y M c + . . . . . . . . . . . o o o @ o o @ ; , c , ; > c Q a.i.Q W Y E E E ! u.u.u.! ! ! ! W I m c < < < < c m I Y m , ; ; ; & @ o o o o o o o o o o                                                                                                                                                                                                                                             ",
"                                                        Q E H x b E *.W ! :.T c q < q c T u.h.h.i.Y m c < , , > ; > , , < c I u.Q W Q W I M M M M m x x c < > @ . . . . + c m x z z z x x x x x x M Y Y Y Q u.u.i.a.a.i.u.Y x , ; + @ @ o . . . . . . . . . . o + & > < , , r T h.n.n.v.k.j.j.j.h.j.k.k.j.j.h.h.g.a.s.Q M < < < , , > , c < , < c x c < , > ; + + + + + @ o                                                                                                                                                                                                                                             ",
"                                                        Q m ; , x M R :.Q Y E ! W Y ! E c x i.h.j.a.n j < < , > ; ; > , < c I u.W I Q u.W Y m m m m x x c / > @ . . . . + x m x z z x x x x x x x m m m m m I W Q Q u.u.u.u.u.u.I x c , ; @ . . . . . @ & & & 9 9 ; ; > = y ;.j.b.N.5X5X5XN.M.b.n.n.n.n.n.n.n.v.k.j.j.h.W x c c < , > ; > , x Y i.i.i.Q Y M c , > , , > + o                                                                                                                                                                                                                                             ",
"                                                        i.Y x x x < b :.Q M Y u.*.Y ! ! b c H W Q W n c < < , , > > > > , c I u.W Y Q u.Q Y M m x x x x x 7 > @ . . . . % x m x z z x x z x x x x x x x x x m M I I Y Y W Q i.a.u.W Y Y M v c x m M M I I I H J F b x x v F p.k.x.n.M.N.M.b.n.v.j.h.h.h.h.h.h.a.a.a.a.a.Q I M M m x c c c x I Q a.a.a.i.u.W I m m m m x , +                                                                                                                                                                                                                                             ",
"                                                        a.h.a.Q m ; , W ! m I u.E V M I Y I r ; ; , m x < , < < , , , > 1 c T u.:.W W W W W I M m x x x x c 1 @ . . . . ; c z x z z x x x z x x x x x x x x x m m m m m M I W u.u.u.i.a.a.a.h.k.n.n.n.v.j.h.h.a.p.u.:.Q W ! i.a.>.;.d.h.i.u.u.u.Q ^ x m M M M m m m M I Y W W W W W Y Y Y W W W Q Q Q Q W W W W W W W Y x ,                                                                                                                                                                                                                                             ",
"                                                        a.h.h.a.Q c c E u.W W ! ! W M M i.a.M > o > Y M < , < < < , , > , c T u.u.W Y I Y Y Y I M m x x x c , @ . . . . ; c z x x z x x x x x x x x x x x x x x x x x x m m I Y W W Q Q i.h.k.n.M.M.b.n.n.v.j.h.a.p.u.u.Q Q u.u.E E :.u.Q W W Q W x > ; ; ; ; ; > < M W W Y Y Y Y Y Y Y Y Y Y Y Y Y Y Y Y Y Y Y Y Y Y Y x <                                                                                                                                                                                                                                             ",
"                                                        p.a.h.h.h.Q I Y u.a.Q I Q i.Y I a.j.i.m + , W H < , , , < < < < < c T u.u.W M m M I W Y I M m x x x < @ . . . . ; x z x x x x x x z x x x c c c x x x x z x x x x x m m M M m M Y i.k.n.b.n.v.v.v.k.j.h.a.i.u.Q W W W Q W W W Q u.u.! u.Q m ; o . . . . @ > I a.Q I M M M M M M M M M M M M M M M M M M M M I M c ,                                                                                                                                                                                                                                             ",
"                                                        p.g.j.h.h.h.a.T n I I M Y Q ! ! u.a.j.a.x , < < < , < < c M I M m x T u.u.W Y I m M I Y Y I m x x x < @ . . . . ; x m x x x x c x x x x x x x x c x x x x x x x x x x x m m x x M W a.k.b.n.k.k.k.k.j.h.a.i.u.u.Q W W W W W W Q u.u.u.u.u.m ; o . . . . . @ x i.Q M M M M M M M M M M M M M M M M M M M M M M M c ,                                                                                                                                                                                                                                             ",
"                                                        p.l.v.a.a.v.k.W m M m x x M ! :.T W j.j.Q < o @ > , < < n u.i.u.I x T u.:.W W W M m M I W I m m m x < @ . . . . ; x m x z z x c c x x z x x x x x c x x x x c c x x x x x x x z z M u.h.n.n.j.j.j.j.j.h.a.p.u.u.Q W W W W W W Q u.u.u.i.Q x + . . . . . . . < Q W M M M M M M M M M M M M M M M M M M M M M I M x <                                                                                                                                                                                                                                             ",
"                                                        p.k.n.a.Q h.v.j.h.h.Q c ; > M ! M M Q a.h.T o . + > < < I h.k.a.W m Y a.! I W Q W I m m I I M M M m < @ . . . . ; x m x z z x x x x z z x x x x x x x x x x x c c x x x x x x x x M Q h.v.k.h.h.j.h.h.h.a.p.u.u.Q W Y Y W W W Q Q u.u.i.*.c o . . . . . . . < :.! H M M M M M M M M M M M M M M M M M m m M I M m x                                                                                                                                                                                                                                             ",
"                                                        p.k.n.i.T a.k.n.b.b.h.M , > x T m x c Y h.Q ; o @ ; < < I j.v.h.W m Y a.Q M W i.Q Y m x M M I I M m < + . . . . ; x m x z z z z x x x x x m m m z z x x x x x x c c x x x x x x x I u.h.v.j.h.h.h.h.a.z.a.a.i.u.u.Q Y I Y W W W W Q u.i.Q < . . . . . . . . r :.! H M M M M M M M M M M M M M M M M M x m M I M m x                                                                                                                                                                                                                                             ",
"                                                        i.k.n.u.M a.k.k.v.n.k.a.W M m m M x ; , Y Y x , ; > < < M i.d.i.Y x Y a.u.W i.a.u.Y M m m M Y Y M m c > @ . . . ; x m x x z z x x x x x x m M m z z x x x x x x x c c x x x x x x I u.h.v.j.h.h.h.a.a.a.a.a.a.i.u.u.Y M I T W W W Q Q Q W , . . . . . . . . r :.! H M M m m M M M M M M M M M M M M M M M M I M x <                                                                                                                                                                                                                                             ",
"                                                        i.k.n.Q m i.j.k.k.k.k.k.h.a.u.W I c + + c M Y m < , < j x Y W Y M x W a.a.u.a.a.i.Q W T I Y W Y I M x , + . . . ; x m x x x x x x x x m m M M m x x x x x x x x x x x x x x x x x I u.h.v.j.h.a.a.p.i.a.a.a.a.p.i.u.W I M I Y W W W W Q Y , . . . . . . . . < *.! H M M m m M M M M M M M M M M M M M M M M I M c ,                                                                                                                                                                                                                                             ",
"                                                        i.k.n.Q m u.j.n.v.g.h.v.n.n.n.j.W c , > < M Q E m c < / c x z x x x Q h.a.i.a.a.a.a.u.u.:.Q W W Y M x , + . . . ; x m x x x x x x x x m M M M m x x x x x x x x x x x x x x x x x I u.h.x.j.a.a.p.i.i.i.p.p.p.i.i.u.Q W I M I I I Y W Q Y , . . . . . . . . < Q W M M M M M M M M M M M M m x M M M M M M M I M q ;                                                                                                                                                                                                                                             ",
"                                                        u.j.v.Q x Q j.n.v.p.a.k.n.b.V.n.a.Q W M c m W Q W m < j c c c c c x Q j.a.u.i.a.a.p.i.i.i.u.Q Q W I c ; @ . . . ; x m x x x x x z z x m M I M m x x x x x z x x x x z z x x x x x I u.h.k.h.a.i.u.u.u.u.u.u.i.i.i.u.Q W Y I M M M I Y W Y , . . . . . . . . < Q W M M M M M M M M M M M M m m M M M M M M M I M < ;                                                                                                                                                                                                                                             ",
"                                                        Q h.k.Y c Q j.n.k.u.i.j.v.n.n.n.n.n.v.a.Y M I W *.V < < c c c c c x u.k.a.Q Q Q Q Q u.u.u.u.u.Q W I c + . . . . ; x m z x c c x x z z m M I M m x x x x x x x x z z z z x x c x x I u.a.j.h.i.Q Q ! ! Q Q u.u.u.u.u.Q W W Y I M M M I Y Y , . . . . . . . . < Q W M M M M M M M M M M M M M M M M M M M M M I M < ;                                                                                                                                                                                                                                             ",
"                                                        Q h.j.I c W h.b.v.Q u.j.v.n.k.j.n.b.b.n.h.Q m x x q < c x x x c c c u.k.h.u.Q W W W W Q i.a.i.u.W I c @ . . . . + c m x x x x x x z x m M I Y M z x z x x z x x x x x x x x x x x I u.a.h.a.u.Q W Y Y W Q Q u.u.u.u.u.Q Q W Y Y Y I M I I > . . . . . . . . < W W M M M M M M M M M M M M M M M M M I W Y M M M < ;                                                                                                                                                                                                                                             ",
"                                                          j.h.Y x E h.M.v.W Q h.n.n.h.a.j.n.b.b.b.h.M ; o ; < c x x x x c x u.x.j.a.u.W W W I W a.a.i.:.W I c @ . . . . + c m x x x x x z z z m M Y W I m z z x z z x x x x x x x x z x x I u.a.h.a.u.Q W I I W W W Q u.u.u.u.u.Q W W W W Y I I M > . . . . . . . . , W Y M M M M M M M M M M M M M M M M m M Q W I I M < ;                                                                                                                                                                                                                                             ",
"                                                          W W u.i.u.h.M.v.Y Y h.n.n.h.u.h.n.n.n.n.v.a.c . + j < c m M I Y Q h.n.v.h.u.W W W Y W u.u.:.Q W M < @ . . . . + x m m m x x x x m n M M Y W I z x x x z z z x x z x x x z z z x I u.z.h.a.Q Q W I M I Y Y W Q Q Q u.u.u.Q Q W W W Y I m ; . . . . . . . . < W W M M M M M M M M M M M M M M M M M m M I W Y M c 1                                                                                                                                                                                                                                             ",
"                                                            m i.h.a.h.V.k.M I a.v.n.z.u.h.n.n.v.v.n.n.Q > > c < < x M Y u.a.k.n.n.j.p.Q W W W W W W W W W M < @ . . . . % x M M m z x x m m M M I Y W I m x x x z m m z x x z z x z z z x I u.h.j.a.Q W W Y I M M M I W W Q u.u.u.u.Q Q Q Q Q W M > . . . . . . . . < Q W M M M M M M M M M M M M M M M M M m c m W W I x ,                                                                                                                                                                                                                                             ",
"                                                              I Y Q h.n.j.m M a.n.M.h.u.h.n.n.v.h.j.n.v.a.H , , < c x M Q a.h.j.n.n.h.:.! W W W W Y I I I M x + . . . . % c M M n z x m m M M I Y W W I M m x x x m m m x x x x x x z z z I u.z.h.a.u.Q W W Y I M M I I Y W u.u.u.u.u.u.u.u.u.Q Y , . . . . . . . . q :.! H M M M M M M m m M I M M M M M M M m x m Y W m ,                                                                                                                                                                                                                                             ",
"                                                                c I a.n.h.x M a.n.M.h.Q h.n.b.v.i.a.v.M.M.Q ; ; , , < c M :.i.a.j.v.h.i.u.Q Q Q W Y I I I I m + . . . . ; c n M n m m m M I I Y W Q W Y M m m I Y Y M m x m m x x x z z z I u.a.h.g.i.Q W W W I I M M M I W Q u.u.u.u.u.u.u.u.u.W , . . . . . . . . c u.Q M M M M M M M x m M M M M M M M M M M m c M Y m <                                                                                                                                                                                                                                             ",
"                                                                  x Q v.h.x M a.n.M.a.I a.v.b.j.Y Q k.M.M.W + + > > > > , r H Q u.u.a.a.a.a.Q Q ! W W W W Y m + . . . . ; x m m m M M M M I Y W W ! W Y M x I h.k.i.I m m M m x x x x z x I u.a.j.h.i.Q W W W W Y I M M I I W Q u.u.u.u.u.u.u.i.Q < . . . . . . . . c i.Q M M M M M M M M m x m M M M M M M M M M m c q r c                                                                                                                                                                                                                                             ",
"                                                                  < Y k.h.m M a.n.M.s.M s.v.b.j.M W k.M.M.Q + + ; & & ; > < x I m m I Q Q W ^ M M M M M H M c + . . . . ; x m m M I I T Y Y Q Q W Q Q Y M x Y k.n.j.a.Q Y I I M m x z z x I u.a.j.h.i.*.W W ! W W Y I M M I Y Q Q u.u.u.u.u.u.i.Q < . . . . . . . . x a.i.I M M M M M M M m x x M M M M M M M M I M x < q x                                                                                                                                                                                                                                             ",
"                                                                      h.i.m H i.n.M.i.m i.v.M.k.I W k.M.M.i.< ; & @ + > x I M c , > > ; > ; ; ; ; ; ; > , , ; o . . . . ; x m m I W W W Q u.u.Q Q Q u.W M m M u.j.n.b.n.a.! ! Q I z x x x I u.a.j.h.i.*.Q Q Q Q W W Y I M I Y W Q Q u.u.u.u.u.i.Q < . . . . . . . . m h.a.W I M M M M M M m x c x m M M M M M M M M M m b x                                                                                                                                                                                                                                             ",
"                                                                        i.:.:.p.v.b.u.m i.v.M.v.I Y j.M.M.h.I , + o @ > c M z < > ; + o @ @ @ @ o . . o + + + o . . . . ; x m m M Y Y Y W Q u.Q ! Q u.W M m M W a.v.b.M.v.h.d.a.Y x x x x I u.a.h.h.i.*.! Q Q W W W W Y I M I Y W Q Q y.y.u.u.i.Q < . . . . . . . . m h.a.W Y I I M M M M M m x x m m M M M M M M M I M m x                                                                                                                                                                                                                                             ",
"                                                                          k.h.p.k.n.Q x i.v.M.v.I Y j.b.M.n.a.c o o @ ; 1 < < < , , ; ; ; ; ; + @ o . o @ @ o . . . . o > x m x m m m m M Y W Q W u.u.W M m M ! i.a.h.n.b.n.v.h.W z x x x I u.a.j.h.i.*.W W W W W W W W Y I M I Y W ! ! ! Q u.i.Q < . . . . . . . . M j.h.Q W W I M M M M M M M M m x m M M M M M M M M m x                                                                                                                                                                                                                                             ",
"                                                                            i.Y g.v.Q x u.k.M.k.I Y h.n.b.M.k.M @ o @ & > , < < j < > ; ; ; ; ; + o . . . . . . . . . @ 1 x m x x x x x m M Y W :.u.u.W M m m m I Q a.j.v.v.v.j.W z x x x M Q a.j.h.i.Q W W W W W W Q Q W Y I M I Y W W W Q Q u.Q < . . . . . . . . M j.h.Q W W Y I I M M M M I M x x m M M M M M M M M m c                                                                                                                                                                                                                                             ",
"                                                                              c u.j.Q M u.j.n.j.M Y h.v.n.M.n.T + o @ & > , < c c c , ; ; ; ; ; ; @ . . . . . . . . o & < x m x x x x x x m M W u.i.u.Y M m c , c W i.p.a.g.h.h.W x x x x M W a.k.h.u.Q W W W W W W Q u.t.W Y I M I W W W W W u.Q < . . . . . . . . M k.h.Q W W W W I M I I M M M m x m M M M M M M M M x c                                                                                                                                                                                                                                             ",
"                                                                                M W u.i.a.h.n.h.M Y h.k.n.M.b.H o o @ ; > , < c x c < > ; ; ; ; ; & + @ @ . . . . . o ; < m m x x x x x x x m I W W R I m m x < x Y Q u.u.u.i.u.I x x x x M W a.k.h.i.Q W W W W W W Q Q Q W W Y I M I Y Y Y W Q W < . . . . . . . o I v.h.! W W W W Y I I M M M M M m M M M M M M M I M c ,                                                                                                                                                                                                                                             ",
"                                                                                  c Q h.a.h.k.a.M Y h.v.n.M.n.m . . @ & > , < c c < < , > ; ; ; ; ; ; ; & @ . . . . o + < m m m m m x x x x x m M M M m x x x x m M Y u.u.W Y M m m m x x M W a.v.h.i.Q W W W W W W W W Q Q Q W Y I I I I Y W Q W , . . . . . . . o Y n.h.Q W W W W W Y I I I I M M M M M M M M M M I M < ;                                                                                                                                                                                                                                             ",
"                                                                                    v H ! a.h.i.m Y h.v.n.M.n.M . o @ ; > , , 1 ; ; , < , > ; ; ; ; ; ; ; % + o . . . o & < x M M n m x x x x m m m m m x x x m x c I a.a.W I m I I m x x M W a.v.h.i.*.W Y Y W Q W W W Q u.Q W W Y Y Y Y W W Q W , . . . . . . . o Y n.h.Q W W W W W W Y Y Y I M M M M M M M m m M I M < ;                                                                                                                                                                                                                                             ",
"                                                                                      1 m W a.i.Y u.h.k.v.M.n.M o o @ + > , , > & + , c j , > ; ; ; ; ; ; ; ; + o . . . o % < m I I M m m m x x x x x z z z x x c < Y h.h.Q M m I Y M x x M W a.v.h.i.*.W I I Y W W W W Q u.Q Q W W W W W W W Q Y , . . . . . . . @ W n.j.Q W W W W ! ! Q Q Q Y I M M M M M M x m M I M < ;                                                                                                                                                                                                                                             ",
"                                                                                        , x Q a.h.h.h.h.k.M.n.M o . o @ ; < c c q < c c c c q , ; & ; ; ; ; ; ; + . . . . o + < M W W Y M m m x x x x x z z z z x c W k.h.u.I z m M m x x M Q h.k.h.i.*.W I M I Y W W W Q Q u.u.Q W W W W W W W M > . . . . . . . @ W b.k.u.Q W W W Q Q ! Q Q W Y I M M M M M M M M I M < ;                                                                                                                                                                                                                                             ",
"                                                                                          < M :.h.h.a.h.j.M.b.M o . . o + c x x m m z x x x c < 1 ; ; ; ; ; ; ; & o . . . . o ; x Y W Y I M m m x x x x z z z z x x Y a.g.a.W M m x x x x I u.h.v.j.i.*.W I M M I Y W W W W u.u.Q Q Q Q Q Q W W M > . . . . . . . @ Q M.v.i.Q Q W W W W ! W W W W Y I I M M M M M M I M q ;                                                                                                                                                                                                                                             ",
"                                                                                            , c M W i.g.j.M.n.M o . . . + c m x x m n M M m / < q , ; & ; ; ; ; ; & @ . . . . @ > c M I I M M m m x x x z z z z x x c c Q j.a.Y M x x x x M u.h.n.k.i.Q W I M M M I Y W W ! u.u.u.u.u.u.u.Q Q W Y < o . . . . . . @ Q M.v.i.u.u.Q W W W W W W W W W Y I M M M M M M I M < ;                                                                                                                                                                                                                                             ",
"                                                                                              ; , x E a.k.M.n.M o . . . + c m x x x m M M M x c c < , > > > > ; ; ; & o o . . o + , x m n M M M m m z z x x x x x x r , Y h.a.Q M x z x x H u.j.n.k.a.:.W I M M M M Y W W Q u.u.i.u.u.u.u.u.Q Q Y < o . . . . . . @ Q M.v.u.u.u.u.Q W W W W W W W Q W Y I I M M M M I M < ;                                                                                                                                                                                                                                             ",
"                                                                                                ; , x Q j.b.v.m . . . . + c m x x x m m M M M m x c c < , , , > ; ; ; & + o . . + > q x x z M M M n m x x x x x x x x x Y i.i.t.I x x z x I u.j.n.v.a.u.W I M M M M Y W W Q u.u.u.u.u.u.u.u.u.u.Y , . . . . . . . @ Q M.v.i.u.i.u.u.Q W W W W W W W W W Y I M M M M I M < ;                                                                                                                                                                                                                                             ",
"                                                                                                  ; < V i.v.v.m . . . . ; c z z M I M m M I Y Y I m c c < < < , > > > ; & + o o @ & > < c x m M Y Y I M x x x x x x x m M Y W Y M x x x x I u.k.b.n.h.i.W I M M M M I Y W W Q Q Q u.u.u.u.u.u.u.W , . . . . . . . o Y b.k.i.u.i.i.u.u.Q W W W W W W W Q W Y I M M M I M < ;                                                                                                                                                                                                                                             ",
"                                                                                                    ; , m h.v.x . . . o ; x x m Y Q ^ z M I W Q :.Y x c c c c < , , , ; ; ; + o o @ % > < c c M Y Q Q I m m m x x x x x m m m m x x x x x H u.k.M.b.j.i.W I M M M M M I Y W W W W Q u.u.u.u.u.i.Q < . . . . . . . . I n.k.i.u.i.i.i.u.u.Q W W W W ! W W W W Y I M M I M < ;                                                                                                                                                                                                                                             ",
"                                                                                                      ; < a.v.z . . . o ; x x c M I M x m M I W Q Q Y M m m m c < j < 1 > ; & + o . o & , < < x M I Y W Q W I m x x x x x x x x c c x x v H u.k.M.M.v.a.W I M M M M M M I Y W W W Q Q Q Q u.u.i.Q < . . . . . . . . I n.k.p.u.i.i.i.i.u.u.Q Q Q W W W W ! ! W Y I M M M < ;                                                                                                                                                                                                                                             ",
"                                                                                                        , i.j.x . . o o ; c c , c m m m m m M I W Q u.W I M M x x c c < 1 ; ; ; @ . o @ > , , c x x m Q a.i.Q I m m m c c c c c c x x x v H u.x.N.N.n.a.W I M M M M M M M I Y W W W W W W Q u.i.Q < . . . . . . . . I n.k.p.u.i.i.i.i.i.u.u.u.*.Q W ! W W ! ! ! Y I I M < ;                                                                                                                                                                                                                                             ",
"                                                                                                          S H , @ o . o > x < ; , m I Y M M M I I ! i.i.u.I m m m x c c < , 1 > ; + o @ ; 1 , < c x x I Y Y W Q u.W I x c c x x x x x x v H u.v.5XN.b.h.W I M M M M M M M I Y W Q W W W W Q Q u.Q < . . . . . . . . M v.j.i.u.i.i.i.i.i.i.i.i.u.u.Q W W W W W W W Y T M < ;                                                                                                                                                                                                                                             ",
"                                                                                                          ; ; ; % o . o ; c , + , m Q i.Y M M M M R u.a.a.I c m M x x x c < < , > ; + @ + ; , < c x x x x m I u.i.u.W M n M m m x x x x x I i.b.8X5Xb.z.W I M M M M M M M I Y W W W W W W W W u.Q < . . . . . . . . M j.h.u.u.i.i.i.i.i.i.i.i.i.u.t.Q Q W W W W W W Y M r ;                                                                                                                                                                                                                                             ",
"                                                                                                          & & & + o . . + < < < < m a.h.W m m m M I Y i.a.M , x M M M I M c < , > ; & + @ + ; , < c x x x x m I Y Y W u.u.W I M m x x x x Y h.N.wX9XM.h.W I M M M M M M M M I I I Y W Q W W W Q W < o . . . . . . . m h.a.Q u.i.i.i.i.i.i.i.i.i.i.u.u.Q W W W W W W W Y x ,                                                                                                                                                                                                                                             ",
"                                                                                                          < q c < o . . @ > < x c m a.h.Y x x m M M I u.a.x ; c M M I W Y m x q , > > ; + + & ; > , c c c x x x x m Y i.a.i.Q Y I I M M I i.n.7XtXwXN.h.W I M M M M M M M M M M M I Y W W W W Q W < o . . . . . . . x h.a.Q Q u.u.i.i.i.i.i.i.i.i.i.u.Q ! W W W W W Q W m <                                                                                                                                                                                                                                             ",
"                                                                                                          W W u.Y ; . . o ; , < c m Q i.I x x m M M I u.i.c @ c I M I W W Y I m x < < > ; & ; % + ; < c c c x x x m M Y u.a.a.a.a.i.:.u.h.n.5XwXtXqX5Xk.Q I M M M M M M M M M M M M I I I Y W Q Y , . . . . . . . . m h.a.Q W Q u.i.i.i.i.i.i.i.i.i.i.u.u.Q W W W W Q W m <                                                                                                                                                                                                                                             ",
"                                                                                                          i.i.a.u.m ; o o & > , < x I Y M x m M I I Y i.a.< o c Y Y Y W Q W Y M m x c < 1 > > ; + & 1 < c c c x x x z m Y u.a.a.h.h.l.x.V.5X0XyXuXyX8Xv.u.I M M M M M M M M M M M M M M M I Y W Y , . . . . . . . . m h.a.W W Q Q u.u.i.i.i.i.i.i.i.i.i.u.Q Q W W W Q W x ,                                                                                                                                                                                                                                             ",
"                                                                                                          u.u.Q Q i.I + o & ; ; 1 < x m m m M I W W W a.a.c @ x Q u.Q Q W W Y M M M x / < , , > ; ; ; 1 < c c c x x x m m M ! i.a.h.n.N.5X0XrXuXpXyX8Xv.u.Y M M M M M M M M M M M M M M M M I Y Y , . . . . . . . . M j.a.I Y W Q Q u.i.i.i.u.i.i.i.i.i.i.u.u.Q W W Q W c ;                                                                                                                                                                                                                                             ",
"                                                                                                          Q W M x I x @ o & ; ; ; , c m m M I Y W W Q a.h.c @ x W u.u.Q Q W Y Y I M m x c , > ; 1 , , ; ; , c c x x x x x x M W ! u.h.v.b.N.8XqXqXqX5Xk.u.Y I M M M M M M M M M M M M M M M M Y I , . . . . . . . . M h.a.I I Y W Q Q u.u.i.u.u.i.i.i.i.i.i.u.:.Q W Q W c ;                                                                                                                                                                                                                                             ",
"                                                                                                          W I , @ @ @ . o & ; ; ; > x M M I W W W W Q a.h.c o < Y Q i.u.u.Q Q W Y M M M x , + ; c x / ; + ; < c c c x x x x x m m m I W i.j.n.M.N.N.M.j.u.Q W I I I I I M M M M M M M M M M M I M > . . . . . . . . m h.i.I M I Y W W Q u.u.u.u.u.i.i.i.i.i.u.u.Q Q Q W c ;                                                                                                                                                                                                                                             ",
"                                                                                                          u.Y , o o o @ + ; + @ + ; c M I W W W I Y Q a.h.c o , I Q i.i.a.j.a.W Y Y I M M c > x u.Y c , ; % ; , c c x x x x x x x x z n I W i.a.a.a.a.h.h.i.*.! W W Y Y I M M M M M M M M M M M m > . . . . . . . . m h.i.I M I I Y W Q Q Q Q u.u.i.i.i.i.i.i.u.Q Q W I r ;                                                                                                                                                                                                                                             ",
"                                                                                                          i.W < o o @ & ; ; @ . @ > < x I W W I m M W a.h.c o , M Q u.u.j.b.k.u.Q W I M M m x Q j.i.m x c ; @ > < c c c x x x x x x x x m m m m m m M a.k.h.p.p.i.i.u.Q Y I I I I I I I I I I I M < @ o . . o o o o M h.i.I M M M I W W ! W Q Q u.i.i.u.u.u.Q W R Y I M < ;                                                                                                                                                                                                                                             ",
"                                                                                                          t.Y , o o @ & ; ; @ . + < < c x m M M I I I a.h.x @ , m I W u.a.j.v.v.a.W Y I m V E i.g.a.i.Q M , + + ; < c c x x x x x x x x x x x x x x M h.n.v.j.h.h.h.a.a.i.i.i.i.i.i.i.i.i.i.u.i.u.M , ; ; > < m V M Q a.u.I I I I I Y W Q Q Q Q u.i.u.Q Y M x c c c c c <                                                                                                                                                                                                                                               ",
"                                                                                                          W I , o o @ ; > ; @ . ; c < , , < c m Y I m i.z.x + < m M Y Q u.i.k.b.j.i.Q Y m M ! u.i.d.h.i.Y r & @ + > < c c c x x z z x x x z x x x m Y h.n.v.j.h.h.h.h.a.a.a.a.a.a.a.i.i.a.a.a.a.s.W m < , < z Y W ! ! Y M z x z m m m m I I I I T W W I m < 1 ; ; ; > ,                                                                                                                                                                                                                                                 ",
"                                                                                                          W I , o o + , < , + . ; c > + ; > < x I I M u.a.x + c M M I W :.u.h.k.n.v.a.W Y I M R u.p.i.Q I < ; & + + ; < c c x x x z x x x x x x x m I i.g.i.Q Q Q Q W W W W W W W I < / M T Y I Y Y I , + @ + > > > > ; % + + + + + + + ; ; ; ; > < r c <                                                                                                                                                                                                                                                               ",
"                                                                                                          I m ; o o + , 7 7 * + : r ; @ + ; > < m M Y u.i.c + c I I Y W u.p.a.a.n.n.h.u.Q Y m H ! ! Y I m < ; ; & @ + > < c c c x z x x x x x x x m I Q u.Y M M M M M M M M M M M x @ @ c m x x z I I < + o . . . . . . . . . . . . . . o @ @ @ + ; , < <                                                                                                                                                                                                                                                               ",
"                                                                                                          < > + o o @ ; , e 6 4 e e * o @ + ; 1 < M Q i.u.c > x I Y W u.i.a.a.p.h.j.h.a.u.W Y I V M I m c 1 ; ; & & + + ; < c c x z x x x x x x x m I Q u.Y M M M M M M M M M M ^ x + + c m x x x m m m c + . . . . . . . . . . . . . @ , < < < c x m m m                                                                                                                                                                                                                                                               ",
"                                                                                                          e e u u i u 5 5 6 6 3 3 2 # o o @ + # > x Q u.:.x , m Y Q u.u.p.a.a.a.a.h.k.k.a.u.u.W m M I M x < > > ; ; & + & 1 < c x m m m m x x x m M Y :.u.Y M M M M M M M M M M I x + + c m x x x x m I I < + . . . . . o @ o . . . . + c m m m m M M I I                                                                                                                                                                                                                                                               ",
"                                                                                                        ' { <.8.D.G.7.] p : & + + + @ o o o @ @ @ , I W W x < M Q u.u.i.i.i.a.a.a.h.n.V.k.h.a.i.W W W I M x q < > ; ; ; ; ; 1 < c m M M m x x x m I W u.u.Y M M M M M M M M M M I x @ @ c m z x x x m W Q I < o . . . . ; , + . . . . + c m x x m M M M M                                                                                                                                                                                                                                                               ",
"                                                                                                      =.7.R._.).~.E.J.7...5 & + @ + ; ; > ; @ o o ; < c x < < m I Q u.u.u.u.a.a.a.h.b.M.v.j.h.h.a.i.u.Q I I m c , ; ; ; ; ; ; , < x m M m m x x m I Q u.u.Y M M M M M M I I I M I x @ @ c m x M Y M m ! u.W c @ . . . o > c + . . . . + c m x x x V M M M                                                                                                                                                                                                                                                               ",
"                                                                                                    ] 4.T.=XaX*X{.E.P.J.7.i : ; ; ; , / c , @ o o @ @ @ + > , < x Y Q Q Q u.a.a.a.h.b.M.v.j.j.j.h.h.a.u.W W Y m < ; ; ; ; ; ; ; , < x m M M m x m I ! u.u.Y M M M M M M Y W Y M I x @ @ c x m W a.Y m ! u.Y c @ . . . o , c + . . . . + c m m x m M M M M                                                                                                                                                                                                                                                               ",
"                                                                                                  ] X.9.E..X*X%X].E.L.D.<.i 5 ; ; ; > > > + o . . o o o o ; > > < m I W Q u.a.a.h.j.b.M.v.j.j.j.h.a.i.W ^ ^ M x r , > ; > > ; ; ; 1 < x M M n m m I ! u.u.Y M M M M M I W :.R M I x @ @ c x x i.k.u.V ! u.Y c @ . . . o , c + . . . . + c M T M m m M M M                                                                                                                                                                                                                                                               ",
"                                                                                                ' { <.S.P.W.!.!.W.P.G.7.{ a 5 ; ; ; + o . . . . . . o o @ + ; ; > c m Y Q u.a.a.h.k.n.n.k.j.j.h.a.i.W M x c x c c < 1 ; > , > ; ; ; , c m M M m m I ! u.u.Y M M M M M I W u.W M I x @ @ c m m a.v.i.V W u.Y c @ . . . @ , c ; . . . . + c Y u.E m M I I M                                                                                                                                                                                                                                                               ",
"                                                                                                ' { <.S.P.P.J.L.J.S.7.2.<.{ a 6 : & o . . . . . . . o o o @ + & > q x M W u.i.a.a.h.k.v.j.h.h.a.i.W M x c c c c c < , ; ; + ; ; ; ; , < c m M M m I Q i.i.E M M M m m M W Q Y M M x @ @ c I Q u.u.I m W u.Y c @ . . o + r x ; . . . . + c Q g.Q m I W I M                                                                                                                                                                                                                                                               ",
"                                                                                                ' { <.S.H.D.9.9.8.1.<.<.<.=.' p 5 ; @ o o o . . . o o o o o @ + > < c x M Q u.u.i.a.h.j.h.a.a.i.W M x c c c c c c , > ; + @ + ; ; ; 1 , , c m m m I Q a.a.W M M m x x M Y W Y M M x @ @ c Y i.W m x m W u.Y c @ . . @ ; x m ; . . . . + c Q a.Q m Y u.Y M                                                                                                                                                                                                                                                               ",
"                                                                                                ' { <.9.S.9.4.4.1...{ { | | A C c r < , , > + + + @ o o o o o @ + > , < c m Y u.i.p.h.h.i.u.u.W n x c c c < < < < > ; ; & % & ; ; ; ; > > , c x x I Q a.h.Q M M m x x M I I I M ^ x @ @ c M I M x x m W u.Y c @ . . @ , x m ; . . . . + c M Y M m W u.Y M                                                                                                                                                                                                                                                               ",
"                                                                                                ' { <.7.9.4.<.=.=.X.] ` A M n m m m m m m c , > > ; + @ @ o o o o + ; 1 , , m Q u.p.h.h.u.W W I x c c c c < , , , ; ; ; ; ; ; ; ; ; ; ; ; ; , < x I Q h.h.Q M M m x x M M M M M I x @ @ c m x x x x m W u.Y c @ . . + < m M ; . . . . + x m x x m W u.Y M                                                                                                                                                                                                                                                               ",
"                                                                                                ' { <.7.9.<.] ' { 4.3.A b m m M M M m x x x c c c c < 1 % o . . . o + ; ; > < M ! a.h.h.u.W W I x c c c c < , , , ; ; ; ; ; ; ; ; ; ; ; ; ; ; < x I Q h.h.Q M M m x x M M M M M I x @ @ c m x x x x m W :.Y c @ . . + j I I > . . . . ; I I m x m W u.Y M                                                                                                                                                                                                                                                               ",
"                                                                                                ' { =.4.7.<.X.=.2.7.3.Z c x m M I M m m m m m m m m x c 1 + o . . o @ + % ; > r S :.h.h.i.W Y M x c c c < < , , > ; ; ; ; % % % % & ; ; ; ; ; , c M Q h.h.Q M M M m m M M M M M M x @ @ c m x x x x m W u.Y c @ . . + c Y Y , . . . . ; M I m x m ! u.E M                                                                                                                                                                                                                                                               ",
"                                                                                                    ] X.2.7.9.F.J.9. .t j x m M M M M M M M M M M m z x c 1 + o . o o . @ ; ; > < M a.h.u.Y m x c c c < < < , > ; ; ; ; + @ @ @ @ @ & ; ; ; ; > < M Q h.h.Q M M M M M M M M m x M x @ @ c m x x x x m ! u.Y c @ . . + c Y W , . . . . + x m x x m *.a.W M                                                                                                                                                                                                                                                               ",
"                                                                                                    ' ] =.S.U.!.W.9...C k x m M M M I I I I I I M M m m x c 1 + o o o . o @ @ + ; c Y Q Y M x c c c / < < < , 1 > ; ; % + + @ o @ + + + + + + & , m Q a.h.u.Y M M M M M M M m m M x @ @ c m x x x x m ! u.Y c @ . . + c Y W , . . . . + c x x x m u.a.W M                                                                                                                                                                                                                                                               ",
"                                                                                                    ' ` ..K.].[.!.w...Z x x m M M I Y Y Y Y Y Y I M M m v x c 1 % @ o o o . . . + ; > < c c c < < , , < , , , , 1 ; + @ + & + @ + & @ @ @ o . o ; v ! a.a.i.Q Y M I I I I I M M I x @ @ c m m m m x m ! u.Y c @ . . + c Y Y > . . . . + c z x x m i.h.Q M                                                                                                                                                                                                                                                               ",
"                                                                                                      <.w.~.OX/.H.-.A b z m M M M I Y Y Y Y Y Y I I I I M m x r < , ; + o . . . o @ o @ + ; ; ; + + + + + + + + + @ o o o @ o o o @ @ o o o . o @ < Y a.j.h.a.u.Q W W W W W W W W m + + m I I I I I Y u.i.Y c @ . . + c Y W , . . . . + c m x x M a.h.Q M                                                                                                                                                                                                                                                               ",
"                                                                                                      Q.(.OX&XE.1.A x x m M M M M I Y W W W Y Y Y Y Y Y Y M x x z x c > + @ @ o . . . . . . . . . . . . . . . . . . . . . . . . . . o o o o o . . ; m a.k.j.h.a.i.u.u.u.u.t.t.Q Q M + + M W W W W W Q a.a.W c @ . . + c Y W , . . . . + c m x x M a.k.u.M                                                                                                                                                                                                                                                               ",
"                                                                                                    ~.%X2X1X*XI.<.Z k x m M M M I Y W Q Q Q W Y Y Y Y Y I M M M m m x r < , ; + o . . . . . . . . . . . . . . . . . . . . . . . . . . . . . . . . @ , Y i.i.u.Q W Y Y Y Y I M M M c + ; m I I I I M Y a.h.Q c @ . . + < I Y , . . . . + c m x x M h.v.u.M                                                                                                                                                                                                                                                               ",
"                                                                                                    ).*XaX4X%XI.<.s < x m M M M I W Q u.u.u.Q W W W Y I I M M M M m m m m x < > % @ o . o o . . . . . . . . . . . . . . . . . . . . . . . . . . . . @ , m m x x c c c c c < , , 1 ; @ + c m z z x x M h.j.Q c @ . . @ , I Y > . . . o ; c m x x M h.n.i.M                                                                                                                                                                                                                                                               ",
"                                                                                                !..X2XaX4X>X XP.<.s < x m M M M I W Q i.u.i.i.i.y.W Y Y Y I M M M M M M m m x c < , @ o o o . . o . . . . . . . . . . . . . . . . . . . . . . . . . . @ ; + + + + + + + @ @ @ o o o . + c m z z x x M h.j.Q c @ . . @ , I W , . . . @ > c m x x M j.b.i.M                                                                                                                                                                                                                                                               ",
"                                                                                                ~.%XaX4X-XoX^.J.<.s < x m M M M I W Q u.u.i.a.a.u.Q W W Y I I M M M M M M m m x m x > + @ o . . o . . . . . . . . . . . . . . . . . . . . . . . . . . . . . . . . . . . o o o o o o o + c m z z x x M h.k.t.c @ . . @ , I W , . . o & < x m x x M k.b.i.M                                                                                                                                                                                                                                                               ",
"                                                                                            !.~.^.|.%X+XoX/.Y.F.<.s < x m M M M I Y W W u.i.a.a.u.u.Q W Y Y Y I M M M M M M m x x x c < ; + o . . . . . o . . . . . . . . . . . . . . . . . . . . . . . . . . . . . o + ; > ; ; > > > , x m z z x x M h.v.u.c @ . . o > M Y , . . o ; < x z x x M k.b.i.M                                                                                                                                                                                                                                                               ",
"                                                                                            !.~./.].].].].!.P.A.<.Z j x m M M M I Y Y W Q i.a.a.a.a.a.u.W W Y I I M M M M M M m m m m x < > ; + o . . . o . . . . . . . . . . . . . . . . . . . . . . . . . . . . . @ ; 1 < < < < j < c x x x x x x M j.n.u.c @ . . o ; V Y > . o + , c x x x c M k.V.i.M                                                                                                                                                                                                                                                               ",
"                                                                                        P.U.Q.^././.~.~.!.W.P.D.<.A c x m M M M M I Y W u.i.a.h.h.h.h.a.u.W Y Y Y I M M M M M M M M m x x c c , ; @ o . . . . o o . . . . . . . . . . . . . . . . . o . . . . . . . o ; 1 < < c x x x x x x x x x x M j.n.u.c @ . . o ; V Y > . + , c x x x x x M k.b.i.M                                                                                                                                                                                                                                                               ",
"                                                                                        W.E.E.W.!.!.Q.Q.Q.Q.Y.D.1.A x x m M M M M I Y W u.i.a.h.h.j.j.h.i.u.W W Y I I M I I I M M M M m m m m c < > ; + o . . o o . . . . . . . . . . . . . . . . . o . . . . . . . o + & ; < x x x x x x x x x x V ! v.n.i.c @ . . o & m Y , @ > c c x x x x Y a.k.k.u.M                                                                                                                                                                                                                                                               ",
"                                                                                    Y.W.~.!.P.L.P.Y.Y.E.E.Q.W.F.<.A x x m M M M M I Y W u.i.a.a.h.h.j.h.a.i.u.W Y Y Y I I Y I M M M M M m x x x x x c , & @ o . . o o o . . . . . . . . . . . . . . . . . . . . . . . o o o > c x x x x x x x x m Y p.n.n.u.c @ . . . @ x Y c ; < c c c c c m a.b.k.i.Y M                                                                                                                                                                                                                                                               ",
"                                                                                    Y.W.^.^.P.J.F.J.P.Y.Y.W.Y.D.<.Z c x m M M M M I T W u.i.a.a.a.h.j.h.z.a.u.W Y Y Y I Y Y T M M M M M M m m m m m x c < , ; o . . o o o o o . . . . . . . . . . . . . . . . . . . . . . . ; c x x x x x x x M Y W u.h.a.m ; . . . . @ c Y x , < c c c x I Q a.h.i.E I                                                                                                                                                                                                                                                                 ",
"                                                                                    Y.W.~.~.Y.J.S.D.P.U.Y.Y.P.A.<.s < x m M M M M I Y W Q u.u.i.a.h.j.h.a.a.u.! Y Y Y Y Y Y T I M M M M M M M M m x x x x x c ; o . . . . o o o . . . . . . . . . . . . . . . . . . . . . . + < c x x x x m M W :.E M I x + . . . . . @ c Y m < c c c c x W h.i.Y I I                                                                                                                                                                                                                                                                   ",
"                                                                                    Q.Q.~.!.Y.J.S.D.K.L.P.P.L.A.<.s < x m M M M M I T W W Q u.i.a.h.j.h.a.a.a.u.! Y Y Y Y Y Y T I M M M M M M M M M m m z m x < ; o . . . . o o o . . . . . . . . . . . . . . . . . o + @ . + 1 c x x x x Y a.a.W x > ; + . . . . . . o < I m c c x x x x I u.W M M                                                                                                                                                                                                                                                                     ",
"                                                                                    !.!.!.Q.Y.J.S.S.F.F.J.L.L.A.<.s < x m M M M M I T Y Y W u.i.a.h.j.h.h.h.a.s.u.W W Y Y Y Y Y I M M M M M M M M M M m m m m m < % @ o . . . o o o . . . . . . . . . . . . . . . . @ > + . @ ; < c x x x u.n.h.M ; . . . . . . . . . . , M m c c x x m n M M M M                                                                                                                                                                                                                                                                       ",
"                                                                                    Y.E.E.W.W.P.Z.9.S.G.F.K.J.A.<.s < x m M M M M I Y Y Y W u.i.s.h.j.j.h.h.a.i.u.t.! Y Y Y Y Y I M M M M M M M M M M M M M m m x < > @ o . . . o o o . . . . . . . . . . . . . . . o @ o . @ ; , c x x x u.v.h.M ; . . . . . . . . . . , M m c x x x I i.Q I M                                                                                                                                                                                                                                                                         ",
"                                                                                    P.P.P.E.W.P.Z.8.9.S.F.F.D.9.<.s j x m M M M M I Y Y Y W Q u.u.a.j.j.j.h.a.a.i.i.t.W W W W Y I I M M M M M M M M M M M M M m m z < ; @ o . . . o o o . . . . . . . . . . . . . . . . . . @ ; > < c x x Q j.a.M ; . . . . . . . . . . , M m x x m I Q a.i.I                                                                                                                                                                                                                                                                           ",
"                                                                                    K.L.P.P.U.P.S.7.7.7.9.Z.9.7.=.Z c x m M M M M I Y Y Y W W Q u.a.h.h.j.j.h.a.a.i.u.u.u.u.W Y Y Y I M M M M M M M M M M M M M M m x < > @ o o . . o o o o o . . . . . . . . . . . . . . . o + ; 1 c x x Q h.a.M ; . . . . . . . . . . , M m x x I a.a.Q W                                                                                                                                                                                                                                                                             ",
"                                                                                    G.F.L.P.P.J.S.7.<.<.1.1.1.1.o.Z c x m M M M M I I Y Y Y Y W u.a.z.h.h.j.j.h.a.i.u.u.i.u.Q W W Y I I I I M I I I I I I I I I M m m x < ; + @ . . o o o o o o . . . . . . . . . . . . . . . o + ; < x x W a.i.M ; . . . . . . . . . . , M m x x Y j.h.Y m                                                                                                                                                                                                                                                                             ",
"                                                                                    S.S.H.P.L.F.S.4.{ ] { { { <.o.t j x m M M M M M I I Y Y Y W u.a.a.h.h.h.j.j.h.i.u.u.u.u.u.t.W Y Y Y Y T ^ I Y Y Y Y Y Y Y I M M m m x c , & @ o . . . . o o o . . . . . . . . . . . . . . . o + < x x Y i.:.M ; . . . . . . .   . . , M m z x Y j.h.Y m                                                                                                                                                                                                                                                                             ",
"                                                                                      S.J.L.L.J.D.7.=.] ' ] { =...f t z m M M M M M M I I Y Y W Q i.a.a.a.h.h.j.h.a.i.u.u.u.u.u.Q W W W W Y I I Y Y Y W Q Q W Y I I M m m m c , > ; o . . . o o o o . . . . . . . . . . . . . . . @ , c c S :.Q M > . . . . . . .   . . , M m x x Y j.h.Y M                                                                                                                                                                                                                                                                             ",
"                                                                                        F.K.P.L.F.S.7.=.] ..<.{ ' ` d b x m m M M M M M M I Y Y W Q u.i.i.a.h.j.j.h.a.i.i.u.i.i.u.u.u.u.W Y Y Y Y Y Y Q u.u.u.W Y Y I M M M m x x < + o o o . . o o o . . . . . . . . . . . . . . o > , > b :.Q M , o . . . . . . . . . , M m x x Y j.h.Y M                                                                                                                                                                                                                                                                             ",
"                                                                                        D.G.K.L.K.D.9.<.' | | ` ( ' ` C c x m M M M M M M I I Y Y Q u.u.i.a.h.h.j.h.h.a.a.a.a.a.i.u.u.u.Q Q Q Q Q ! Q t.u.u.u.Q Q Q W Y I I M m M m < ; @ o . . o o o o . . . . . . . . . . . . . . + + @ r :.:.M > o . . . . . . . . . > m m x x Y j.h.Y M                                                                                                                                                                                                                                                                             ",
"                                                                                        Z.S.F.J.F.D.8.<.' h g p i ` d t j x m M M M M M M M M I Y Q u.u.u.a.h.h.j.j.h.h.a.a.h.a.s.i.u.u.u.u.u.u.u.u.u.u.i.i.i.i.u.u.Q W Y Y I M M M m < + o o o . o o o o . . o o . . . . . . . . . o o . < *.:.M > . . . . . . . . . . > x m x x Y j.h.Y M                                                                                                                                                                                                                                                                             ",
"                                                                                          S.D.G.F.D.8.1.X.[ h i u ` d r < x m m M M M M M M M I Y W Q u.u.i.a.z.h.j.j.h.a.a.h.z.a.a.a.a.i.i.a.a.a.i.u.i.a.a.a.a.a.i.u.Q Q Q W I M M m x , > + o . . . . . . . . . . . . . . . . . . . . . , Q Q m ; . . . . . .     . . > x z x x Y j.h.Y M                                                                                                                                                                                                                                                                             ",
"                                                                                            9.S.F.D.8.6.<...` a i ` d 7 < x x m m M M M M M M I Y Y Y Q u.u.i.a.h.h.h.h.a.a.a.a.a.z.a.a.i.i.a.a.a.s.i.a.a.a.h.h.h.a.i.i.i.u.Q Y I M m m m c > & @ o . . . . . . . . . . . . . . . . . . . , W W x + . . . . .         . > x m x x Y h.h.Y M                                                                                                                                                                                                                                                                             ",
"                                                                                            8.Z.F.D.9.7.6.=.` a u i p , , < c x M M M M M M M I Y Y Y W ! y.i.a.h.h.h.h.a.a.a.a.a.a.a.a.a.a.a.a.i.i.i.a.h.h.h.j.j.h.h.a.a.u.u.Q W I M M M m c < , ; + o . . o o . . . . . . . . . . . . . , Y Y c + . .               . > x m x x Y h.a.Y M                                                                                                                                                                                                                                                                             ",
"                                                                                            8.9.D.D.8.8.6.=.` a u u 5 : > , c z M M M M M M M I Y Y Y Y W Q i.a.a.a.a.a.h.h.h.h.h.a.h.z.a.a.i.u.u.u.i.a.a.a.a.h.j.j.h.a.a.i.u.u.Q W I I M M m m x < > & + @ @ @ @ o o . . . . . . . . . . > I I c + .               . . > x m x x I h.a.Y M                                                                                                                                                                                                                                                                             ",
"                                                                                            8.9.Z.Z.8.7.2.X.' ` d p 9 ; > , c x M M M M M M M I I Y Y Y W Q i.i.i.i.a.a.h.h.j.h.h.a.z.h.h.a.i.u.u.u.u.i.i.i.a.a.h.h.a.a.i.u.u.u.u.Q W I I M M m b x c c < , > > > > ; + o . . . . . . . . ; M m < + o . . . . . . . . . > x m x x I a.a.Y M                                                                                                                                                                                                                                                                             ",
"                                                                                            7.7.9.9.8.4.=...{ ] ` p w : : , < x m M M M M M M M M I Y W W u.u.u.u.u.i.a.h.j.j.j.h.a.a.z.a.a.i.u.u.u.u.u.u.u.i.a.a.a.a.i.u.u.u.u.u.Q W Y I I I M m m m m m c < < < < , > + o . . . . . . . ; x x , + o . . . . . . . . . > x z x x Y h.a.Y M                                                                                                                                                                                                                                                                             ",
"                                                                                            2.4.7.8.7.<.{ X.=.{ ' ` d u 5 ; > < c m M M M M M M M I Y Q u.u.u.u.u.u.i.a.h.j.j.j.h.a.a.a.a.i.u.u.u.u.u.u.u.u.u.i.i.i.u.u.u.u.i.u.Q W W Y Y Y Y I M M M M M m x x c < , , ; + o . . . . . . + c c , + . . . . . . . . . . > x m x x Y h.a.Y M                                                                                                                                                                                                                                                                             ",
"                                                                                            =.<.6.8.6.=.' { =.{ ` ` p 4 * ; > , c x m M M M M I I Y Y W Q u.u.u.u.u.s.a.h.h.h.h.h.a.a.a.i.u.u.u.Q Q Q Q Q Q Q Q Q Q Q t.Q Q Q Q W Y Y Y Y Y Y I I I I I M M m m c < < < < > @ . . . . . . + < < 1 + . . . . . . . . . . > x m x x Y h.a.Y M                                                                                                                                                                                                                                                                             ",
"                                                                                            ' X.6.8.1.X.' ' ] ' ` p w & + ; > , c x m m M M M I Y Y Y Y W Q u.u.u.u.i.a.h.h.z.z.h.a.a.i.u.u.u.Q W W W W W W W W W Y W W W W W W W Y I I I I I I Y Y Y I M M M m c < < c c , @ . . . . . . @ , , ; &                 . . > x m x x Y h.a.Y M                                                                                                                                                                                                                                                                             ",
"                                                                                              =.8.6.1.=...] ` ` a e e i a f t 1 < c x m M M M I I Y Y Y W Q u.u.u.u.i.a.a.a.a.a.a.a.u.Q Q Q Q W Y W Q Q Q Q W W Y Y Y Y Y Y Y Y Y I I M M M M I Y Y I I M M M m x c c x c , @ . . . . . . o ; ; +                     . > x m x x Y h.a.Y M                                                                                                                                                                                                                                                                             ",
"                                                                                                8.6.<.<.<.{ ` a u u ' 4.7.<.d : > < c m M M M M M M I I W Q u.u.u.u.u.u.u.u.u.u.i.u.W W Y Y Y Y W Q u.u.u.u.u.W Y W W W Y Y Y Y I I M M M M M I Y I I M M M M m x x x x c , @ . . . . . . . o @ o                     . > x m x x Y h.a.Y M                                                                                                                                                                                                                                                                             ",
"                                                                                                6.<.X.....{ ` d ` <.9.L.F.4.d ; ; < c m M M M M M M M I W Q u.i.u.Q Q Q Q Q Q Q Q Q W Y Y W Q Q Q u.u.u.Q Q Q Q u.i.u.Q W W Y W W W I M I I I I I I M M M M M M m m x c < , @ . . . . . . . . . . o o . . . . . . . . . > x m x x Y h.a.Y M                                                                                                                                                                                                                                                                             ",
"                                                                                                <.=.] ' ' ' ' ' <.F.Q.~.P.7.` , 1 < c m M M M M M M M I W Q u.u.u.W Y Y Y Y Y Y Y Y Y Y W W u.u.u.u.u.Q Y Y Y Q i.a.a.u.W Y Y Y Q Q Y I Y W W Y I M M M M M M M M x c < < , @ . . . . . . . . . . . o . . . . . . . . . > x m x x Y h.a.Y M                                                                                                                                                                                                                                                                             ",
"                                                                                                { ..X.{ ` ` ] <.S.E.{.OX(.S.=.' t < c m m m M M M M M I Y W Q u.u.W Y I I I I I I I Y W Q u.u.u.Q W W Y Y I I T Y W W Y I M M M I W u.u.W W Q W Y I M M M M m m x c < , < , + . . . . . . . . . . . . . . . . . . . . . > x z x x T h.a.Y n                                                                                                                                                                                                                                                                             ",
"                                                                                                ' { <.X.{ { =.9.P.!. X-X|.G.7.<.d < k x x m M M M M M I Y Y W Q Q W I I M M M M M I Y W u.u.u.Q W Y W W W Y Y Y T Y Y I M m m m m I u.i.W W u.Q Y I M M M m x x c < , , , , @ . . . . . . . . . . . . . . . . . . . . . ; x x x x I a.a.Y M                                                                                                                                                                                                                                                                             ",
"                                                                                                  ] { =.1.8.D.F.P.!. X-X|.G.7.<.a 1 , c x m m m M M M I I Y W W W I I M M M M M I Y Y W u.u.! Y Y W u.i.s.i.i.i.i.i.u.Q Y I M M m m I Y Y W W W Y I M m m m x x c < , , , > @ . . . . . . . . . . .                 . . ; x x x x I a.a.Y M                                                                                                                                                                                                                                                                             ",
"                                                                                                    ' <.9.L.Y.L.P.!. X&X|.G.7.4.d ; > < x x x m M M M M M I Y Y I I M M M M I I Y Y W Q u.u.W Y W Q u.a.z.z.z.z.z.z.a.i.Q Y I M m x x m I Y Y Y Y I M m x x x x c < < , 1 ; o . . . . . . . . . .                     . ; c c c x I i.u.I M                                                                                                                                                                                                                                                                             ",
"                                                                                                      7.S.Y.!.P.L.!. XOX/.G.S.S.| ; > < x x x x m m M M M I I I I M M M M M I Y Y W Q u.u.Q W W u.u.i.a.a.z.z.z.h.h.a.i.Q Y I M m x x x m M Y Y I I M m x c < < c x c < > ; o . . . . . . . . . .                     . + < < < c H u.:.I M                                                                                                                                                                                                                                                                             ",
"                                                                                                        Z.P.Q.P.L.!.|.oX^.L.F.D...5 1 , c x x x x m M M M M M M M I I M I I Y Y W Q u.u.t.! Y W u.u.i.a.a.a.a.a.a.a.i.u.W Y I M m m x x x m I I M M M M x c < , < c c < 1 ; @ . . . . . . . . . . .                 . . @ > ; > c S :.:.I M                                                                                                                                                                                                                                                                             ",
"                                                                                                        9.F.P.L.P.!.]. X/.Y.J.S.<.d 5 > , < x x x m M M M M M M I Y Y I I Y Y W Q u.u.u.W W Y Q u.u.u.u.i.i.i.i.u.Q W W W Y T M M M m x x m M I M M M M M m c < , < < < 1 ; o . . . . . . . . . . . . . . . . . . . . . o @ @ + < H :.:.I M                                                                                                                                                                                                                                                                             ",
"                                                                                                        8.D.L.K.L.E.!.~.!.I.J.9.<.` e : 1 < x x x m M M M M M I Y Y Y I Y Y Y W Q u.u.Q W Y Y Q u.i.u.u.u.u.u.i.i.Q W W ! Q Y I I I M m x m m M M M M M M m x < , , , 1 ; + o . . . . . . . . . . . . . . . . . . . . . . . . @ < I :.Q I M                                                                                                                                                                                                                                                                             ",
"                                                                                                        8.S.F.F.F.K.P.Y.I.K.G.9.<.` a e 7 < x x x m M M M M I Y Y Y Y Y Y Y Y W Q u.W Y Y Y Y W u.u.u.u.u.u.i.a.a.i.u.u.u.u.Q W W Y I M m x m m M I M m x x x < < , 1 ; + o . . . . . . . . . . . . . . . . . . . . . . . . . o , M Q Q I M                                                                                                                                                                                                                                                                             ",
"                                                                                                          Z.S.D.G.J.L.P.L.K.D.9.<.' a u 7 < k c x m m M M M I Y W Y Y Y Y Y Y Y W Q Y I Y Y Y W Q Q Q i.a.a.a.h.h.h.a.a.a.a.a.a.i.u.Q Y I M m M M I M x c c c < , > ; + o . . . . . . . . . . . . .                 . . . . . . + < W Q I M                                                                                                                                                                                                                                                                             ",
"                                                                                                          7.8.9.S.J.L.J.F.F.Z.6.X.` a u 5 , , < x x m m M M I Y Y Y Y Y Y Y Y Y Y Y I I Y Y Y Y Y Y W i.a.a.h.h.j.j.j.j.j.j.j.h.h.a.a.u.W Y I I I ^ M x < < , , , > + @ . . o o . . . . . . . . .                     . . . . . . ; Y Q I M                                                                                                                                                                                                                                                                             ",
"                                                                                                          2.4.8.S.D.G.D.S.Z.7.=.' a u e , > , < x x x m M M M I I I Y Y Y Y Y Y Y I I Y Y Y Y Y I I W u.a.a.h.h.h.j.k.k.j.j.h.h.h.h.h.h.a.u.Q W Y I M m x < , , , > + @ . . o o o o o . . . . . .                     . . . . . . + I W I M                                                                                                                                                                                                                                                                             ",
"                                                                                                            2.7.9.9.9.9.9.6.=.` a u u e : > , < x x x m M M M M M M I Y Y Y Y Y I I Y Y Y Y Y I I I Y Q i.a.a.a.a.h.h.h.j.j.h.h.h.h.h.h.a.a.u.Q Y I M I M c , , > ; + o . . o o o o o . . . . . . .                 . . . . . . . + M W I M                                                                                                                                                                                                                                                                             ",
"                                                                                                              4.7.7.9.9.4.X.' a e e u 6 : ; , < < c x M M M M M M M I I I I I I I I Y Y Y Y I I Y Y W Q u.u.Q W W ! u.a.a.h.h.a.a.a.i.u.Q Q W Y I I M I M c , > ; + @ o . . o o . . . . . . . . . . . . . . . . . . . . . . . . . + I W I M                                                                                                                                                                                                                                                                             ",
"                                                                                                                1.6.6.4.=.' a u w w e e : : 1 , , < x m M M M M M M M M M M M M M I Y Y Y Y I I Y Y W Q Q W I I M M Y u.a.a.h.a.a.u.W Y Y Y Y I M M M M m c , ; + @ o o . . o o . . . . . . . . . . . . . . . . . . . . . . . . . + m Y I M                                                                                                                                                                                                                                                                             ",
"                                                                                                                  2.<.{ ] ` a u e e w w e 5 : > , < < c m M M M M M M M M M M M M I Y Y Y Y I I Y Y Y W W Y I M M M Y u.a.a.h.a.a.u.W Y Y Y Y I M M M m x < , ; + @ o o . . o o o o o . . . . . . . . . . . . . . . . . . . . . . @ c M M I                                                                                                                                                                                                                                                                             ",
"                                                                                                                  <.<.=.<.2.X.' ' ] h p u 6 : > , < , c x M M M M M M M I I I I I I Y Y Y Y I I Y Y Y Y I M M I I Y W Q u.i.i.i.u.Q W Q u.u.u.Q W W W Y I m r 1 ; + @ o o . o o o o o . . . . . . . . . . . . . . . . . . . . . . o , x m M                                                                                                                                                                                                                                                                             ",
"                                                                                                                  <.4.w.L.W.J.6.9.9.=.` u 6 : > , , < c x M M M M M M M I Y Y Y Y Y Y Y Y Y I M I I I I M m m I Q i.u.Y I I I Y Y W Q i.h.h.h.h.a.a.a.a.i.W M < , 1 ; @ o o o o o o . . . . . . . .                 . . . . . . . o > c x m                                                                                                                                                                                                                                                                             ",
"                                                                                                                  9.G.E.{. XQ.Z.A.D.<.` i 6 : > , < c x m M M M M M M M I Y Y W W Q Q W Y Y I I M M M M M M M I u.j.h.Y M I Y Y W Q i.h.v.n.n.v.v.k.k.k.j.a.u.I m x < ; + + @ o o o . . . . . . .                     . . . . . . o ; < c x                                                                                                                                                                                                                                                                             ",
"                                                                                                                  J.E.|.&X-X(.9.9.9.=.` i 6 : > , c x x m M M M M M M M I Y Y W Q u.u.u.W Y Y T I M M m m I Y M u.n.k.Y M Y ! u.u.u.a.j.b.M.b.n.n.n.n.n.k.j.h.i.W M x , > ; + o o o . . o . . . .                     . . . . . . o % , c x                                                                                                                                                                                                                                                                             ",
"                                                                                                                S.G.E. X>X>X).D.9.7.=.` i 6 : > , < c x m M M M M M M M I Y Y W Q i.i.u.Q W W Y I M M m m I I c W b.n.W M Y Y W W u.a.k.n.n.h.a.a.a.a.i.u.u.Q I m x c c r < + . o o o . . . . . . . .             . . . . . . . . o % 1 < c                                                                                                                                                                                                                                                                             ",
"                                                                                                              S.Z.9.P.|.-X-X).K.Z.6.X.` i 6 : > , , < c x M M M M M M M I Y Y Y Q u.u.u.u.Q W Y I M M m m I H < H n.v.Y M M M I Y Q h.j.j.a.Q T I M M M M M m x c c c x m x ; . . o o . . . . . . . . . . . . . . . . . . . . . . . + > , ,                                                                                                                                                                                                                                                                             ",
"                                                                                                              J.F.S.L.].OXOX~.K.9.1.{ ` a 4 & + > , , < c m M M m M M M I I I I W Q u.u.i.u.W Y I M M M M I M x Y j.h.Y m m m M u.a.a.a.i.Q Y u.a.h.h.a.a.i.i.u.Q W Y I I M > . . o . . . . . . . . . . . . o o o o o @ o . . . . . @ & > >                                                                                                                                                                                                                                                                             ",
"                                                                                                              P.J.S.J.~.].^.E.F.9.<.{ ` a 3 + @ ; > , , < x m m m M M M M M M I I W Q u.u.Q W I P M M M M M M M Q h.a.Y m m m M i.h.i.Q Q W Q a.n.b.n.v.j.h.h.h.h.a.u.Y Y I > . . o . . . . . . . . o o o o o o o o + ; @ . . . . . o @ & ;                                                                                                                                                                                                                                                                             ",
"                                                                                                              D.S.7.9.U.W.E.P.S.7.<.{ ` a 3 + o @ % > , < < c x m m m m M M M M I W u.i.i.Q Y P M M M m m m m I Q h.a.Y M I Y W Q W Y W a.h.h.h.h.h.h.a.i.u.u.u.Q W Y I I M > . . . . . . . . . . @ ; , <           & ; + o . . . . o @ @ @                                                                                                                                                                                                                                                                             ",
"                                                                                                              S.Z.7.7.F.J.F.S.9.4.=.] ( i 4 + o o @ & ; > , , c x x x x m M I I I Y Q u.u.W I H K ~ ! I m x M Y i.a.i.I M Y Q Q Y I Y Q h.h.h.a.u.u.u.u.Q Q Q Q Q Q W W Q Y , . . . o o . . . . . ; c m n             ; + o . . . . o o o o                                                                                                                                                                                                                                                                             ",
"                                                                                                              L.F.S.9.S.9.7.7.2.=.] ( u u 4 # o o @ @ @ + ; > , c x x x m M I Y I I Y W Y I P K O.C.k.i.M m Y a.a.Q I m M I I Y I W a.a.a.u.W Y W Q u.a.h.h.h.h.j.k.k.j.j.h.c . . . o o o o o . . < M m c M I I       ; + o . . . . . . o o                                                                                                                                                                                                                                                                             ",
"                                                                                                              P.L.F.S.S.9.4.1.<.X.` a u 6 2 + o o @ o @ @ % ; , < c x x m M Y Y Y I Y Y I M M O.w.c.x.s.I M W h.h.Y m m m M M M I Q h.h.a.W I I Y Q i.h.j.j.k.v.n.n.n.v.n.k.m . . . o o o @ o o o , x , > < c c <   @ + + o . . . . . . o o                                                                                                                                                                                                                                                                             ",
"                                                                                                              K.J.F.F.F.S.7.4.<...` a e : & @ o o o o + & ; ; , , < c x m M I Y Y Y Y Y I M M ,.T.'.a.W M M W h.h.Y m m m M M I I Q h.h.a.Q Y Y Y Q i.a.h.j.j.k.j.h.h.h.j.h.m o . o o o o o o o o @ @ o o o @ @ o . o @ @ o . . . . . . o o                                                                                                                                                                                                                                                                             ",
"                                                                                                              G.G.G.G.D.Z.7.4.<.] h i 6 * + @ o o @ o @ + & ; > , , < c x m I I Y Y I I M H | ,.e.r.! I I Y Q a.u.m c c m I I I W u.a.a.Q Q y.t.Q u.u.i.i.a.a.a.i.u.Q t.i.u.c o . o o o o . o o o . . . . . . . . . . o o o . . o o . . o o                                                                                                                                                                                                                                                                             ",
"                                                                                                              S.S.S.9.9.6.2.1.<.[ y e 4 $ @ o o o @ @ @ @ % ; ; > , , < c x M I P M m m M K -.O.K U I M I u.i.W m , > < m Y Y W i.a.u.Y I W a.a.u.u.u.Q Y Y I I I V m m M m > o . . o o . . . . . . . . . . . . . . . . . o . . + + . . o o                                                                                                                                                                                                                                                                             ",
"                                                                                                              9.9.9.8.7.4.1.=.[ p e 5 * + @ + + o @ + + + > , ; ; > 1 , < x M I M m m V A | | | M n M W u.u.Q n < > , c I u.i.u.u.Q Y Y Q u.i.+.K K A b c < < < 7 t t t 7 1 + o . . o o . . . . . . . . . o + $ * > + . . o . . ; ; o . o o                                                                                                                                                                                                                                                                             ",
"                                                                                                              8.8.8.6.1.<.<.[ y e e 5 & @ @ & & + ; < < < c c 1 ; ; > , c m I Y M m n H | | H I I M I u.i.W m c < < c M Q a.a.a.W I I Y i.i.W Z i u u 5 1 1 1 1 5 i i i 6 : + o . . o o . . o o o @ + + + & : 6 s n , . . o . o > > o . o o                                                                                                                                                                                                                                                                             ",
"                                                                                                                8.6.<.X.{ ' p w e u 5 & @ @ & , c m I W Q M c < < < < , c M W Q I x m V Z Z M I Y Y Y W Y m c c c x I u.i.u.u.u.T I ! u.u.Y x t 6 8 u i ` ]  . . .<.<.X.X.' 2 . . . . . . . . . o 4 d a p p p u f H < . . . . o , , o . o o                                                                                                                                                                                                                                                                             ",
"                                                                                                                  1.=.] ( u e w e 6 : ; + + & < M W u.h.h.Q m x x x c < x Y Q u.I m x x z m M I I Y Y M x < < x m I Q a.u.Y Y Y I Y i.i.I c 1 5 i a ( X.7.9.S.S.G.H.F.S.D.9.i . . . . . . . . . . u { ' d d a u t z 1 . . . . o , , o . o o                                                                                                                                                                                                                                                                             ",
"                                                                                                                    ..' ( u e w = * * ; , , ; ; < H i.h.v.j.a.W M x c < x Y Q u.Y m c c m M M m x m I x < < x M Y Q Q Q W I M I W Q Q I k 1 5 ) <.<.1.9.F.L.P.Y.E.W.E.E.W.P.) . . . . . . . . . . $ 2 * * * * # # + @ . . . . o > 1 o . o o                                                                                                                                                                                                                                                                             ",
"                                                                                                                      ' ( u e w & @ @ ; , < < 1 > c W a.k.n.k.u.M x < < x W u.u.W M c c m M m x < x M m x m I Y Q Q Q Y Y Y Y Y Q Q H c , 5 i X.S.D.D.L.Y.E.W.!.~.^.^.^./.W.' . . . . . . . . . . . . . . . . . . . . . . . . o ; ; o . o o                                                                                                                                                                                                                                                                             ",
"                                                                                                                        i u u e * o . o @ , I M < < x W a.k.k.W x < , , m Q a.a.Q I M x c < < < , x M Y W u.i.u.Q Y I I W i.u.Q Q Y c , p ` { 7.J.L.P.E.Q.Q.!.^.].]. X[. XQ.' . . . . . . . . . . . . . . . . . . . . o . . . . # & o . o o                                                                                                                                                                                                                                                                             ",
"                                                                                                                          ) ) a 6 # . . . > I I c , , m W a.a.M < , , < m Q s.a.i.Q Q W m c c < < x M Q a.a.a.u.W I M T u.a.a.Q T m t p ' <.7.G.P.P.U.W.~.~.^.]. X XoX XoX~. .. . . . . . . . . . * 6 6 4 6 6 3 2 2 * + o . . . @ + . . o o                                                                                                                                                                                                                                                                             ",
"                                                                                                                          2.1.X.) 4 + . . ; c m c < , < c x x c < , , < x I Q i.a.a.h.h.Q M M x c x I u.a.a.u.Y I M Y Q u.i.u.Y c 7 ` X.<.7.K.Y.Y.Y.Y.W.~.^.]. X X X X XoX/. .. . . . . . . . . X ' S.S.S.S.8.7.2.1.) ; @ o . . o o . . o o                                                                                                                                                                                                                                                                             ",
"                                                                                                                          7.7.4.} 8 # . o + 1 x M m , , , > , , , , < < c m Y Q i.a.j.h.t.I M m m M Y u.a.u.W I I W Q Q Q W P b r p ..2.4.9.P.W.W.E.E.!.^.].[. XoXoXoXoXOX{. .. . . . . . . . . @ <.!.~.W.W.Y.P.L.J.o.1 @ o . . o o . . o o                                                                                                                                                                                                                                                                             ",
"                                                                                                                          1.7.6.} 8 $ o o @ ; c W I < , < < < < , , < < < x M W Q i.a.a.W m x x M W u.i.u.W ^ M Y i.i.W I m < , p ' =.4.7.Z.P.E.Q.W.E.!.]. X X XoXOXOXOX+X|.X.. . . . . . . . . @ @.W.!.W.Y.P.P.P.H.o.: @ o . . o o . . o o                                                                                                                                                                                                                                                                             ",
"                                                                                                                          X.<.4.} e * o o @ & < m M M m m I Y M x c < , < c M Y Q u.u.W M x x M Y i.h.a.u.Y M Y Q i.Q I x < 5 e ` =.1.7.9.F.P.E.W.E.Y.Q./. XoXoXOX+X+X+X-X|.X.. . . . . . . . . . u o.<.o.X. . . . .u + @ o . . . . . . o o                                                                                                                                                                                                                                                                             ",
"                                                                                                                          ' ..<.' e * @ @ + & ; > m Q Q W a.h.u.I x c < < c M Y Q Q Y M x x M Y u.h.k.h.u.Y I Q Q W I m < 1 e ' =.1.7.9.F.L.Y.Y.Y.P.P.W.~.].oXOX+X&X&X&X>X.Xo.. . . . . . . . . . . X @ X X X X X X . . o o . . . . . . o +                                                                                                                                                                                                                                                                             ",
"                                                                                                                          a ' { ` u * % > > ; & ; b u.a.a.j.k.a.W M x c < < m I Y Y I M m M Y i.h.h.h.u.W W W Q W I m c 1 ; f =.2.7.Z.F.L.I.Y.Y.Y.P.L.Y.Q.].oXOX+X&X-X-X:X.Xo.. . . . . . . . . . . . . . . . . . . . . . . . . . . . . o 5 X.                                                                                                                                                                                                                                                                          ",
"                                                                                                                          u a ` d e : > < < > ; ; x Q a.h.k.j.a.Q Y M x c < x M M M M M I Y u.h.k.h.u.Y Y Q Q W I m c , 1 5 ` <.6.9.D.L.Y.Y.Y.Y.Y.P.L.P.W./. XOX+X&X-X>X:X.Xo.. . . . . . . . . . + $ $ $ $ $ $ * $ + . . . . . . . . . o u <.7.                                                                                                                                                                                                                                                                        ",
"                                                                                                                            i a p w , ; ; > , , ; , m Q a.h.a.u.Q Q W I m c c x z x x m Y u.a.a.a.u.Y W Q Q W I m c , > t ' X.1.6.9.D.L.Y.E.Y.Y.Y.Y.P.I.W.^.]. XOX&X-X-X:X%Xo.. . . . . . . . . . _ S.D.S.D.D.D.G.D._ X . . . . . . @ @ @ i 4.9.8.                                                                                                                                                                                                                                                                      ",
"                                                                                                                              u e w = + @ + c c > > < M W Q W Y Y Q Q Y M x c c c c x m W i.a.a.y.Y Y W Q W I m c , 1 , d <.1.1.4.9.D.L.P.Y.Y.Y.Y.Y.Y.Y.W.~.]. XOX&X&X&X:X%X3.. . . . . . . . . X 7.[.oXoXoXoXoXOXoXq.X . . . . . . + + @ a 9.A.9.7.                                                                                                                                                                                                                                                                    ",
"                                                                                                                              u u e * @ o ; x x , , , c x x x m M M I I I M x < c x m M Y Q i.Q Y Y Q Y M M m c , > 5 f { <.1.<.1.7.D.K.K.P.Y.Y.Y.Y.Y.Y.W.~.]. XoX+X&X&X:XOXo.. . . . . . . . . + q.oX@XoXoX@X+X$X+Xw.+ . . . . . . @ @ @ ) G.L.D.7.<.                                                                                                                                                                                                                                                                  ",
"                                                                                                                              3 6 6 : + @ + < x x c < , , , , c x x x m m m c < < c m I Y W Q W Y Q u.Y x x c , > : e ` =.1.1.<.<.4.D.F.F.L.Y.W.W.W.W.E.W.~.]. XoXOX+X&X>X.Xo.. . . . . . . . . @  .J.J.J.J.P.T.E.T.X.@ . . . . . . o o o ) H.P.J.9.4.1.                                                                                                                                                                                                                                                                ",
"                                                                                                                              + * : < < + o + < Y I < , , , < < < c c j < < < , , < m I Q Q Y Y Q u.u.Y x c , > : 6 i ` =.6.4.<.<.4.D.J.F.L.Y.Q.^.~.!.Q.!.^.].[. XoXOX+X-X.Xo.. . . . . . . . . . $ 2 2 2 2 3 5 5 2 $ . . . . . . . o o @ _ L.Y.L.D.8.4.<.                                                                                                                                                                                                                                                              ",
"                                                                                                                              o @ ; q x , + @ , I M < , < c c c c x x c < < , , , c M W u.Q I Y u.u.W M x < 1 : 5 u a ` =.4.7.4.1.4.S.K.L.P.Y.Q.^.^.~.~.^.].].[. X XoXOX-X.Xo.. . . . . . . . . . . . . . . . . . . . . . . . . . o o . o | P.W.P.J.S.7.4.7.                                                                                                                                                                                                                                                            ",
"                                                                                                                              @ @ + < z x < ; 1 c c < < c m M M M M M M m c < < < x Y u.u.Q I Y y.W m m x , : 6 u u a ' X.1.7.9.4.4.S.L.I.Y.Y.W.!.!.!.^./.].[.[. X XoXOX-X.Xo.. . . . . . . . . . . . . . . . . . . . . . . . . o o o . o  .E.!.Y.P.J.S.9.Z.8.2.<.                                                                                                                                                                                                                                                      ",
"                                                                                                                              < ; @ c M m c , > , c M I I I Y t.u.Q Q W I m x c c x Y Q Q Y M I W I x x c > : 6 u a ` { <.7.9.S.9.9.D.L.Y.Y.Y.E.W.W.W.Q.~.].[. X X XoXoX$XXXo.. . . . . . . . . . . . . . . . . . . . . . . . . . o o . o  .Q./.!.Q.W.P.L.F.S.7.4.                                                                                                                                                                                                                                                      ",
"                                                                                                                              I < ; m Y M x < , > x Q u.u.Q y.h.h.h.a.i.W I M M x x I Y I M m m M M x c , > : 6 a ` { <.7.9.G.F.F.F.K.L.Y.Y.Y.Y.Y.Y.P.Y.W.~.]. X X X XoX+X|.X.. . . . . . . . . . . . . . . . . . . . . . . . . . . o . o X.^. X/./.^.~.W.U.J.S.7.2.1.                                                                                                                                                                                                                                                  ",
"                                                                                                                              < c V H I E Y M x c m W u.i.a.a.j.k.j.h.a.i.u.Q W M x m M m x c x M n x < 1 : 6 a ` ` { <.7.D.L.P.P.P.P.P.Y.Y.Y.Y.Y.Y.U.E.Q.~./. XoXoXoXoX+X|.X.. . . . . . . . . . . . . . . . . . . . . . . . . . . . . o X.].oX[.]././.~.W.U.J.S.7.7.9.7.                                                                                                                                                                                                                                              ",
"                                                                                                                              o c ! M m W u.Q W Y I M Y u.a.j.v.v.j.h.h.a.a.i.Q M c c x x c < c M M x < ; 5 u ` ' ' { <.9.F.P.Y.E.E.Y.Y.Y.Y.E.E.E.E.E.Q.!.!.^.[.oXOXOXOX$X|.X.. . . . . . . . . . . . . . . . . . . . . . . . . . . . . o o.|.+X X].]././.~.W.U.J.S.S.S.7.1.                                                                                                                                                                                                                                            ",
"                                                                                                                                > < < < V E u.p.a.Y x x I u.h.v.v.j.h.h.s.Q W Y m < c c c < > < m m x , ; 5 i ` ] X.=.<.9.F.P.E.Q.Q.E.Y.Y.E.Q.Q.Q.Q.Q.!.!.!.^.].oXOX+XOX$X|. .. . . . . . . . . . . . . . . . . . . . . . . . . . . . . o 3..X-XOX X[.]./.~.!.W.U.H.J.F.S.7.4.                                                                                                                                                                                                                                          ",
"                                                                                                                                  o + ; < V ! a.j.i.x q x I u.h.h.a.i.i.Q M M m c , < c < 1 ; , c x x < ; 5 i ` ..<.4.4.w.K.P.E.Q.!.W.E.Y.W.Q.!.!.~.~.~.~.!.^.]. XOX+XOX+X|.q.2 . . . . . . . . . . . . . . . . . . . . . . . . . . . . o 3..X-XOXoX X]./.~.~.~.W.U.P.P.F.S.7.2.                                                                                                                                                                                                                                        ",
"                                                                                                                                    o + > c V i.n.j.! V c c x M M M M M m x c < , > , < < , ; > < c x < ; 5 a { <.6.9.S.J.P.Y.E.Q.!.!.W.E.Y.E.W.!.^.^./.^.~.~.]. XOX+XOX+XOX).G.6 . . . . . . . . . . . . . . . . . . . . . . . . . . . . o..X-XOXOXoX]././././.~.W.Y.P.L.J.S.7.2.<.                                                                                                                                                                                                                                    ",
"                                                                                                                                    1 1 1 , c W j.k.h.Q m c < < < c c c c c c < > ; ; > , > ; ; , c c , : 6 ( X.4.8.Z.F.P.Y.Y.E.W.!.!.!.W.E.W.Q.~./.].].]./.].[. XOXOXOXOX+X-X.Xq.6 X . . . . . . . . . . . . . . . . . . . . . . . . + i G.%X-X+X+XOX X].]./././.~.W.Y.U.P.J.S.7.2.                                                                                                                                                                                                                                    ",
"                                                                                                                                    ! T q > , x W h.v.h.Y m x x x x x x x c c c , ; + + ; ; @ & , < < > : i ] =.4.9.S.F.P.Y.Y.Y.E.W.!.!.!.!.!.~./.]. X X XOXOXoX XoXoXoXOXOX+XOX{.G.5 . . . . . . . . . . . . . . . . . . . . . . . . f T.OX-X-X&X+XOXoX X]././././.~.Q.Q.W.P.J.S.7.2.<.                                                                                                                                                                                                                                ",
"                                                                                                                                    T H x < , < x Q h.u.M c c x x x m m m x x c < > + @ + + o + > , , > 1 e d ] =.7.S.F.L.P.Y.Y.Y.E.Q.!.!.!.!.~.^.]. X XoXOX+XoX X XoXoXOXOXOX+X$X{.5.) | 6 . . . . . . . . . . . . . . . . . . u ' | e.OX:X>X-X&X&X+XOX X].].].]././.^.~.!.W.P.J.S.7.4.                                                                                                                                                                                                                                ",
"                                                                                                                                    + > V M < 1 c m M c 1 > 1 < x x m M M M m x x c ; o o @ o + ; 1 , , , 1 : u ) <.9.F.K.K.P.Y.Y.Y.Y.W.!.!.!.!.~.^.]. X XoXoXoX X XoXOXOXOXOXOX+XOX{.{.|.e.$ . . . . . . . . . . . . . . . . 2 G.{.|..X&X-X-X-X&X&X&X+XOX X X X[.]././.^.!.!.W.P.J.S.7.1.                                                                                                                                                                                                                              ",
"                                                                                                                                      + < x x c < x I H V c < , < c m M I W Q u.W M > o o @ + + ; > , < < > ; 5 ( X.7.D.F.F.P.Y.Y.Y.Y.E.W.Q.!.~.^./.]. XoXoXoXoXoXoXoXOXOXOXOXOXOX+X+X-X-X~.q.o.3.3.@.@.3.3.3.3.3.3.3.3.3.@.o.q./.-X-X-X-X&X&X-X>X-X&X+XOXOXoXoX X].]./.^.!.!.!.W.P.J.S.7.4.                                                                                                                                                                                                                            ",
"                                                                                                                                        @ > M M c V :.a.i.W m < , x m I W u.h.k.h.W , o o @ & ; ; > , c x , : 6 ( X.7.9.D.F.P.Y.Y.Y.Y.Y.Y.W.!.^./.]. XoXOX+XOXOXOXOXOXoX XoXOXOXOXOXOXOXOXOXOXOXOXOXOXOXOXOXOX%X%X*X*X*X%XOXOXOXOXOXOX+X&X&X-X>X1X>X&X+XOXOXOXoX X X]./.^.!.!.!.!.W.P.J.S.7.1.                                                                                                                                                                                                                          ",
"                                                                                                                                          ; c m M I Y Q i.i.u.Y Y W Q u.i.a.j.k.j.a.x + @ @ ; ; ; > 1 c x , : 6 a { =.<.0.F.L.P.Y.Y.P.P.Y.W.!.^./.]. XoX+X-X-X&X+X+XoX X X XoXoXoXOXOXOXOX+X-X-X-X-X-X>X>X>X:X:X1X1X1X<X:X:X:X>X&X+XOX+X&X&X-X>X:X:X-X&X+X+XOXOXoX X X]./.^.~.~.^.~.W.P.J.Z.7.7.9.4.                                                                                                                                                                                                                    ",
"                                                                                                                                            ; r I M x M W i.a.a.a.a.a.a.a.a.h.j.j.a.I > @ @ & ; ; ; ; q x , : 6 a ` ' ] 2.F.J.K.P.I.L.L.I.E.!.~./.].[.oX+X>X:X-X&X+XOXoX X X X X XoXOXOXOXOXOXOXOXOX+X&X&X&X-X>X>X;X;X>X:X>X-X&X&X&X+X+X&X&X&X>X>X>X>X-X&X+XOXOXOXoX X X]./.~.~.^.^.~.W.P.J.S.Z.9.7.1.                                                                                                                                                                                                                  ",
"                                                                                                                                            > , c c c m M I Y u.i.a.a.a.a.a.a.a.a.a.Y c + o @ + + + ; q x < , 6 i ` ] X.4.S.F.F.L.P.P.P.L.P.E.!.^./.]. XoX&X-X-X&X&X+XOXoX X X X X XoXOXOXOXOXOXOXOXOX+X+X&X-X-X>X;X>X>X:X,X>X-X-X&X&X&X&X&X&X-X-X-X-X-X&X&X+X+XOXOXoX X]././.^.^.~.~.!.W.P.J.S.9.8.7.2.                                                                                                                                                                                                                ",
"                                                                                                                                            < 1 ; 1 r x x x x I W Q u.u.u.u.u.Q Q Q Y x ; @ o o @ + ; < x c 7 6 u ` { <.4.9.D.F.F.K.P.P.L.L.Y.W.!.~./.]. XoXOX&X&X&X&XOXoX X X X X X XoXOXOXOXOXOXOXOXOX+X&X&X&X-X>X>X>X1X1X,X>X-X&X&X&X&X&X&X&X&X-X-X-X-X&X&X+X+XOXOXoX[.].]./.~.~.~.~.~.W.P.F.S.S.Z.7.1.                                                                                                                                                                                                              ",
"                                                                                                                                            w 0 ; ; > < x c x m M Y Y Y Y Y I I I ^ n x , ; @ o o + ; , < c c , e ` ] { =.4.S.F.J.J.K.P.P.Y.Y.E.W.Q.~./.]. XoXOX&X&X&XOXoX[.[. X X X XoXOXOXoXOXOXOXOXOXOX+X+X&X-X-X>X>X1X3X1X:X-X&X&X&X&X&X&X&X&X-X>X>X>X-X&X&X+XOXOXOX X X]././.^.^././.~.W.P.J.J.F.9.7.2.                                                                                                                                                                                                            ",
"                                                                                                                                            y y , , < < < < < < < c x x x x c < < < < , 1 ; @ o o + ; > , c c > 5 d ' ' { <.9.G.F.F.F.L.Y.Y.Y.Y.Y.W.!.~./.]. XoXOX&X+XOXoX X X[. X X XoXOXOXoXoXOXOXOXOXOXOX+X&X&X&X-X>X:X1X3X1X>X-X&X-X-X-X&X&X-X>X;X:X>X-X&X&X&X+X+XOXOX X[.].]././././.^.~.W.U.U.P.F.9.7.2.                                                                                                                                                                                                          ",
"                                                                                                                                            g g g D H < + @ + + + + ; > ; + + + + + + @ + @ @ o o + ; ; > , < > 5 ` ' ' ..<.7.9.D.F.F.L.Y.Y.Y.Y.Y.E.W.Q.~./.]. XoXOX+XOXOXOX X X X X XoXOXOXoX X XoXOXOXOXOXOX+X+X&X-X-X>X:X1X1X:X-X-X-X>X-X&X&X-X>X>X:X>X-X&X&X&X&X+XOXOXOX X X]././.^.~.^./.~.Q.Q.W.P.F.9.7.1.                                                                                                                                                                                                        ",
"                                                                                                                                            g G J R I c ; > , , , < < c r < < < , , , , < , , ; + + ; ; ; > , ; : a ` ) ] =.2.8.S.F.F.K.P.Y.Y.Y.Y.Y.Y.Q.~.^./.]. XoXoXoXOXOXoX[. X X XoXOXoX X X XoXoXOXOXOXOXOX+X&X&X&X-X:X1X3X1X:X-X-X>X>X-X-X-X>X>X>X>X-X&X&X&X&X&X+X+XOXOX X X]./.^.^.^./.^.~.~.!.W.P.F.9.7.2.                                                                                                                                                                                                      ",
"                                                                                                                                            g J i.W c < x M Y W ! ! *.*.*.Q ! ! ! W W W W W Y x ; & ; ; ; , , > : u u u d ] <.8.9.S.F.J.K.P.Y.Y.Y.Y.E.Q.!.~.~./.]. X X XoXOXoX[.[. X X XoXoX X X X X XoXOXOXOXOX+X&X&X&X-X:X1X3X3X1X:X>X>X;X>X>X>X>X;X;X>X-X&X&X&X&X&X&X+XOXOXOX X X]././././.^.!.!.!.!.W.P.F.Z.7.1.                                                                                                                                                                                                    ",
"                                                                                                                                            g &.a.! c < c v M M M I T T T T T T I I I I I I Y m < , , , , < < c t e u p d { 1.8.9.Z.D.G.F.K.P.P.P.I.Y.W.Q.!.~.^./.].].]. XoXoXoX X[. X X X X X X X XoXOXOXOXOXOX+X+X&X&X-X>X>X:X,X,X>X>X>X>X;X:X,X:X;X;X>X-X-X-X-X&X&X&X+XOXOXOXoX X X].]././.^.^.^.^.^.~.W.P.F.9.7.2.                                                                                                                                                                                                  ",
"                                                                                                                                            g &.a.Q x , > > ; + + ; 1 1 > > > > > > > > > < x x c c c c c c x ^ H i p g | <.6.8.9.Z.Z.S.F.K.K.K.K.P.Y.E.W.Q.!.!.~././.].]. XoXOX X[.[.[.[. X X X XoXOXOXOXOXOXOXOX+X+X&X-X-X-X-X>X>X-X&X-X-X;X,X1X,X;X>X>X>X>X>X>X-X&X&X+XOXoXoXOXOX X[.]./././././././.^.~.W.P.F.Z.7.1.                                                                                                                                                                                                ",
"                                                                                                                                            g J i.Q x < 1 ; + o o ; 1 > > > > > > 1 1 > > , < c j < < < j < c I ~ H F h ..<.4.7.Z.D.S.S.F.F.F.K.P.I.Y.W.W.W.Q.!.~.^.^.^./.]. X X X[.[.[.[. X X XoXOXOXOXoXoXOXOXOXOX+X&X&X&X&X&X-X-X-X&X&X-X;X1X3X1X,X,X:X:X>X>X>X&X&X+X+X+XOXoXoXoXoX X]././././.^.^.^.^.^.~.W.P.F.9.7.4.<.<.                                                                                                                                                                                          ",
"                                                                                                                                            g J :.W m v x < ; o @ < m m m M m m m x x x < , , , , < c < < < c M Y T K ` { <.<.2.w.G.S.S.F.J.F.L.Y.Y.E.Q.Q.W.E.Q.!.!.!.!.^./.].].].[.[.[.[. X X X XOXOXoXoXoXoXOXOXOX+X&X&X&X&X&X&X&X&X&X-X>X;X1X1X3X3X3X1X:X>X>X>X-X&X+X+X&X+XOXoXoXoX X].].].]./.^.~.~.~./.^.!.W.P.F.Z.7.1.1.1.                                                                                                                                                                                        ",
"                                                                                                                                            g J ! R D R W m , ; , H u.a.j.v.v.h.a.Q Q Y c , , , < M Q m 1 r b v z Z d ' X.<.<.1.9.Z.9.Z.J.L.K.K.P.I.Y.W.W.E.Y.W.W.W.W.!.^./././.].].[.[.[. X X XoXOXOXOXOXOXoXoXOXOX+X+X&X&X&X&X&X&X&X-X>X>X;X:X,X1X3X3X3X1X:X:X>X>X&XOX+X&X&X+XOXoXOXoX X X X]./.^.^.^.^././.~.!.W.P.F.9.7.7.7.2.<.<.                                                                                                                                                                                  ",
"                                                                                                                                            g J E J F ;.a.Y c , x ! h.n.5XeX8XN.v.h.d.u.x , c < < ! h.Y , g G r 7 e a ` { <.<.1.6.7.8.Z.J.L.K.F.K.P.Y.Y.Y.Y.Y.E.E.E.W.!.^././././.].].[.[. X X X XoXOXOXOXOXOXoXoXOXOXOX+X&X&X&X&X&X&X-X>X>X>X>X:X,X1X3X3X1X1X:X>X>X-X+XOX+X&X&X+X+XOXOXoXoX X[.]././.].].].^.~.!.!.W.P.F.S.S.9.7.1.2.2.                                                                                                                                                                                ",
"                                                                                                                                            g J E I V u.h.W c , x ! j.M.8XqX0XN.n.h.d.:.x c I M j W h.W r D G D s b s a ` { =.<.1.4.8.9.F.K.J.F.J.P.Y.Y.Y.Y.E.W.Q.Q.!.!.~.^././.^.^./.].[. X X X XoXoXoXoXOXOXOXOXOXOXOX+X+X&X&X&X&X&X-X-X>X>X>X;X:X:X1X1X:X:X>X>X>X-X&X+XOX+X+X&X+X+XOXOXoX X X X].].]. X].^.~.!.!.!.W.P.J.J.F.9.7.7.7.1.                                                                                                                                                                              ",
"                                                                                                                                            g J E T M u.g.E c < x ! l.M.9XtX0XN.n.j.a.! c c Y M < ! j.u.b F G G D S Z u a ' X.<.<.1.6.9.D.F.F.F.J.L.I.Y.Y.Y.E.!.~.!.!.!.Q.!.~.^.^.~./.].].[.[. X X X X XoXOXOXOXOXOXOXOXOXOX+X&X&X&X&X&X&X-X>X>X>X>X:X,X1X:X:X:X:X>X>X-X&X+XOX+X&X&X+XOXOXoX X X X].]. X X].^.~.~.!.~.~.W.U.U.P.F.S.S.9.4.1.                                                                                                                                                                            ",
"                                                                                                                                            g J E W W u.i.I c < m Q l.M.9XtX0XN.n.j.a.! c < c < < u.v.f.G G G G D     u a ' =.<.<.1.6.8.9.Z.F.K.F.K.L.P.Y.Y.E.!.~.!.Q.W.E.W.Q.~.^././.].].].[.[. X X X X XoXoXoXoXoXoXOXOXOX+X+X+X+X&X&X&X&X-X>X>X>X>X:X:X1X1X1X:X:X>X>X-X&X+X+X&X&X+XOXOXoX X X X X X].]./././.^.~.^.^.!.Q.Q.W.P.J.J.G.9.7.<.<.<.                                                                                                                                                                      ",
"                                                                                                                                            g J E ! Q u.i.Y m m I :.l.M.0XyX0XN.n.j.a.:.S b m m I a.k.f.$.%.G G g     u i ` { =.<.1.6.8.8.9.D.F.F.K.L.I.Y.Y.E.W.!.!.Q.E.Y.W.Q.~.^.]./././.].[.[.[.[.[. X X X X XoXoXOXOXOXOXOXOXOX+X&X&X&X&X&X-X>X>X>X>X:X,X1X3X1X:X>X>X-X&X&X&X&X&X+X+XOXOXoXoXoXoX X].].].]./.^.^.^./.^.~.~.!.E.Y.Y.P.D.8.4.4.4.2.                                                                                                                                                                    ",
"                                                                                                                                            g J E W Q i.a.u.Y Y W u.h.M.0XuXqXN.n.j.a.u.:.u.i.a.h.g.a.;.#.#.G G g     u u u ) { =.<.1.4.8.9.Z.D.F.P.Y.Y.Y.Y.Y.E.W.!.Q.E.W.!.!.~.^././././.].[.[.[.[.[. X X X X XoXOXOXOXOXOXOXOXOX+X&X&X&X&X&X-X-X-X-X>X>X:X:X1X1X:X>X>X-X&X&X&X&X&X&X+X+XOXOXOXOXoX X X X X|.]././././././.~.!.!.!.!.E.P.D.9.9.9.4.<.                                                                                                                                                                  ",
"                                                                                                                                            g J E ! Q :.>.:.Q Q :.u.h.M.wXpXyX5Xn.j.a.a.a.a.a.h.h.g.u.&.#.#.G G g     u u u d ' =.1.<.1.4.7.9.D.F.L.I.Y.Y.I.P.Y.W.!.Q.E.W.!.!.~.^.].]././.].].[.[.[.[. X X X X XoXOXOXOXOXOXOXOXOX+X&X&X&X&X&X&X&X-X-X>X>X;X:X,X,X:X:X;X>X-X-X-X-X-X-X-X+X+XOXOXOXoX X XoXoX X].]./././.^.^.^.^.^.~.~.Q.E.P.F.G.S.8.4.1.                                                                                                                                                                ",
"                                                                                                                                            g J E ! W E $.*.u.u.u.u.l.M.0XpXyX8Xb.j.h.a.a.a.p.a.a.a.i.*.$.#.G G g         u d ' =.<.<.<.1.7.9.D.F.K.K.I.Y.L.L.I.W.!.Q.E.W.!.!.~.^./././././.].].[.[.[.[.[.[. X X XoXoXOXoXoXOXOXOX+X&X&X+X+X&X&X-X>X>X>X>X;X;X:X,X1X:X>X>X>X-X-X>X>X>X-X&X+X+XOXOXoX X X X X X X[.]././.~.~.^././.^.~.!.!.E.P.P.L.D.9.4.<.1.1.                                                                                                                                                          ",
"                                                                                                                                            g J E ! E J $.*.u.u.u.u.h.M.0XpXuX9XM.j.h.a.Q W :.u.i.p.p.>.&.$.G G g         u i ( ] =.<.1.<.4.9.D.F.K.K.L.P.K.K.I.E.W.W.Y.W.!.!.~.~.^.^.^./././.].].[.[.[.[. X X X X XoXoXoXoXoXOXOX+X&X&X+X+X&X&X&X-X>X>X>X>X:X,X,X1X:X;X>X>X-X-X>X>X>X-X-X&X&X+XOXOXoXoXoXoX X X X].]./.^.^./.]././.^.~.~.W.W.W.E.L.S.8.7.7.4.1.                                                                                                                                                        ",
"                                                                                                                                            g J E E $.#.$.*.u.u.u.u.h.M.0XpXyX8Xb.j.h.i.M m Y W Q i.a.a.u.&.G G g         u u u ( ] =.<.<.4.9.D.F.F.K.K.J.F.L.I.Y.Y.Y.E.W.!.!.!.!.!.~.~././.]./.].].[.[. X X X X X X XoXOXOXoXoXOX+X&X&X+X+X&X&X&X&X&X&X-X>X:X1X1X:X;X;X:X>X>X-X>X>X-X&X&X&X&X+X+XOXOXOXOXoX X X X X].].].]././.].]./.^.~.!.!.!.Q.Y.L.S.Z.S.8.2.<.                                                                                                                                                      ",
"                                                                                                                                            g J E E $.%.$.*.u.u.u.u.h.b.0XpXyX5Xn.j.h.i.M x I Y ! a.j.h.u.&.G G g           u u u ( ] =.<.2.7.9.D.F.K.F.F.F.L.Y.Y.Y.E.Q.!.!.Q.W.Q.~.^.^.^./.].]./.].].[.[. X X X X XoXOXOXOXoXoXOX+X+X+XOX+X&X&X&X&X&X&X-X>X:X:X:X;X;X;X:X1X:X:X:X>X-X&X&X&X&X&X+X+XOXOXOXOXoXoX X X X X X].].].].].].^.~.~.^.~.!.W.E.L.J.J.S.7.4.<.                                                                                                                                                    ",
"                                                                                                                                            g J E E $.#.$.*.u.u.u.u.h.n.0XpXqXN.n.j.h.i.I m M Y W h.v.h.u.&.G G g             u u u ( ] =.<.<.7.9.D.K.J.F.F.K.P.Y.Y.W.!.!.!.W.E.Q.~.^.^.~./.[.].]./.].].[.[. X X X XoXOXOXOXoXoXOX+X+X+XOX+X&X&X&X&X&X&X-X>X>X>X>X;X;X:X:X1X3X1X:X>X-X&X&X&X-X-X&X+X+XOXOXOXOXoX X X X X X X].]. X X].^.~.^./.^.~.~.Q.Y.P.P.J.S.7.2.1.                                                                                                                                                  ",
"                                                                                                                                            g J E E $.#.$.*.u.u.u.u.h.n.0XpXqXN.n.j.h.s.I M Y Y ! h.n.j.i.&.G G g               u u u d ] X.<.4.8.D.K.K.F.F.K.L.P.Y.E.W.Q.!.W.E.Q.~.~.^.^.].[.].]././.].].[. X X X XoXoXOXOXoXoXOX+X&X+X+XOX+X&X&X&X+X&X-X-X-X-X>X>X>X>X:X,X1X1X:X>X>X-X&X-X>X-X&X&X+X+XOXOXOXoX X X XoXoX X X X].]. X]././././.^.~.!.W.W.W.Y.J.S.7.4.<.                                                                                                                                                ",
"                                                                                                                                            g J E E $.#.$.*.u.u.u.u.h.n.0XpXqXN.n.j.h.a.W Y Q Q Q h.v.h.i.&.G G g                 u u i ` { <.4.8.Z.F.F.F.F.F.F.L.Y.Y.Y.W.!.W.W.Q.!.!.~./.].[.].]./././.].[. X X X X X XOXOXoXoXoXOX&X&X+X+X+X+X&X+X+X+X&X&X&X&X-X>X>X>X>X:X,X1X:X:X:X>X-X>X>X>X-X-X&X+X+XOXOXoXoXoXoX X X XoX X].]. X].]././././.~.!.!.~.!.W.U.J.S.7.4.                                                                                                                                                ",
"                                                                                                                                            g J E E #.#.$.*.u.u.u.u.h.n.0XpXqXN.n.j.h.a.a.i.u.u.u.a.g.a.u.&.G G g                   u i ` { <.6.7.9.9.Z.S.F.F.F.L.Y.Y.Y.W.!.!.Q.W.W.Q.^.].[.[.].]./././.].[. X X X X X XoXOXOXOXoXoXOX+X&X&X&X+X+XOXOX+X+X&X&X&X-X>X>X>X>X>X:X:X>X:X1X:X>X>X-X>X>X-X&X&X&X+XOXOXOXOXoX X X XoX X]./.].]./././././.~.!.!.!.!.!.W.Y.J.S.8.4.<.<.<.                                                                                                                                        ",
"                                                                                                                                            g J E E $.#.$.*.u.u.u.u.h.n.0XpXqXN.n.j.h.a.h.a.p.i.p.i.i.>.;.$.G G g                   u u d ] =.1.6.6.6.8.Z.G.F.F.L.Y.Y.Y.W.!.~.!.W.W.!.^.].].].]././././.].].[. X X X X XoXOXOXOXoXoXOX+X+X&X&X&X+X+X+X+X+X&X&X&X-X>X>X>X>X>X>X>X;X:X1X1X:X>X-X>X>X-X&X&X&X+XOXOXOXOXOXoXoXoXoX X].]./././.].].]./.^.~.!.~.~.~.!.W.Y.J.S.7.4.4.4.                                                                                                                                        ",
"                                                                                                                                            g J E E $.#.$.*.u.u.u.u.h.n.0XpXqXN.n.j.h.z.a.a.p.i.i.i.u.;.$.$.G G g                   u u u a ' X.1.1.2.6.9.D.F.F.L.Y.Y.Y.W.!.!.!.!.!.!.~././.^.^./././././.].].[. X X[. X XoXoXoX XoXOXOXoXOX&X&X&X&X&X&X&X&X&X&X&X-X-X-X-X-X>X;X;X:X1X3X1X:X>X>X>X-X&X&X&X+XOXOXOXOXOXOXOXOXoX X X X]././.]. X]././.^.~.~./.^.~.!.Q.Y.J.S.9.9.7.2.<.                                                                                                                                    ",
"                                                                                                                                            g J E E $.#.$.*.u.u.u.u.h.n.8XuXqXN.n.j.h.a.i.u.u.u.u.u.u.;.&.$.G G g                     u u u d ' X.<.1.7.9.S.G.F.L.Y.Y.Y.W.!.~.~.~.~.~.^././.^.^././././././.].].[.[.[.[. X X X X XoXOXOXoXOX+X&X&X&X&X&X&X&X&X&X&X&X&X&X-X-X>X>X>X:X1X1X3X1X,X:X>X-X&X-X-X&X+XOX+X+X+X+X+XOXOXoXoX X].]./.]. X].].].].~.~./.^.~.!.!.W.Y.H.G.G.S.7.4.                                                                                                                                    ",
"                                                                                                                                            g J E E $.#.$.*.u.u.u.u.h.n.7XtX0XN.n.j.h.a.W T W Q Q u.i.i.>.&.G G g                       u u u d ' X.1.7.9.Z.S.F.L.Y.Y.Y.W.!.^./.~.~.^././././././././././././.].].[.[.[. X X X X XoXOXOXOXOX+X+X&X&X&X&X&X+X+X&X&X&X&X&X>X>X-X-X>X;X:X,X1X3X1X1X>X-X-X>X>X-X+X+X+X&X&X&X+XOXOXOXoX X X[.]./.]. X X X[.^.~./.^.~.!.!.!.Q.U.P.P.J.S.7.2.<.                                                                                                                                ",
"                                                                                                                                            g J E E $.#.$.*.u.u.u.u.h.n.6XrX0XN.n.j.h.a.M x I Y W i.h.a.u.&.G G g                         u u a ' X.1.7.7.9.S.F.K.P.P.P.Y.W.~.^.~.~././.^.^.^.^.^./.].].].].].].].[.[.[. X X X X XoXOXOXOXOXOX+X+X&X&X&X&X&X+X+X&X&X&X&X-X>X>X>X>X;X;X:X:X1X3X1X:X>X>X>X>X-X&X+X&X&X&X&X&X+X+XOXOXoX X X].]./.].[. X].].]././.^.~.!.!.!.W.E.W.U.J.S.7.4.                                                                                                                                ",
"                                                                                                                                            g J E E $.#.$.*.u.u.u.u.h.n.7XrX0XN.n.j.j.a.m c M Y W a.k.h.u.&.G G g                           u a ` ..<.<.4.8.S.F.K.K.K.K.P.E.Q.!.!.~./.^.~.!.!.!.~.^.].].[.].].[.[.[.[.[. X X X X XoXOXOXoXoXOXOX+X&X&X&X&X&X&X+X+X&X&X&X&X-X>X>X>X>X>X>X:X:X1X3X1X:X>X;X>X-X&X&X&X&X-X&X&X&X+XOXOXOXoX X X].]./././.]. X X]././.^.~.!.!.!.!.!.W.U.J.S.7.2.                                                                                                                              ",
"                                                                                                                                            g J E E $.#.$.*.u.u.u.u.h.n.7XrX0XN.n.j.k.a.m c I Y W h.n.j.u.&.G G g                           u u a ' ..<.2.8.S.F.F.F.K.P.I.Y.E.W.~.^.^.~.!.!.!.!.!.^./.].].].].[.[.[.[.[. X X X X XoXoXoX XoXOXOX+X&X&X&X&X&X&X&X&X&X&X&X&X&X-X>X-X>X>X>X>X:X,X1X1X:X;X;X>X>X-X-X-X>X>X-X&X+X+X&X&X+XOXoX X X[.]././.]. X X X].]./.^.~.!.!.!.~.!.W.U.J.S.7.4.<.                                                                                                                          ",
"                                                                                                                                            g J E E $.#.$.*.u.u.u.u.h.n.7XrX0XN.n.j.j.a.Y M W Q Q h.n.j.u.&.G G g                           u u u a ' X.<.7.S.F.F.F.L.Y.Y.Y.Y.W.~./.~.!.!.!.!.!.~.^././././.].[.[.[.[.[.[.[. X X X X X X XoXOXOXOX+X&X&X&X-X-X&X&X&X&X&X&X&X&X&X&X-X>X>X;X;X:X1X1X,X:X>X>X:X>X-X-X>X;X>X&X+X&X&X&X&X+XOXoXoX X].]./.]. X X X X].]./.^.~.~.~.!.!.!.W.U.J.S.7.2.                                                                                                                          ",
"                                                                                                                                            g J E E $.#.$.*.u.u.u.u.h.n.7XrX0XN.n.j.j.h.i.u.u.u.u.a.h.a.u.&.G G g                             u u u a ' ..<.7.G.K.F.P.Y.E.Y.Y.E.!.~.!.!.!.!.!.~.^./././././.].].].].].].].[. X X X X X X XoXoXOXOXOXOX&X-X>X-X-X&X&X&X+X&X&X&X&X&X&X-X>X>X;X;X1X3X1X,X:X:X1X:X>X>X-X>X>X-X&X+X+X+X+X&X+XOXoX X X[.]./.]. X X X X]././.^.^.^.~.!.!.!.W.U.J.S.7.4.<.                                                                                                                      ",
"                                                                                                                                            g J E E $.#.$.*.u.u.u.u.h.n.5XrX0XN.n.k.j.j.h.a.p.i.i.i.i.i.u.&.G G g                               u u u d ] =.7.D.F.F.L.I.Y.Y.Y.E.Q.!.~.~.!.!.!.~././././././././././.].].].[.[. X X X X XoX XoXoXOXoXoX+X-X>X>X-X&X&X+X+X+X&X&X&X-X-X-X-X>X>X>X:X1X3X1X,X:X1X1X:X>X-X>X>X-X&X+X+XOX+X&X&X+XOXoXoX X].]./.]. X X X X].]./././.^.~.~.~.!.W.U.J.S.7.2.                                                                                                                      ",
"                                                                                                                                            g J E E $.#.$.*.u.u.u.u.d.v.5XrX0XN.n.v.k.j.h.a.p.i.i.i.i.i.u.&.G G g                                 u u d ] =.4.9.D.F.K.L.L.L.I.E.Q.~.^.^.~.!.!.~.~.^./.]./.^.^./././.].[.[.[.[. X X X X XoXoXoXoXOXOXOXOX+X&X-X&X&X&X+X+X+X&X&X-X>X>X>X>X>X>X>X:X:X1X3X1X1X:X:X>X>X>X>X>X-X&X&X&X+X+X&X&X&X+XOXOXOX X X]./.]. X X X X]././././././.^.~.!.W.U.J.S.7.4.<.                                                                                                                  ",
"                                                                                                                                            g J E E $.#.$.*.u.u.i.i.g.k.N.wXeXN.b.v.k.h.a.u.u.u.u.u.u.u.;.$.G G g                                 u u a ` ..<.7.9.D.F.F.F.K.P.E.W.!.^.^.~.!.!.!.!.^./.]./.~.~./././.].].[.[.[.[. X X X X X X XoXOXOXOXOX+X&X-X-X-X&X&X+X&X&X&X-X>X>X>X>X>X>X;X;X:X1X3X3X1X:X:X:X:X:X:X>X-X-X-X&X+X+X&X&X&X&X+X+XOXoX X].]./.]. X X X X].]././././.^.~.!.!.E.P.D.9.4.<.                                                                                                                  ",
"                                                                                                                                            g J E E $.#.$.*.u.u.i.a.h.v.N.8X8XN.b.v.k.h.Y M W Q Q u.u.;.$.$.G G g                                 u u u a ` { <.7.9.D.F.F.K.P.Y.E.W.!.~.!.!.!.!.!.^./.]./.~.~./././.].].].].[.[.].]. X X X X X XoXOXOXOX+X&X-X>X-X-X&X&X&X&X&X&X-X-X-X-X-X-X;X>X:X1X3X3X3X1X1X1X1X1X,X>X>X>X-X&X&X&X&X&X&X&X&X+XOXoX X X|.]./.]. X X X X]./.~.^./.^.~.!.!.E.P.D.9.4.<.                                                                                                                  ",
"                                                                                                                                            g J W E $.#.$.*.u.u.i.a.h.v.M.8X5XN.b.v.k.a.m c I W W i.d.>.&.$.G G g                                   u u u ( ] =.4.7.Z.F.F.K.L.P.Y.E.Q.~.~.~.!.!.!.~.^././.^.^.^././.].].].].[.[.].]. X X X X X X XOXOXOX+X+X&X-X-X-X&X&X&X&X&X&X&X&X&X&X&X-X>X>X>X:X1X1X1X3X3X3X3X3X1X:X:X>X-X-X-X-X&X&X&X&X&X+XOXoX X X X].].]. X XoX X X]./././.^.~.!.!.W.U.H.S.7.4.                                                                                                                  ",
"                                                                                                                                            g J E E $.#.$.*.u.u.i.a.h.v.M.8X5XN.b.v.k.a.m c M Y W a.k.h.>.$.G G g                                     u u ) { <.4.9.D.F.F.F.J.L.P.E.Q.~./.^.~.!.!.!.~.^././.^.~.~./.].[.[.[.[.[.[. X X X X X X XoXOXOXOXOXOX+X&X-X&X&X&X&X&X+X+X&X&X&X&X&X&X-X-X-X>X:X:X:X1X3X3X3X3X3X1X:X;X>X>X>X>X-X&X&X&X&X+XOXoX X X X X X X X X X X X X X X].^.~.!.!.!.Q.Y.J.S.8.4.<.                                                                                                              ",
"                                                                                                                                            g G J J $.%.$.*.u.u.i.a.h.v.M.8X5XM.n.v.k.a.M x I Y W h.n.j.i.&.G G g                                     u u ` { <.4.9.D.F.K.F.F.K.I.E.W.!.^.^.^.!.Q.Q.~.^././.^.!.~./.].].].].[.[.[. X X X X X X XoXOXOXOXOXOX+X+X&X&X&X&X&X&X&X+X&X&X&X&X&X&X&X-X-X>X:X:X:X,X1X3X3X3X3X3X1X:X:X>X;X>X>X-X&X&X&X&X+XOXoXoXoXoXoXoX X X X].]. X X X X].^.~.!.!.!.W.Y.J.S.7.4.1.                                                                                                            ",
"                                                                                                                                            g G G $.#.#.$.*.u.u.i.a.h.v.M.8X5XM.n.v.k.h.W I W W Q h.n.j.u.&.G G g                                     u u ( ] <.4.9.D.F.F.F.F.K.I.E.E.W.!.^./.!.W.W.~.^./.~.!.!.~./.].]./.].].[.[.[.[. X X X X XoXOXOXoXoXOXOXOX+X&X-X&X&X&X&X&X&X&X&X&X+X+X&X-X>X>X:X1X1X:X:X1X3X3X3X3X3X1X:X>X;X;X;X>X-X&X&X&X&X+XOXOXOXOXoXoX X X].]./.]. X X X X/.^.!.!.!.!.Q.Y.J.S.7.4.<.                                                                                                          ",
"                                                                                                                                            g G G #.$.$.;.:.u.u.i.a.h.v.M.8X5Xb.n.v.k.h.i.u.u.u.u.a.h.g.i.&.G G g                                       u a ` =.7.9.S.D.F.F.F.K.P.Y.Y.E.W.!./.~.Q.Q.!.~.~.~.!.!.~././././.].].[.[.[.[.[. X X X XoXOXOXOXoXoXoXOX+X&X-X-X-X&X&X&X&X&X&X&X+X+X&X>X;X;X:X:X:X;X:X1X3X3X3X3X1X:X1X:X:X;X>X>X&X&X&X&X&X+XOXoXoXoXoX X X X X].]./.]. X X X].^.^.~.!.!.!.W.Y.L.S.7.4.<.                                                                                                        ",
"                                                                                                                                            g G G #.$.;.u.i.u.u.p.a.h.v.M.8X5XM.n.v.k.j.h.a.p.i.p.i.i.i.>.&.G G g                                         u a X.4.9.9.Z.D.F.F.K.P.Y.Y.Y.E.!./.^.~.!.!.!.!.!.!.!.~././././.].].[.[.[.[.[.[. X X XoXoXOXOXOXoXoXOX+X&X-X>X-X&X&X&X+X+X&X&X+X+X&X-X>X>X>X>X;X;X:X1X3X3X3X1X:X:X1X1X:X>X>X>X-X&X&X&X&X+XOXoXoXoXoXoX X X X X].]./.]. X X].]./.^.~.!.!.!.W.U.J.S.7.4.1.                                                                                                      ",
"                                                                                                                                            g G G #.#.;.i.i.u.u.p.a.h.v.B.8X5XM.n.v.k.j.h.a.p.i.p.i.u.;.$.$.G G g                                         u i ' =.4.7.9.D.F.F.J.K.P.Y.E.W.~././.^.~.!.!.!.!.!.!.~./.]./././.].].].].[.[.[. X X X XoXoXOXOXOXOXOX+X+X+X&X&X&X&X&X+X+X&X&X&X+X+X&X-X-X>X>X>X>X:X1X3X3X3X1X:X>X:X:X>X>X>X>X>X-X&X&X&X+XOXOXOXOXOXOXoX X X X X].]./.].]. X]././.^.~.!.~.Q.U.P.J.S.7.4.<.                                                                                                    ",
"                                                                                                                                            g G G $.$.;.u.i.u.u.p.a.h.v.M.8X8XN.b.v.k.h.a.p.u.u.u.i.u.;.$.$.G G g                                         u u ( { <.7.9.D.F.F.F.K.L.Y.W.Q.~./.]./.^.!.!.!.!.!.!.~././././././././.].[.[.[. X X X X XoXoXOXOXOXOXOXOXOX+X&X-X-X&X+X+X&X&X&X&X+X&X&X&X-X>X>X>X:X1X1X3X3X1X:X:X:X:X:X:X>X>X;X>X&X&X&X+X+XOXOXOXOXOXOXoXoXoXoX X].]./.]. X X].]./.~.!.!.W.P.P.P.L.S.7.4.1.                                                                                                  ",
"                                                                                                                                            g G #.&.:.u.i.i.u.u.p.a.h.v.N.8X8XN.b.v.k.h.u.W Q Q *.u.u.u.;.$.G G g                                         u u u ` <.7.9.D.F.F.K.P.Y.Y.E.W.!./.]./.^.!.!.!.!.!.!.~.~.~.~.^././././.].[.[.[. X X X X X XoXoXoXoXoXoXOXOX+X&X>X-X&X&X&X&X&X&X&X&X&X&X&X&X-X-X>X:X:X1X3X3X3X1X1X1X1X1X,X:X;X;X>X&X&X&X&X&X+XOXOXOXOXOXOXOXOXOXOX X].].].].[. X]./.~.!.!.W.P.U.W.E.J.S.8.4.<.                                                                                                ",
"                                                                                                                                            g G #.;.a.i.Q y.u.i.p.a.h.v.B.8X5XM.b.v.k.a.Y M Y W ! u.a.a.u.&.G G g                                         u u u d X.4.9.D.F.F.K.P.I.I.P.P.W.^././.^.!.!.Q.Q.!.!.!.!.!.!.^./.].].].].].[.[. X X X X X X X X X XoXOXOXOXOX&X>X-X&X&X&X&X&X&X&X&X&X&X&X&X-X-X>X;X;X:X3X3X3X3X3X3X3X3X1X:X;X;X>X&X&X&X&X&X+X+XOXOXOXOXOXOXOXOXOXoX X].]./.]. X]./.~.!.!.Q.E.E.!.W.P.F.9.4.<.                                                                                                ",
"                                                                                                                                            g G G >.h.u.S W u.i.p.a.h.v.M.8X5XM.n.v.k.a.M c M Y ! a.j.h.u.&.G G g                                             u a ' <.9.Z.S.G.J.K.K.K.K.K.I.!././.^.!.W.E.E.W.!.!.!.!.!.^.].].[.[.].].].[.[. X X X X X X X XoXOXOXOXoXoX+X-X-X&X&X&X+X+X&X&X&X+X+X&X-X>X>X;X;X;X:X1X3X3X3X3X3X3X3X1X:X>X>X-X&X&X&X&X&X&X&X+XOXOXOXOXoXoXOXOXoX X X].].].].]./.~.!.!.!.Q.!.!.W.P.F.9.4.<.                                                                                                ",
"                                                                                                                                            g G G >.h.Q m Y u.i.p.a.h.v.M.8X5Xb.n.k.k.a.m < M Y ! h.n.j.u.&.G G g                                             u i ` =.8.Z.Z.S.D.F.K.L.L.L.P.W.~.^.~.Q.W.W.Y.E.!.!.!.!.!.~./.].[.[.[.].].[.[.[. X X X X X X XoXOXOXOXOXoXOX+X&X&X&X&X+X+X&X&X&X&X+X&X&X>X:X;X;X;X:X1X1X1X1X1X1X3X3X1X:X>X>X>X-X-X&X&X&X&X&X+X+X+X+XOXOXoXOXOXoXoXoX X].]./././.^.~.~.~.~.!.!.W.Y.L.S.8.4.1.                                                                                              ",
"                                                                                                                                            g G G >.h.Q m Y i.i.p.a.h.v.M.8X5Xb.v.j.k.a.m c Y W Q h.n.j.i.&.G G g                                             u i ` =.7.9.9.9.9.D.K.P.Y.Y.Y.E.Q.!.Q.E.Q.Q.E.W.!.!.!.!.!.!.~./.].[.[.].].[.[.[.[. X X X X X X XoXoXOXOXOXoXoX+X&X&X&X&X&X&X&X&X&X&X+X&X>X;X;X;X;X>X:X:X:X:X:X1X3X3X1X:X>X>X>X>X-X&X&X&X&X&X&X&X&X+XOXOXOXOXOXOXOXOXoX X].]./././././.^.~.!.!.!.Q.E.L.D.9.4.<.                                                                                            ",
"                                                                                                                                            g G J p.j.Q x Y u.i.p.a.h.v.N.0X6Xb.v.j.j.a.W Y Q :.u.a.j.h.u.&.G G g                                             u a ` X.4.8.9.9.9.D.K.P.I.Y.Y.Y.W.!.Q.W.W.Q.W.W.W.Q.!.!.!.~.^./.].[.[.].].].[.[.[.].]. X X X X X XoXOXOXOXoXoX+X&X&X&X&X&X&X&X&X-X&X&X&X>X;X>X>X>X>X>X>X>X>X:X1X3X1X,X:X:X>X>X>X>X-X-X-X-X&X&X-X&X+XOXOXOXOXOXOXOXOXOXoX X].].].]./././.^.~.!.Q.W.W.E.L.D.8.4.1.                                                                                          ",
"                                                                                                                                            g F E a.k.Q c I u.i.p.a.h.v.}.qX8Xb.v.j.h.z.a.a.i.u.i.p.p.p.u.&.G G g                                             u a ` { <.6.8.9.S.G.F.J.L.Y.Y.Y.W.!.!.!.W.E.Q.Q.E.W.!.!.!.^././.].].[.[.].].].[.].].].].[. X X X XoXOXoXoXoXOXOX+X&X&X&X&X+X+X&X&X&X&X-X>X>X-X-X>X;X;X;X;X>X:X1X1X:X:X1X1X:X;X;X>X>X>X>X-X&X&X&X&X+X+XOXOXOXOXoXoXOXOXoX X X X X].]./././.^.~.W.U.W.Q.E.L.D.9.4.<.                                                                                        ",
"                                                                                                                                            g F W h.v.u.x I u.i.p.a.h.n.5XrX8Xb.v.j.h.h.h.a.p.p.p.i.u.i.u.&.G G g                                               u a ` { <.7.9.S.S.D.F.L.Y.Y.Y.E.W.!.!.W.E.!.!.E.W.!.!.!.~.^./.].].].].].].].[.[.].].]. X X X X XoXoXoX XoXoXOX+X+X&X&X&XOX+X+X&X&X&X-X-X-X&X-X-X>X;X>X>X>X:X:X:X:X:X1X1X:X;X;X>X-X>X>X-X&X&X&X&X&X+X+XOXOXOXOXOXOXOXOXoXoXoX X X].]././.^.~.W.W.W.!.Q.E.P.D.9.7.2.                                                                                      ",
"                                                                                                                                            F J W h.n.a.m Y u.i.p.a.j.n.7XtX9XM.v.j.j.h.a.a.i.u.u.i.i.i.>.&.G G g                                                 u a ' <.7.9.Z.Z.S.F.L.I.Y.Y.Y.E.W.!.W.W.Q.Q.W.W.!.!.!.!.~.^././././././.].[.[.[.[.[. XoX X X X X X X X XoXOXOXOX+X&X&X+XOX+X+X&X&X&X&X&X&X&X&X>X>X-X-X>X>X>X>X>X:X1X1X:X;X>X>X-X>X>X-X&X-X-X&X&X&X+X+XOXOXOXOXOXOXOXoX X X X X X].]./.^.~.!.!.!.!.!.W.U.J.S.7.2.<.                                                                                    ",
"                                                                                                                                            R R W h.n.a.m Y u.i.p.a.h.n.5XrXeXM.n.j.j.h.u.! Q :.:.u.u.;.&.$.G G g                                                 u a ' <.7.9.Z.9.S.F.K.L.L.L.I.Y.E.W.W.Q.W.W.Q.!.!.!.!.!.~.^./.^.^./././.].[.[.[.].].[. X X X X X X X X X XoXoXOX+X+X+X&X+XOX+X+X&X&X&X&X&X&X&X>X>X-X-X>X>X>X>X;X:X:X:X;X;X>X>X>X>X>X-X-X>X-X&X&X&X&X+X+XOXoXoXoXOXOXOX X X X X]. X].]./.^.^.~.!.!.W.Y.P.J.S.7.1.<.                                                                                    ",
"                                                                                                                                            W W Q h.n.a.m Y u.i.p.a.h.v.}.rX0XN.n.j.j.a.Y M Y W W u.p.;.$.$.G G g                                                 u a ` =.7.9.9.9.Z.D.F.K.K.K.P.Y.Y.E.Q.!.W.W.!.!.!.!.!.!.~.^.^.~.~./.]./.].[.[.[.].].].[.[. X X XoXoX X X XoXoXOXOXOX+X&X&X+XOX+X+X&X&X&X&X&X&X-X>X-X-X>X>X>X>X;X;X;X;X;X:X:X:X;X;X>X-X-X>X>X-X&X&X&X&X+XOXoXoX XoXOXOXoXoX X].]. X X]././.^.!.!.!.E.P.P.P.G.9.4.1.                                                                                    ",
"                                                                                                                                            W Q u.h.n.a.m Y u.i.p.a.h.x.}.rX0XN.n.k.j.i.m c M Y W a.j.d.;.$.G G g                                                 u u a { 4.7.9.9.Z.S.D.F.K.K.P.Y.Y.E.Q.!.W.W.!.!.W.Q.!.!.!.~.~.!.~./././.].[.].].].].].]. X X X X X X X X XoX XoXoXOX+X+X+X&X+XOX+X+X+X+X&X&X&X-X-X-X-X>X>X-X-X>X;X;X;X;X,X1X:X;X;X;X>X>X;X>X-X&X&X&X&X&X+XOXoXoXoXOXOXOXoX X X X X X]././.^.!.!.!.Q.W.W.E.P.G.9.7.1.                                                                                  ",
"                                                                                                                                            Q Q u.j.n.a.m Y u.i.p.a.h.v.}.rX0XN.b.v.h.i.m c M Y W h.v.h.i.&.G G g                                                 u u u ` <.4.8.9.Z.Z.S.F.F.F.L.I.Y.E.W.Q.E.W.!.Q.E.W.!.!.!.!.!.!.~./././.].].].].].].].]. X X[. X X X X X X X X XoXOXOXOX+X&X&X+XOXOXOX+X&X&X&X&X&X&X-X-X>X-X-X>X>X>X;X>X,X1X1X:X:X>X>X>X;X>X-X&X&X&X&X&X&X+XOXoXoXOXOXOXoXoXoX X X X].].]./.~.~.!.!.!.~.!.E.P.G.9.4.1.                                                                                ",
"                                                                                                                                            u.u.u.j.n.a.m ~ i.i.p.a.h.v.}.rX0XN.b.v.h.i.I M Y W Q h.n.j.i.&.G G g                                                   u u d { 1.8.9.Z.Z.S.F.F.F.K.L.P.Y.E.E.Y.W.!.Q.E.W.!.!.!.!.!.!.~./.]./.].].].[.].]./.].[. X[. X X X X X X X X X XoXoXOX+X&X&X&X+XOXOXOX+X+X&X&X&X&X&X-X-X&X&X-X-X>X;X>X,X3X3X1X:X>X>X>X;X>X-X&X&X&X&X&X&X+XOXOXOXOXOXoXoXOXoX X X X X X X]./.~.!.!.!.!.!.!.E.P.G.9.7.1.                                                                              ",
"                                                                                                                                          h.i.u.u.j.n.a.M E i.i.p.a.h.v.}.rX0XN.b.v.h.a.Q Q u.u.:.g.k.h.i.&.G G g                                                     u i ( { 1.7.9.9.S.F.F.F.K.L.P.P.Y.Y.W.W.Q.W.W.Q.!.!.!.!.!.!.~.^.^.^.^.^.].].]./.].].].[.[. X X X X X X XoXoXoXoXoXOX+X&X&X&X&X+X+X+XOX+X&X&X&X&X&X-X-X-X&X-X-X>X>X>X,X3X3X1X:X>X>X;X;X>X-X&X&X&X&X&X&X+X+X+XOXOXoX XoXOXOXoX X X XoX X X].^.!.!.!.!.!.~.W.P.J.D.9.4.2.                                                                            ",
"                                                                                                                                        j.h.i.u.u.j.n.a.M E i.i.p.a.h.v.}.rX0XN.b.v.h.a.a.a.a.a.i.p.a.p.u.&.G G g                                                     u u u ` { 4.9.9.S.F.F.F.P.I.P.L.P.E.Q.Q.W.W.!.!.!.!.!.!.!.!.!.~.~.~.~.~.^.].].].].[.].].[. X X X X X X XoXOXOXOXOXOXOX+X&X&X&X&X&X&X+XOX+X+X&X&X-X>X>X-X-X>X>X>X>X>X,X3X3X1X:X>X>X;X;X>X-X&X&X&X&X&X&X&X&X+XOXoX XoXoXOXOXOXoX X X X X X].^.!.!.!.!.!.!.W.P.P.L.G.9.7.<.                                                                          ",
"                                                                                                                                        i.i.u.u.i.j.n.a.m E i.i.p.a.h.v.}.rX0XN.b.v.j.h.h.h.h.a.p.i.u.:.&.$.G G g                                                     u 8 u d ] 1.8.9.S.F.J.J.L.P.K.K.P.E.W.W.E.E.W.!.!.!.Q.!.!.!.!.!.~.~.~.!.~.^.].].[.[.].].].].[. X X X X XoXOX+X+XOXOXOXOX+X&X&X-X-X&X+X+XOX+X+X&X-X-X-X-X-X>X>X>X>X;X1X3X3X3X1X:X:X;X;X>X>X-X&X-X-X-X&X&X&X+XOXoXoXoXoXOXOXOXOXoXoX X X X]./.^.~.!.!.!.!.W.P.P.E.P.G.9.7.2.                                                                        ",
"                                                                                                                                        G J E Q u.j.n.a.M E i.i.p.a.h.v.}.rX0XN.b.v.k.h.h.a.a.a.i.i.i.;.$.$.G G g                                                       8 u d ] 1.8.9.S.F.J.F.J.K.J.K.P.Y.Y.Y.Y.Y.E.W.!.W.E.Q.!.!.!.!.~./.^.~.!.~.].[.[.[.[.].]./.].]. X X X XoXOXOXOXOXOXOXOXOX+X&X&X&X&X&X&X+XOX+X+X&X&X&X&X&X&X-X>X;X;X1X1X3X3X3X1X:X;X;X;X>X-X-X-X>X-X&X&X&X+XOXOXOXOXoXoXOXOXOXOXoX X X X X]./.~.!.!.!.!.W.P.E.Q.E.P.G.9.4.1.                                                                      ",
"                                                                                                                                        g F E Q u.l.n.h.Y ! i.i.p.a.h.v.}.rX0XN.n.v.k.h.u.W u.u.u.u.u.:.&.$.G G g                                                         u d { 1.8.9.9.S.F.F.F.F.L.P.P.P.Y.Y.Y.E.W.!.!.W.E.Q.!.!.!.!.~.^.^.^.^.^.].].].].[.[.].]./.].]. X X XoXoXoXoXOXOXOXoXoXoXOX+X&X-X-X&X+XOXOX+X+X&X&X&X&X&X-X-X>X;X:X1X1X1X1X1X:X>X>X:X;X-X-X>X>X>X-X-X&X&X+X+XOXoXoXoXoXoXOXOXoX X XoX X]./.^.^.^.^.~.Q.W.W.!.!.E.P.G.9.7.1.                                                                    ",
"                                                                                                                                        g G E W ! h.n.h.W :.i.i.p.a.h.v.}.rX0XN.b.v.k.a.M m Y W ! u.p.p.u.&.G G g                                                         u d ] <.8.8.8.9.S.F.F.K.P.I.L.K.I.Y.Y.W.!.!.!.W.E.W.!.!.!.!.!.!.^./././././.].].[.[.[.].]./.]. X X X X X X XoXOXoXoX XoXoXoX+X&X&X&X+XOXOXOX+X&X&X&X&X&X&X&X-X>X;X;X;X:X1X1X:X;X>X>X;X-X-X-X>X;X>X-X&X&X&X+XoXoXOXOXoXoXOXOXoXoXoXoX X].].].].]./.~.!.!.!.!.!.!.E.P.G.9.4.1.                                                                  ",
"                                                                                                                                          G J J W s.h.u.I ! i.i.p.a.h.v.`.rX0XN.M.n.v.a.m c M Y ! a.h.g.i.&.G G g                                                           i ( } <.8.9.8.9.S.G.J.L.L.K.K.I.Y.Y.E.W.W.W.E.Y.E.W.W.W.!.!.!.^./.]././.].].[.[.[.[.].].].]. X X X X X X XoXoXoX XoXOXOXOX+X+X+X+XOXOXOXOX+X&X&X&X&X&X&X&X-X-X>X>X>X>X:X:X:X>X>X>X;X-X&X-X-X>X;X>X>X-X&X+XOXOXOXOXOXoXoXoXOXOXOXoX X X X X X]./.~.~.^.^.!.!.!.Q.E.P.G.9.7.1.                                                                ",
"                                                                                                                                            G J E Q u.Y M ! p.a.a.a.h.v.5XrX0XN.M.b.v.a.m c M Y W h.v.h.i.&.G G g                                                           u u d ] <.8.7.9.9.D.F.F.K.K.K.I.Y.Y.Y.Y.Y.Y.Y.Y.Y.Y.E.W.!.!.!.~././././.].].[.[.[.[.].].].[. X X X X X X X X X X XoXOXOXOXOXOXOXOXOXOXOXOX+X+X&X&X&X&X&X&X&X&X-X>X>X>X>X>X>X>X-X-X>X>X-X&X-X>X>X;X>X-X&X+XOXOXOXOXOXOXoXoXOXOXOXOXoX X X X X]./.~.^././.~.!.!.!.!.E.P.D.9.4.1.                                                              ",
"                                                                                                                                            R J J E u.*.W :.a.h.j.h.h.n.5XrX0XN.M.b.v.a.M x I W Q h.n.j.i.&.G G g                                                           u u u d ] <.6.9.9.S.S.G.F.F.K.I.Y.Y.Y.Y.Y.Y.Y.Y.Y.E.W.!.!.!.!.~.~.^./././.].].[.[.[.[.[.[.[. X X X X X X X X X X XoXoXOXOXoXoXoXoXOXOXOXOXOX+X+X&X&X&X&X&X&X&X-X>X>X>X>X;X;X>X-X&X-X-X>X-X-X>X>X;X;X>X-X&X+XOXOXOXOXOXoX XoXOXOXOXoX X X X].]./.^././././.~.!.!.!.!.E.P.G.9.7.1.                                                            ",
"                                                                                                                                            ! R J E u.a.a.i.p.h.k.j.k.b.8XyX0XN.M.b.v.a.Y I Q Q Q h.v.h.u.*.J G g                                                             u 8 u ( { 6.9.9.Z.Z.D.F.F.K.P.Y.Y.Y.Y.Y.Y.E.E.E.W.Q.!.!.!.!.!.!.~././././.].[.[.[.[.[.[.[.[.[.[. X X X XoX XoXoXoXoXOXOXoXoX XoXOXOXOXOXOXOX+X&X&X&X&X&X&X&X-X>X>X;X;X;X;X>X-X-X&X-X>X-X-X-X>X;X>X>X>X-X&X+XOXOXOXOXoXoXoXoXOXoX X X X].].]././././././.^.!.!.!.~.Q.U.L.D.9.4.1.                                                          ",
"                                                                                                                                                E E Q a.j.a.i.p.h.v.n.b.8XuXqXN.M.n.v.h.a.i.a.p.u.p.a.a.u.*.R G g                                                               8 u ( { 6.9.9.Z.Z.S.S.F.J.K.P.Y.Y.Y.Y.Y.W.!.!.Q.W.W.!.!.!.!.!.~.~.^././.].[.[.].].[.[.[.[.[.[.[. X X X X XoXOXOXOXOXOXOXoXoXoXOXOXOXOXOXOX+X&X&X&X&X&X&X&X-X-X>X;X;X;X;X;X>X>X&X-X-X-X&X-X-X>X>X>X>X>X-X&X+XOXOXOXOXOXOXOXoXoX X X X X X]././././././.^.!.!.!.~.Q.U.P.L.G.9.7.1.                                                        ",
"                                                                                                                                                ! W Q a.h.h.a.i.a.k.n.b.8XpXuX0X6X`.M.n.v.k.j.j.g.a.u.u.u.u.! G g                                                               u u d ] <.7.9.Z.9.9.S.G.F.F.L.Y.Y.Y.Y.Y.Q.!.!.Q.E.E.W.!.!.!.!.!.!.^././.].].].].].[.[.[.[.[.[.[.[. X X X XoXOXOXOXOXOXOXOXoXoXOXOXOXOXOXOX+X+X&X&X&X&X&X&X&X&X-X>X>X>X;X;X;X>X-X-X&X&X&X&X-X>X>X>X>X>X>X-X&X+X+XOXOXOXOXOXoXoXoXoXoXoX X[.].]././././.^.^.~.!.!.Q.U.P.Y.P.G.9.4.2.                                                      ",
"                                                                                                                                                  W W Q i.j.v.g.p.g.j.b.8XpXpXuXiXqX0X5XN.M.b.n.x.h.p.u.i.i.*.J g                                                               u u u a ' <.9.9.8.9.S.G.F.F.L.Y.Y.Y.Y.Y.Q.!.W.E.Y.Y.E.W.!.!.!.!.!.!.~././.].].[.[.[.].].].[.[.[.[. X X X XoXoXoXoXoXoXOXOXoX XoXoXOXOXOXOXOX+X+X+X+X&X&X&X&X&X-X-X-X-X>X>X>X>X>X-X&X&X&X&X-X>X>X;X;X;X;X>X-X&X+XOXOXOXOXOXOXOXOXOXOXoX X X X]././././././.~.!.!.Q.U.U.W.W.P.G.9.7.1.                                                    ",
"                                                                                                                                                    J R Q k.b.v.k.j.k.n.N.8X0X0X0X8X5XN.M.b.n.v.j.g.u.u.u.Q Y b y                                                                 u u u a ] <.6.8.9.S.D.D.F.K.P.I.Y.Y.Y.W.W.E.Y.Y.Y.Y.E.W.!.!.!.!.!.~.^.].].].].].].].].].[.[.[.[. X X X X X X X X X XoXoXoX X XoXOXOXOXOXOXOXOXOX+X&X&X&X&X&X&X&X&X-X-X>X>X:X>X-X&X&X&X&X-X-X>X>X;X;X>X;X>X&X&X+X+X+X+XOXOXOXOXOXOXOXoXoX X].].].]./././.^.~.~.!.W.W.!.!.E.P.G.9.7.2.                                                  ",
"                                                                                                                                                    F J Q j.b.M.M.M.n.n.n.b.b.b.M.M.b.n.n.n.x.j.h.a.p.p.i.W I m x                                                                   u u u a ] <.7.9.Z.Z.S.F.F.K.L.Y.Y.Y.Y.E.Y.Y.Y.Y.Y.Y.E.W.!.!.!.!.~.^.].].].].].]./.].].[.[.[.[.[.[. X X X X X X X X X X X X X XoXoXOXOXOXOXOXOX+X&X&X&X&X&X&X&X&X&X&X-X>X>X>X-X&X&X&X&X&X&X-X>X;X>X>X>X-X&X&X&X&X&X+XOXOXOXOXOXOXOXOXoX X X X X X]././././.~.!.!.!.!.!.!.E.P.G.9.7.1.                                                ",
"                                                                                                                                                      F R i.j.b.N.5X5X8X8X8X8X8X8X8X7X6X6X5XN.M.M.n.v.v.x.h.a.a.a.p.                                                                u u u a ` =.7.9.9.9.Z.S.G.F.F.F.L.Y.Y.Y.Y.Y.Y.Y.Y.Y.Y.W.!.!.!.!.~.~./.].].]././././.].].].].].].[. X X X X X X X X X X X X X X XoXoXoXoXOXOXOX+X&X&X&X&X&X&X&X&X&X&X-X-X-X-X-X&X&X&X&X&X&X-X>X;X>X>X>X>X-X-X&X&X&X+XOXOXOXOXOXOXOXOXOXoXoXoXoX X[.]./././.~.!.!.!.!.!.!.Q.E.P.F.9.7.2.<.<.                                          ",
"                                                                                                                                                        G R i.k.M.5XqXuXpXpXpXuXyXrXqXqXrXwX8X8X8X5XM.M.M.b.n.b.x.a.u.                                                              u u u a ' <.8.8.8.9.Z.Z.S.F.D.9.D.Y.E.Y.Y.Y.Y.Y.Y.Y.Y.W.!.!.!.!.!.!.~./.]././././././././././.].[. X X X X X X X X X X X X X X X X X X XOXOXOX+X&X&X&X&X&X&X&X&X&X&X&X&X&X&X&X&X&X&X&X&X&X-X>X;X;X;X>X>X>X-X&X&X&X+XOXOXOXOXOXOXOXOXOXOXOXOXoX X X].]././.~.!.!.!.!.!.!.!.!.E.L.D.9.4.<.<.<.                                        ",
"                                                                                                                                                          R Q a.k.N.0XuXiXqX0X0X5XN.N.N.N.M.M.M.M.b.n.n.n.n.v.v.h.*.R                                                                                                                                                                                                                                                                                                                                                                                                   ",
"                                                                                                                                                          W Q Q a.b.8XqX0XN.M.M.n.j.j.j.j.j.j.h.h.h.h.j.k.k.j.h.i.Y M                                                                                                                                                                                                                                                                                                                                                                                                   ",
"                                                                                                                                                              W a.n.5X0X5Xn.v.v.k.j.j.j.      W M I Q j.b.v.j.h.i.M x                                                                                                                                                                                                                                                                                                                                                                                                   ",
"                                                                                                                                                              W i.v.N.8XN.k.h.j.j.j.j.j.        , c I k.M.n.j.h.u.M x                                                                                                                                                                                                                                                                                                                                                                                                   "
};
