/* XPM */
static char *d099cf55fe6f4a56a435cfe966dcc6b4JtyA8RfswwbWcUVo[] = {
/* columns rows colors chars-per-pixel */
"300 329 255 2 ",
"   c None",
".  c #020202",
"X  c #090604",
"o  c #0A0907",
"O  c #0B0B0B",
"+  c #070807",
"@  c #140D09",
"#  c #0F100D",
"$  c #11110E",
"%  c #1B140C",
"&  c #181B0D",
"*  c #141413",
"=  c #171816",
"-  c #191916",
";  c #1C1C1C",
":  c #181715",
">  c #100F10",
",  c #23180E",
"<  c #241B12",
"1  c #2B1D11",
"2  c #231D1A",
"3  c #33160D",
"4  c #1C220E",
"5  c #1F201E",
"6  c #1E2213",
"7  c #26270F",
"8  c #2D2212",
"9  c #21211E",
"0  c #282617",
"q  c #342312",
"w  c #392613",
"e  c #3C2B15",
"r  c #3C2C1C",
"t  c #342718",
"y  c #2F371E",
"u  c #3A331A",
"i  c #30200F",
"p  c #1F2020",
"a  c #242524",
"s  c #2A2A25",
"d  c #2D2D2D",
"f  c #282726",
"g  c #352C26",
"h  c #2F3328",
"j  c #333A23",
"k  c #383F27",
"l  c #31312E",
"z  c #393F2B",
"x  c #373628",
"c  c #2F2F30",
"v  c #343433",
"b  c #373835",
"n  c #393A36",
"m  c #3B3B3B",
"M  c #3A3736",
"N  c #2F3030",
"B  c #1F1F20",
"V  c #4E1C0F",
"C  c #771A0B",
"Z  c #68170B",
"A  c #412E17",
"S  c #442B19",
"D  c #44321A",
"F  c #4A351B",
"G  c #4D391D",
"H  c #423017",
"J  c #533B1E",
"K  c #573A1E",
"L  c #5A2E16",
"P  c #682416",
"I  c #742D18",
"U  c #483724",
"Y  c #563C21",
"T  c #593E21",
"R  c #553925",
"E  c #4F332C",
"W  c #6E3729",
"Q  c #384026",
"!  c #39412A",
"~  c #374025",
"^  c #3E4234",
"/  c #3F403D",
"(  c #5D4122",
")  c #5D432C",
"_  c #41423E",
"`  c #434639",
"'  c #584639",
"]  c #644425",
"[  c #694726",
"{  c #6C4827",
"}  c #6D4928",
"|  c #65432C",
" . c #724B27",
".. c #744C2A",
"X. c #794F2A",
"o. c #7B4924",
"O. c #7C512D",
"+. c #75502B",
"@. c #7C5335",
"#. c #754B35",
"$. c #7D441F",
"%. c #3F3F40",
"&. c #3E4140",
"*. c #434343",
"=. c #474844",
"-. c #494946",
";. c #4C4C4B",
":. c #484747",
">. c #554845",
",. c #4F504D",
"<. c #50514E",
"1. c #5E5149",
"2. c #535353",
"3. c #5B5B5B",
"4. c #575958",
"5. c #4E5051",
"6. c #665B56",
"7. c #6E5248",
"8. c #68615B",
"9. c #74635B",
"0. c #5E6162",
"q. c #636463",
"w. c #6B6B6B",
"e. c #666869",
"r. c #737373",
"t. c #7D7C7C",
"y. c #797877",
"u. c #756F69",
"i. c #5F6060",
"p. c #8A1305",
"a. c #881607",
"s. c #8D1606",
"d. c #972705",
"f. c #903012",
"g. c #A53904",
"h. c #A7330A",
"j. c #8F3525",
"k. c #A53B2B",
"l. c #924916",
"z. c #AA4506",
"x. c #B54A05",
"c. c #AF4E1A",
"v. c #81542F",
"b. c #8A572E",
"n. c #845631",
"m. c #865932",
"M. c #8C5C35",
"N. c #885838",
"B. c #915E37",
"V. c #945F39",
"C. c #9B5A3B",
"Z. c #904D29",
"A. c #AD4F2C",
"S. c #916037",
"D. c #946139",
"F. c #9B653B",
"G. c #9F683D",
"H. c #A1673E",
"J. c #A36A3F",
"K. c #AC653A",
"L. c #B86432",
"P. c #C85608",
"I. c #CE5B10",
"U. c #D16F2F",
"Y. c #D36423",
"T. c #B34D49",
"R. c #B7544D",
"E. c #996745",
"W. c #8A6A53",
"Q. c #A66C40",
"!. c #AA6E42",
"~. c #A56B44",
"^. c #AE7044",
"/. c #A9734F",
"(. c #B37347",
"). c #B67548",
"_. c #B97749",
"`. c #BD7A4B",
"'. c #B97547",
"]. c #A67653",
"[. c #B97B53",
"{. c #B6694A",
"}. c #857B72",
"|. c #AC7562",
" X c #C37D4D",
".X c #CA7F4F",
"XX c #C97644",
"oX c #C77A53",
"OX c #C86E51",
"+X c #D37C61",
"@X c #81807E",
"#X c #AB8971",
"$X c #BB8159",
"%X c #CE8252",
"&X c #C78457",
"*X c #D18555",
"=X c #D68A5A",
"-X c #D98D5D",
";X c #D88858",
":X c #CE8351",
">X c #E7925A",
",X c #DE9262",
"<X c #D99569",
"1X c #D28E6A",
"2X c #E19565",
"3X c #E69A6A",
"4X c #E99D6D",
"5X c #E59867",
"6X c #EC9F70",
"7X c #E59C73",
"8X c #E08C64",
"9X c #EEA172",
"0X c #EBA57A",
"qX c #F0A374",
"wX c #F2A97E",
"eX c #EFA06F",
"rX c #F18433",
"tX c #848483",
"yX c #8A8A8A",
"uX c #898887",
"iX c #959493",
"pX c #9B9997",
"aX c #9E9C9A",
"sX c #999794",
"dX c #928F8D",
"fX c #A69D97",
"gX c #A8A39E",
"hX c #ACACAC",
"jX c #A6A5A4",
"kX c #B2B1B0",
"lX c #CE9883",
"zX c #D2A990",
"xX c #F3AD84",
"cX c #F6B38B",
"vX c #F8B994",
"bX c #ECAE8A",
"nX c #F3BFA0",
"mX c #CCB6A8",
"MX c #FCC19D",
"NX c #FEC4A3",
"BX c #FBC8A9",
"VX c #FECEB2",
"CX c #FED5B9",
"ZX c #EFCCB0",
"AX c #D6CDBD",
"SX c #FFDDC4",
"DX c #F0DECA",
"FX c #EBDBC7",
"GX c #FDE5CA",
"HX c #FEEDD3",
"JX c #FFE7D0",
"KX c #FEF2D6",
"LX c #FEF4DA",
"PX c #FEF8E9",
"IX c #DBD2C2",
/* pixels */
"                                                                                                                                                                                                                                                                                                                                                                                                                                                                                                                                                                                                                        ",
"                                                                                                                                                                                                                                                                                                                                                                                                                                                                                                                                                                                                                        ",
"                                                                                                                                                                                                                                                                                                                                                                                                                                                                                                                                                                                                                        ",
"                                                                                                                                                                                                                                                                                                                                                                                                                                                                                                                                                                                                                        ",
"                                                                                                                                                                                                                                                                                                                                                                                                                                                                                                                                                                                                                        ",
"                                                                                                                                                                                                                                                                                                                                                                                                                                                                                                                                                                                                                        ",
"                                                                                                                                                                                                                                                                                                                                                                                                                                                                                                                                                                                                                        ",
"                                                                                                                                                                                                                                                                                                                                                                                                                                                                                                                                                                                                                        ",
"                                                                                                                                                                                                                                                                                                                                                                                                                                                                                                                                                                                                                        ",
"                                                                                                                                                                                                                                                                                                                                                                                                                                                                                                                                                                                                                        ",
"                                                                                                                                                                                                                                                                                                                                                                                                                                                                                                                                                                                                                        ",
"                                                                                                                                                                                                                                                                                                                                                                                                                                                                                                                                                                                                                        ",
"                                                                                                                                                                                                                                                                                                                                                                                                                                                                                                                                                                                                                        ",
"                                                                                                                                                                                                                                                                                                                                                                                                                                                                                                                                                                                                                        ",
"                                                                                                                                                                                                                                                                                                                                                                                                                                                                                                                                                                                                                        ",
"                                                                                                              + + + +                                                                                                                                                                                                                                                                                                                                                                                                                                                                                                   ",
"                                                                                                            + O * * O +                                                                                                                                                                                                                                                                                                                                                                                                                                                                                                 ",
"                                                                                                          X + * ; ; * O X                                 + X X X X X                                                                                                                                                                                                                                                                                                                                                                                                                                                   ",
"                                                                                                          X + - a ; - * O +                             X + + + X X X X                                                                                                                                                                                                                                                                                                                                                                                                                                                 ",
"                                                                                                          X + ; f a ; ; * + +                         X X X + + + + + + +                                                                                                                                                                                                                                                                                                                                                                                                                                               ",
"                                                                                                          X O ; d v d f - $ O                         X X X + + + O # O $ *                                                                                                                                                                                                                                                                                                                                                                                                                                             ",
"                                                                                                          X O a v M v d a * *                         @ X X + + O * * * * * *                                                                                                                                                                                                                                                                                                                                                                                                                                           ",
"                                                                                                        X X O a v M M v f - - ;                     D , X X + O * * - - - - -                                                                                                                                                                                                                                                                                                                                                                                                                                           ",
"                                                                                                        X X O a v v v v d a ; ;                     H 8 % $ @ $ * ; B ; ; ;                                                                                                                                                                                                                                                                                                                                                                                                                                             ",
"                                                                                                        X X O a v v v M v d f a                     q e e q 1 : = a f a a a                                                                                                                                                                                                                                                                                                                                                                                                                                             ",
"                                                                                                        . X $ a d d v v M M v f                     V L F e 8 - - a f f f f ;                                                                                                                                                                                                                                                                                                                                                                                                                                           ",
"                                                                                                        . + * f d c d v m :.M f                     C P F e 8 2 ; f f f f f * +                                                                                                                                                                                                                                                                                                                                                                                                                                         ",
"                                                                                                        % : - f d d d d %.2.*.d -                   f.I K D e 0 a f d d d f = +                                                                                                                                                                                                                                                                                                                                                                                                                                         ",
"                                                                                                        D 0 ; f c c d d *.3.;.v - +                 o. .] J D s f d v M v d - +                                                                                                                                                                                                                                                                                                                                                                                                                                         ",
"                                                                                                        ] x a f v N d d :.q.3.m 5 O                 +.} ] J D s f d v / m d - +                                                                                                                                                                                                                                                                                                                                                                                                                                         ",
"                                                                                                p.p.  o...U f d d d d d *.q.3.=.f *                 o. .] T D g s d M *.*.v - +                                                                                                                                                                                                                                                                                                                                                                                                                                         ",
"                                                                                              p.p.p.a.j...E d d v v d d v *.;.<.v ;                 l.l.} ] Y U g s M ;.:.v - +                                                                                                       O = ; - * X X X X X                                                                                                                                                                                                                                                                                                               ",
"                                                                                            s.s.p.p.s.f.o.R d d d d c N d d *.2.*.f               z.x.l.v. .] T D s v 2.;.v ; + X                                                                                                   + O - ; - * + + + + +                                                                                                                                                                                                                                                                                                               ",
"                                                                                  g.d.p.d.g.g.d.p.d.g.z.l.K f d c d N N f f *.3.5.M ; X         F l.P.x.l.l. .] Y 0 d :.;.m a + X X                                                                                               + O * - ; - - * * * * O + X X                                     X X X X X X + +                                                                                                                                                                                                                                                     ",
"                                                                                c.c.c.k.c.c.c.z.f.f.z.z.l.K f f d d d N d f m 2.2.m ; +         K l.I.P.x.l.X...Y 0 f *.;.*.f * + X                                                                                             X + * ; f f f a a B ; - * > O O O                                 + O + + O O O + + X                                                                                                                                                                                                                                                   ",
"                                                            p.                z.L..X;X;X;X;XXXK.Z.$.v.b.b.R 2 a f f f d d f v *.:.%.f * + .      .l.I.I.P.l.X.} Y 0 f m *.*.v a * X                                                                                           X X O - f M M v v f f a a ; - - - * *                         + X + * * * * = = = * + X X X X                                                                                                                                                                                                                                             ",
"                                                            p.              h.c.XX7XxXvXvXxX,X`.m.[ T ) ) t * ; f f f f f f d M *.m d - $ +   q F I f.l.f.L F D w - ; d v M M v f ; d                                                                                       X X + * ; d M m M M v v d f a a a ; ; * *                     X + + O ; f f f f a ; * O + X X + X                                                                                                                                                                                                                                           ",
"                                                              I.P.d.p.    p.f.T.1XvXBXVXCXBX0X&XM.T 0 9 9 $ + - a f f f f f f d M m d ; * O + + @ @ @ @ @ @ X X + + O * 5 f v m m m *.*.                                                                                    X + O * a f v v v M m m v f f f f a a - * +                 X X X O * f M m m v f ; - - * + + X + X                                                                                                                                                                                                                                         ",
"                                                              P.x.h.d.p.p.p.f.T.lXBXSXGXHXCXvX1XN.U ; = ; + . * ; f f f f f f f n _ v a = $ O + X . . . . . . . . . X + * - f d N v v v a                                                                                   X + O = a f d d d v M M v v d f f f a ; * O O               X X + O - f M M m M v d f a - * > > O O +                                                                                                                                                                                                                                       ",
"                                                              z.z.z.g.d.p.a.j.T.lXVXGXHXKXGXBX<X@.D 2 ; B O . O = a f f f f f f M =.v a = * * O + + + X . . . . . . . . O * = = * = a f - O X . . . . . .                                                                 X X + # = a f d c c v v d v M M f a a a a ; * * *             X X + * ; f v v v m %.M v f a ; - - * $ + +                                                                                                                                                                                                                                     ",
"                                                                z.z.z.c.k.k.k.T.1XvXBXCXGXSXBX<X#.r a p ; O . + * ; a a a f f f *.;.M a - * * * O O O + . . . . . . . + - f f f ; = ; ; - ; p - * O * - B ; = * + . . . . . .                                           + + + # * ; f f f d d d d d d v M v d f a a a ; - = =         + X X + * a f d d v v M v v v d a a 5 - * # # =                                                                                                                                                                                                                                   ",
"                                                                  z.c.'.[.R.R.R.+XqXcXNXVXVXvX1X| t a B - O X O * - - - ; f f f *.2.M a * * $ * * * * O + + + X . . + - f v M v f - - - - a v f - * - f v f ; - * O + X + + + X                                           + O * ; f f f f f d c d d d d v M v f a a a a ; ; - -     + + X X + * a f d c c d c d v m v f f a ; - * * - ;                                                                                                                                                                                                                                 ",
"                                                                s.k.R.#XlX7X8X+X8X9XcXvXvXxX7X].' 2 * * ; - = = = * * * * - - a M :.v a O X X O * - - * * - - - * * a d d a a a - * * * * * * * + X + * a d d d v M v f c M v f v m m *.3.2.*.d B - - - -                 + * - a f f f f d c c d d v d v m m d f a a a a a ; - ; * + X X + O * p f f d c c d c v v M M v f f ; - - - - -                                                                                                                                                                                                                               ",
"                                                              p.s.k.|.fXmXnXcX0X0XxXvXvXwX2X`.N.M = + * a a a B - = * * * * * ; d M d ; O . . X * - - - ; a f f a ; f v f * * * = - - ; 5 - O + O O * * ; d v v M *.*.v m :.m v v v v v *.*.v f * * - ; a               + + * ; f f f f d d c c d c v d v m m v d f a a a a ; ; ; * O X + O * = ; a f d d d d d d d M m M N f a ; ; - - - -                                                                                                                                                                                                                             ",
"                                                            p.p.s.A.&XzXZXVXVXBXBXBXNXvX9X&Xm.R s - * * ; ; ; a a a a a a ; ; ; a f a - * + . . + O * ; a f f f ; O * f a * $ * f v v v *._ d v *.*.*.M d f a ; ; - * O * - * O O > > * * * * + X + * f v M v a - ; ; - O + * ; a f d d N d d d d v v v v v M m v f f a a a a ; - * + X X O * = ; a f d d v N v c d v v v v d a ; ; ; ; - -                                                                                                                                                                                                                             ",
"                                                          p.p.s.h.L.1XvXVXSXSXSXSXCXNXxX1XF.Y 0 ; ; ; ; - - ; B a f a a a a a ; ; ; ; ; - * + . . X O - a a 5 a = X + ; - $ * ; f v d v *.=.v M -.;.:.m v f a f 9 - - a ; * * * * * * O O O * ; a a ; f v v d - * * * * O + * ; a f d d c c d d d d v v d d v *.*.m v a a a a a * O + + X O * = ; a f f d v d l c N d v M M v f a ; ; ; - -                                                                                                                                                                                                                             ",
"                                                          p.s.h.I.U.1XnXSXJXHXHXGXCXvX<XD.Y t ; - ; a p - - - ; ; ; ; = ; a f f f f f f f ; * + . . X * ; - * = * X + ; * + ; v f - # * ; 9 ; ; 9 a 9 ; ; f M *.;.:.3.r.q.;.:.:.:.*.v d d v *.3.w.2.v f a a - + . X X X X + * ; f f f d d v d d d d d d d d v m ;.2.*.f a a a ; * + # O + O * = ; a f f f d d d d c d v M *.M v f a a B ; -                                                                                                                                                                                                                             ",
"                                                          f.f.c.U.XX<XnXSXHXLXKXHXCXlX~.Y 0 a f f f f a ; ; ; ; - - - * = ; ; a a f a a a 5 ; * O O O * ; * O O + . O f - X - v a $ + X + $ ; 5 ; ; 5 5 a s v *.:.:.2.w.3.:.*.*.*.*.v v v v *.3.w.2.v a ; a f v d a - * O + * ; a f s f f v v v d d d d d c v M ;.q.;.f a a a ; O + * * O O * * - ; 9 9 9 f d c d d d v v m *.*.d a a a ; ;                                                                                                                                                                                                                             ",
"                                                        a.j.H.'.:X;X3XvXVXJXLXKXLXGX#XY , * d M v v f f f f f ; - - - - = * * * * * * * * - 5 a a a a a B O . . . . * c a X * a ; * $ O X * d n v v v v v a - a f f f f f f a f f a a a a a a f f f a ; ; d *.w.r.2.*.v ; + * ; a a f f f d M v v c d d d d d v :.q.2.d a a f ; > + $ * * * * * * * - 6 7 9 f d N N d d d v 2.2.v f a a a B ;                                                                                                                                                                                                                           ",
"                                                        d.Z.^.&X,X7XxXvXBXSXHXKXKXCXW.q 3 3 g l v v v v v f f a a a ; ; - * * * * * * * * * ; ; ; a a a ; * O * * * * ; * X * a ; * * # . O c v d d d f a a a f f f f f f f c v v M :.2.2.*.M d f d v d f f M 3.3.*.M v ; O * - ; a f f N v v v v v d d d d d d :.w.2.d f a f ; O + $ * * * O O # & & 4 6 ; a d v d d d d v 2.3.v f f f f a ;                                                                                                                                                                                                                           ",
"                                                        z.c.!.&X6XcXvXvXNXCXGXHXHXZX9.1 Z C S t s d M M M c f f f f a ; ; ; - - - - ; - * * * * * - ; ; ; B a f f f - + . . * a p - * O . O f f a ; ; O + f M M M M M v v M *.2.2.3.r.uXuXr.3.*.M *.2.*.v f ; a f a ; ; = * * * - ; a v m M f f d d c d v v d d :.r.3.v f a f ; > + $ * * O + X O & 7 - * * ; d v d d d d v 2.3.v f d f f a a                                                                                                                                                                                                                           ",
"                                                      d.z.c.!.&X4XcXNXCXCXGXHXHXFXmX6.S W j.P V t s g l v v v v v f f a a a a a ; - - - - * * - 9 a f f f f f f f f a ; O . * a a - * # X O f f a f f O X d *.m M M v f v M M v M %.;.3.2.;.M d s l v d f ; ; f f f a = * = = = - ; a v ;.*.f ; - f c v v v d d :.r.3.M f f f a * * * $ O $ & # + & 7 & + + * f d d d d d v 2.3.m v v d f a a                                                                                                                                                                                                                           ",
"                                                    s.d.z.A.(.*X6XcXBXGXKXKXKXHXIXgX8.Y v.A.f.C V q q t s v M M M d f f f f f f a ; ; ; ; ; ; a f d d d d f a a a a f v a + > a ; - * O . + a f f v v * + v ;.*.m *.N - f M f - ; ; ; ; a ; - = = ; a ; = - f v M v f = * - - - ; ; a v 2.;.f * X - d v c d d d :.r.q.m c f f a ; = * # + $ 4 $ + & 4 $ X . O a f d d d d v 2.3.*.m m v f a a                                                                                                                                                                                                                           ",
"                                                  g.g.c.L.XX=X7XxXvXBXGXLXKXKXKXDXmXW.] j.f.h.d.C Z Z V 0 d v M m v v v c f f f f a a f d d f f f a f f a a ; ; ; ; a f ; # O * * * O X . + ; f f d f * + v 2.;.2.3._ ; s *.M f f f - = f f f f d n *.v d d d f a a ; - - - - ; ; a a v :.*.f O . - d v d d d d 2.t.w.*.v f f f ; - * $ # $ $ O + $ : $ + . + 5 f d d d d v 3.q.;.*.*.v f f f                                                                                                                                                                                                                           ",
"                                                x.P.I.U.*X2X9XcXNXNXVXGXLXLXLXKXGXZX|.W C s.g.g.a.a.a.Z S t c v M M M m v d f f f f f d v v d f ; - * - - - * * - - - * * * O O O O + . . + ; f a a ; + + v 2.3.q.w.;.5 d ;.:.*.*.m 5 ; v m M M M *.;.*.M v f * $ * - - ; ; - ; a a a f M M f * + ; d v d d d d 2.uXr.*.v v f f ; - * $ * # O + + $ * * O X + ; f d v d d M 3.e.2.=.=.M f f f                                                                                                                                                                                                                           ",
"                                                P.Y.rX>X3XwXvXNXCXSXGXHXLXPXPXKXGXvX].W C a.I o.$.f.a.a.Z V 0 s c v v m M v M M v d n M v f a ; ; * + * - * + X O - * + O * * * + X + + . + ; a ; - * X + v 2.3.q.w.;.; f ;.2.2.3.2.f ; M *.m M M v d v v ; O X + - ; ; ; ; ; ; a a a f d v M f - f v v d d d d 2.tXr.*.M v d f ; - * # O $ & $ + & 6 - $ X + * a d v d d M 3.w.<.=.*.m d f f                                                                                                                                                                                                                           ",
"                                                P.Y.rX>XeXxXvXBXCXGXHXKXLXPXPXKXCXvX].[ I I I W o.I C a.a.Z V t s d v v v M M m M n =.=.d a ; - * + . + * + . . X * O . . O * * O + * * + O ; a ; = * X + v 2.3.q.w.;.; f ;.2.3.w.q.d ; m =.*.:.;.d = d M ; + + * a a ; - - - ; B a a f f v m v f f d d d c d d 2.uXr.:.m M v f ; - * $ # & 4 $ + & 4 & # # # * ; d v v d v 3.w.2.-.-._ v d f                                                                                                                                                                                                                           ",
"                                                x.P.Y.U.2X9XxXvXBXCXGXHXLXLXLXKXCXvX].| R R I a.a.I L P a.a.Z V 0 s f f f f d d n =.2.;.v a ; * + . . . X . . . . X . . . . . X O * - = * * a a ; = * X + v 2.3.q.w.;.; f ;.2.2.w.q.d 5 *.;.;.q.r.=.- v *.v d d f f a ; - - - ; ; ; a f f d v v d d c c v c d d 3.iXt.;.*.*.v f a - * : 4 & # + + + O + O & 4 : ; d v v d v 3.w.2.:.-.*.M v f                                                                                                                                                                                                                           ",
"                                                d.g.P.U.=X,X5X0XcXBXSXHXKXKXKXKXCXvX].( x g V Z Z P L P C a.a.V 8 s f f f f f f v *.2.5.v f ; * O + O + X X X X X X X X X X X X * - - = * - ; ; - * * X + d :.;.2.3.m ; d :.,.2.q.3.f 9 *.2.2.r.yX2.; v 2.:.;.3.:.a * * * * * * - ; B a f f f d d d c c v N d d 3.sX@X;.=.=.M d f - * : & & O O O # # O O & & $ - f c c d v 3.w.3.;.-.*.m v f                                                                                                                                                                                                                           ",
"                                                s.d.z.L. X&X&X;X7XNXSXHXKXKXLXKXCXvX].T 1 O @ < g L C P L C C V q s f f f f f f d v *.:.M f ; - ; a a ; * * * * * * * * $ $ $ $ * * * * - - * * * * * X X a v m m v f = s *.;.2.3.2.f 9 *.2.4.r.uX,.; M 3.2.q.yXw.- . X . . . X * ; ; ; a f f f c c d c v v d d 3.sX@X;.=.*._ v f ; * $ O $ * - = 6 4 & $ O + + * f d c d v 3.w.3.;.-.*.m v f                                                                                                                                                                                                                           ",
"                                                  s.d.z.L.L.{.oX<XnXSXHXLXKXLXKXCXzX#X9._ a O O ; r P L U P a.Z V t s f f f f f f N *.:.M f ; ; a f f d f a ; ; - * * * * * * * * * $ * ; a ; = * * $ X X * f f f - * * s =.;.2.2.*.a a =.2.3.r.t.-.; m 3.3.w.iXr.* . . . . . . $ - - ; ; a f f d d c d d d d d 4.dXt.,.=.=.*.M d ; * O + O = 5 6 6 6 : * > O O - f d d d v 3.w.3.;.:.*.m v f                                                                                                                                                                                                                           ",
"                                                    s.d.z.A.R.OX<XNXSXHXKXKXKXHXAXhXgXsXy.,.- . X : g v M P a.a.C S 0 s f f f f f d *.:.M f ; - ; a d v v v f f a ; - * * * * * * * * - f d d a * * * + . O * * $ X + * d =.;.;.:.M ; 5 *.2.3.q.w./ ; m 3.3.w.yXq.* . . . . . . O * - - ; a f f N c v c d d d d 2.uXy.2.-.=.*.m d ; * O + O * 6 7 - * * * = - - ; f f d d v 3.w.3.;.;.:.m v f                                                                                                                                                                                                                           ",
"                                                      h.A.A.R.OX7XZXGXGXGXGXGXCXnXzXgXaX}.' 9 O + O = ; 9 S W W L S g v d f f f f d *.5.M f a ; - ; f f f f f f f d f s a a a f a a f d v M v d a ; - O . X + + + + * f m -.*.v f - O * f *.2.3.2.v ; M 2.3.w.yXq.* . . . . . . X O * - ; ; f f d v d v d d d f 2.uXy.2.:.:.*.m f ; * # + O * - 6 - * * = 6 5 ; ; f f d d M 3.w.3.2.2.:.*.v f                                                                                                                                                                                                                           ",
"                                                        T.T.R.oX0XCXJXSXCXCXBXvXxX0XzXfXW.) x a * * O + > f m m M M m m v f f f f d :.2.m f f a ; ; ; ; ; ; ; f v v M M v N v M v v v M M M M v d f a O . . . . X # a M :.:.M f * + X + - d *.:.m f = v 2.2.q.tXq.* . . . . . . . X * ; ; ; a f d d d d d d f f ;.tXr.2.;.;.:.m f = * O + O * = - - - - ; 7 7 ; ; a f d d v 3.w.q.2.2.:.*.v f                                                                                                                                                                                                                           ",
"                                                        T.T.R.+XwXNXCXBXNXvXxXxXxXcXbXzX#Xu.3.*.f - = ; f a ; ; a m =.m M v v v d v :.2.m f f a ; a f a ; ; a f f d v m m M v v v v v v v c c d f f ; O . . . . X * a v m *.m v v d f f f f s a * + O l ;.;.2.w.;.O . . . . . . . X - a a a a f f f f f f f f f *.r.w.2.;.2.;.m a * * O + O * = - - = - ; 6 - = - a f f f v 3.w.q.3.2.;.*.v a * +                                                                                                                                                                                                                       ",
"                                                        T.T.R.+X9XxXvXcXxX4X3XqXcXNXNXNXmXgXtX6.M f f v v a O X * l m v v m *.m v v ;.2.m f f B ; a f a ; ; a a a a d m *.m v c v M v v f f f f a 9 - O . . . . + * a f d M m *.:.:.*.m v f ; * O + O f / m m *.d + . . . . . . . X * ; ; ; a a a a a f f f a a M 3.3.,.;.:.*.n 9 * * O + + * = - * * - - - - * - a f f f v 3.w.w.3.;.*.m d - O X                                                                                                                                                                                                                       ",
"                                                          c.c.XX-X1X&X&X=X=X,X9XMXGXGXGXGXAXjXt.2.*.m v d l d * + * = * f *.;.:.m M ;.2.m f f a ; ; a ; ; ; ; a a a d m *.m v f d v M v d f f f a a - + . . . . + ; f f f d d v m *.*.m m M v v v d s a 9 - * * O . . . . . . . . . + + + $ = ; a f a a ; ; ; ; a d m -.m v d f - * $ O X + $ * - * * * - - - = ; a f f a d 3.w.q.2.m v d a * O X X X X + +                                                                                                                                                                                                             ",
"                                                          g.g.A.L.K.K.!._.%X5XxXVXHXHXHXHXGXmXdXq.;.*.v f n _ a * * $ + ; m =.*.*.*.2.2.M f f a ; ; - - - - ; ; a a d m *.m v d f d v M v d f f a B - + . . . . + p f f f f f f v v v M m %.*.;.;.:.m f ; - * * O + X . . . . . . . . . . X O * - ; - * * = - ; = * a n v v d f 9 ; ; - * - 5 a f a 5 a f f a a B a a f a f :.3.2.*.f ; ; - * O X X X X + + +                                                                                                                                                                                                           ",
"                                                          s.s.d.f.z.c.K.`.,XxXBXCXSXSXSXSXCXBXfX8.;.-.v f n =.v f v d * * ; 5 a n ;.4.2.M f f a ; - - = * - ; ; ; a d m *.m M v d f d v v d f f a a - + . . . . + a f f f f f f f f f d d v m m *.:.:._ M m m v d f * . . . . . . . . . . . . X + + X X + $ = 5 ; * * 5 n :.:.*.M n n n n m *.*.*.m m m m M v d a ; ; ; ; ; f v M l ; * * * $ + X X X X + + + + X X                                                                                                                                                                                                     ",
"                                                            p.s.d.d.g.C.[.0XMXCXCXVXVXVXCXVXNXlX8.&.v f f v / M M _ M s 9 ; 5 a N m <.2.:.M d a ; ; - * * * - - ; a d m m M M m v d d d d f f f a a - + . . . . + a f f f f f f f f f f f f v v v m *.*.*.:.:.*.*.M f - * O + + X . . . . . . . . . . X o # * ; ; - 5 d :.q.e.q.q.3.3.4.2.4.3.3.3.3.2.2.2.;.:.*.v a ; ; - - * - a a - ; a f f ; - * * O O O O O + X                                                                                                                                                                                                     ",
"                                                              g.g.d.f.Z.$XxXBXCXVXMXvXNXVXCXNXlX8.v * * a d v / _ v v m m v m m f a m 2.3.5.v a ; ; ; * * * * - ; a d m m v M *.m v d f f f f f a 9 - + . . . . + a f f f f f f f f f f f f f f f d d v m m *.*.*.*.*.*.v f a ; * O . . . . . + # $ $ & 4 : * * - 7 z 2.w.y.tXuXuXtXr.w.w.w.w.w.w.w.w.q.3.3.4.2.*.f a a ; - * * * - a v *.-.*.*.M c f ; - - - - * +                                                                                                                                                                                                     ",
"                                                                g.f.k.K.1XvXNXNXbX7X7XxXBXCXNXlX8.m f f f a a M *.l v =.*.v M m d a d M %.m d f ; ; ; - = * * * - a d _ m v M *.m M c f f f f f f a - + . . . . + a f f f f f f f f f f f f f f f f f d v v v v M m *.;.*.M M v l f f f f d d l v v l x j s f a f h ` 3.8.8.r.y.r.w.q.q.3.2.2.2.2.2.2.2.;.:.:.:.*.v d d f f f a a f d M *.:.:.*.*.M v d f f f f ; *                                                                                                                                                                                                     ",
"                                                                  T.R.oX3XcXcXqX+XR.OX<XnXCXNXlX8.;.2.*.d - * v _ d d _ m d d v v v f = * = f f ; - ; - - - - * * ; d *.*.M M M M M v d f f f f f a - O . . . . + a f f f f f f f f f f f f f f f f f f f f f f f v M *.*.*.*.:.:.;.2.3.q.q.q.q.3.4.2.;.:.=._ / m m *.;.` ` ;.2.:.*.*.*.*.v f f f f f f f f d v v M M M M M v v v n M M m m m m m M M M M M M M f -                                                                                                                                                                                                     ",
"                                                                  L.L.OX+X1X1X=X{.C.K.&XZXSXMX1X6.5.2.2.*.f ; v *.m M m m M v d *.;.v ; X O v v ; - ; - - - - * = 5 d *.=.m v v v v v v d f f f f f ; O . . . . + a f f f f f f f f f f f f f f f f f f f f f f f f d v M M m m *.;.3.w.r.r.w.w.q.q.3.2.;.:.*.*.m m *.*./ n / *.m M M M m d = * * * * * * ; f M m v v v v v M v v v v v v v v v v v v v v v v v f ;                                                                                                                                                                                                     ",
"                                                                  I.Y.T.R.R.{.^.D.b.F.$XZXCXcX$X6.;.2.2.2.*.v v m *.*.v M *.M d *.3.;.v * * v v a - ; ; ; ; ; ; ; a d *.=.m v f d v M M v d f f f f a O . . . . + a f f f f f a f f f f f a a a a f f f f f f f f f f f d d f f v *.2.q.w.w.q.q.q.3.3.2.;.*.*.m M m m m m M M m *.*.m m *.l * + . . . . X * f *.*.v d d N N N N d d d d v v v c d d c N d d v d f ;                                                                                                                                                                                                     ",
"                                                                s.          A.c.f.j.C.&XbXvX4X[.6.5.3.2.5.2.2.M f v v d v m m M _ :.4.2.d - ; ; ; ; ; ; a f v d f f d _ =.m v v d f v v M v f f f f a O . . . . + a f f f f f a f f f f f f f f a a f f f f a f f f f f f f f f f v :.3.w.w.q.3.3.3.3.2.;.-.=.*.m M m M m m M m *.*.*.*.*.l * + . . . . . X ; *.*.v d d N N N N d d d d v v v c d d c c N N d d f ;                                                                                                                                                                                                     ",
"                                                              p.p.            z.d.d.A..X2X2X:X~.1.4.q.2.>.6.q.*.d d d f f f n *.n v 2.3.*.f + + * - - ; f m :.*.v f d *.*.M M M v f f v M v f f f f a O . . . . + a f f f f f a a f f f f f f f a a a f f f a a a f f f f f f f f d M 2.q.q.3.3.3.3.3.2.;.-.*.=.*.m M M M M M m &.*.*.*.*.d * X . . . . . . * M m v d v N N N d v v c d d d N v d N N d d c v d f ;                                                                                                                                                                                                     ",
"                                                                                g.h.A.OXU.U.I.Z.1.3.e.7.I 7.i.3.2.2.*.f * * f m v f M :.2.m O . O * - ; f ;.i.2.*.f N =.*.v v %.M v f f v v d d d f a O . . . . + a f f f f f f f f f f f f f f f f f f f f f a a a f f f f f f f d M ;.q.q.2.2.3.2.2.2.;.-.=.=.*.m v v M M M M m m *.*.*.f + . . . . . . . * M / v d v N N d d v v d d d d c v N N d f f d v d f f                                                                                                                                                                                                     ",
"                                                                                  z.A.T.Y.P.x.l.>.3.w.#.f.W 3.e.w.r.3.v ; * a v d f a d ;.*.- X + * - ; f ;.q.2.*.f v :.*.c v *.*.M d f f d v v d f a * . . . . + B f f f f f f f f f f f f f f f f f f f f f f a a f f f f f f f d m ;.3.3.2.2.4.2.;.;.;.;.=.*.*.m v v v M M M M m *.*.*.f X . . . . . . . * m _ v d d d d d d v v d d d d v v N v d f f d v d f f                                                                                                                                                                                                     ",
"                                                                                    T.T.Y.P.x.l.' 4.w.7.o.7.3.3.q.q.q.2.m v f f d f * * d M f ; * * - ; f *.<.:.M f v :.*.M *.:.*.M v f f d v v N f f - O X . . + a f f f f f f f f f f f f d f f f f f f f f f f a a f f f f f f d m <.3.3.2.2.2.;.:.;.;.;.;.=.*.*.M v N v M M M m m m m a X . . . . . . . * m _ v d d f f d d d d d d d d c v d v d d d d v d f ;                                                                                                                                                                                                     ",
"                                                                                      T.I.P.x.l.` 2.w.W.E.7.4.3.3.3.3.3.3.;.*.m v f * O ; d v d ; - - ; f v M v d f v :.;.*.:.;.:.*.M v v v M M v d f ; * X . . + a f f f f f f f f f f f d d d f f f f f f f f f f a a f f f a f d m <.3.3.2.;.;.-.*.:.;.;.;.-.*.*.m v N N v M M M M m M a . . . . . . . . * M / v c d f f d v v v v v d d d d d d v v v v v d f -                                                                                                                                                                                                     ",
"                                                                                        x.x.    *.2.w.|.[.W.2.3.3.;.;.3.q.q.w.q.*.f - = - f M M d a ; ; a f f f f a v 2.2.*.:.;.;.:.*.*.*._ m M M v f ; $ X . . + a f f f f f f f f f f d d d d f f a f f f f f f f f f f f f f f d m ;.3.3.2.;.-.*.=.*.-.-.-.=.*.*.m M v v v v v v M m M a . . . . . . . . * M m v d v d d d d c v d v d f f f d d d d v v v d a *                                                                                                                                                                                                     ",
"                                                                                                &.5.e.].[.W.2.0.6.W E 3.q.w.w.w.2.*.M v f f v m M d ; ; a a a a a a v 2.2.*.*.:.:.:.=.=.*.=.m m M v f = + . . . + a f f f f f f f f f f d v c f f f f f f f f f f f f f f f f f f d m ;.3.3.;.*.*.*.*.*.*.=.*.*.*.*.*.M M v v d d v v M M a X . . . . . . . * M m v d d d d d d d d d d d f f d d d d d d d v d a *                                                                                                                                                                                                     ",
"                                                                                                m ;.8.W.E.7.2.q.9.I I 1.0.q.q.q.q.q.q.2.M d v n _ v ; ; a a a a a a M 3.2.*.m m m m *.*.=.*.*.*.M v f * . . . . + a f f f f a f f f f f d v d d f f f f f f f f f f f f f f f a f d m :.2.2.*.*.m m m m m *.*.*.*.*.*.m m M v c c N v v M a X . . . . . . . * M m v d d d d d d d d d d d d d d c c d d d d v d a *                                                                                                                                                                                                     ",
"                                                                                                  5.3.7.j.| <.q.9.j.W 1.i.q.3.2.0.w.w.q.2.*.d f f a ; B a f f a a a v 3.3.*.m M M M M m *.:.=.*.m v f * . . . . + a f f f f f f f f f f d v v c f f f f f f f f f f f f f f f f f d m ;.2.2.*.m m M v M m m *.*.*.*.*.m m m v v v v d v v B X . . . . . . . * v m v d d d d d c d d d d d d v v c d d v v v d d a *                                                                                                                                                                                                     ",
"                                                                                        z.z.        4.W f.W ;.0.u.N.@.6.i.q.2.:.2.q.w.w.w.3.v - + O - a a f f f f f M 3.3.2.*.m m M v v *.;.=.*.m v f * . . . . + B f f f f f f f f f f d v M v f f f f f f f f f f f f f f f f f d m ;.2.2.*.m m v v v M M m *.*.*.*.*.&.m M M m M v v c ; X . . . . . . . * v M v d d d d d v d d d c d d v v d f d M M v v d a *                                                                                                                                                                                                     ",
"                                                                                                    M E #.' ;.0.u.].E.6.3.q.7.W 1.q.e.w.w.q.2.v X X ; a a f d v v M ;.q.q.2.*.m M M v M *.=.*./ M v a O . . . . + a f f f f f f f f f d d v M v f f f f f f f f f f f f f f f f f d m :.3.2.*.m M v c v v v v m m m *.*.*.m m M m M v v c ; . . . . . . . . * v m v d d d d v v d v v v d d d d c d f f v M M v a -                                                                                                                                                                                                     ",
"                                                                                                    f E 2.;.;.0.}.[./.6.4.w.7.f.W q.q.q.q.q.w.;.- * 9 ; ; f d v m :.3.q.e.3.;.m m m M m M M M M M v a O . . . . + a f d d f f f f f d d v v M v f f f f f f f f f f f f f f f f f d m ;.3.2.%.M M v v d d d v M M m m *.*.*.m m m m m M v ; X . . . . . . . * M m v d d d d v v d d v v d d d d d v d a f M M v f ;                                                                                                                                                                                                     ",
"                                                                                                      d v m :.3.u.].E.1.4.w.7.W 7.q.q.3.2.2.q.q.2.n ; = ; ; f f v :.2.3.q.w.4.=.m M m m m M v v v v f * . . . . + a d d d f f f f d d v v M M v d f f f f f f f f f f f f f f f f d m :.2.2.*.m m M M v d d v v v M m *.*.*.*.*.*.*.*.m M p . . . . . . . . * M / v d d d d v d f f d v d d c c c N d f f f v M d ;                                                                                                                                                                                                     ",
"                                                                                                        ; d *.4.9.V.N.1.4.w.W.M.9.q.q.6.>.>.3.w.y.;.= * - - - ; f m *.:.2.q.4.:.*.&.m m m M v v v v d * . . . . + a f d f f f f d c v v M m M v v f f v v v v f f f f f f f f f f d m :.2.2.*.m m m M v v N N c v M m *.*.*.*.*.*.*.*.*.m a X . . . . . . . * m _ v d d d d v d f f d d c d c c N N d v f a f v d ;                                                                                                                                                                                                     ",
"                                                                                                          f v ;.7.j.j.>.4.w.].).W.6.e.6.W W 6.r.y.:.* O * * * * - ; d m *.*.:.;.;.:.*.m m m M M M v d * . . . . + a f f f d d d d v v M m M m v v f d 5.q.:.v f f f f f f f f f f d m :.4.2.-.*.m m M M v v d N v v v m *.*.*.*.*.*.*.*.*.f X . . . . . . . * *.*.v d v d d d d d f f f d d d c d d d d d f f a 5 a                                                                                                                                                                                                     ",
"                                                                                                            f ;.1.P P >.4.w.|.[.W.3.e.9.j.I 6.r.r.;.* O * * $ * * ; a d d f v M m M v d d d d d v d f * . . . . + a f f d v v v v v m m m m m M v f d 2.w.3.;.*.M v v N f f f f f d m :.3.2.-.*.m m M m M v v N d c v M m *.*.*.*.*.*.*.*.f X . . . . . . . - *.:.v v v d d d d v d f f f d c c d d d d N v f ; ; f                                                                                                                                                                                                     ",
"                                                                                                              ;.-.g g _ 2.q.W.~.W.3.e.9.@.#.6.w.r.2.a * * O O * a N N a ; = * * * * * * * * * * - - * + . . . . + a f f c M M M m *.*.*.m m *.M v f d m 2.w.w.q.2.%.m _ v f f f f d m :.4.2.-._ m m M M M M v v d d v M m m *.*.*.*.*.*.*.f X . . . . . . . - :.5.M v N d d c d d d f a f f c c d d d d d d d d f f                                                                                                                                                                                                     ",
"                                                                                                                :.&.&.=.2.3.7.Z.7.3.e.u.E.E.8.w.y.q.M a O + + * ; d f ; * * O + + + + + X X . X O O O X . . . . O a f f d v v v M m *.m m m *.m v f f v :.3.w.r.w.2.;.;.m f f f f d m :.2.2.-._ m m M M M m M v v c v v M M m *.*.*.*.*.*.f X . . . . . . . ; 2.2.m v v v c c d d d f f f f f d c d d v d d v v f f                                                                                                                                                                                                     ",
"                                                                                                                  3.2.;.;.3.W f.W 3.e.}.[./.9.q.r.w.2.d + X + $ * ; ; ; - - * * $ * * # + X . . X + X . . . . X O a f f f f f f d v M m m m *.m v f f v *.*.2.q.w.w.q.3.m f f f f d m :.2.2.-._ m m m m m m M M v v d v v M m m m m *.*.*.f X . . . . . . . ; 2.2.m M M v v d d d d d d d f f f v v v v d d d d f f                                                                                                                                                                                                     ",
"                                                                                                                    2.M *.3.E V E 2.0.u.]./.6.i.w.r.q.M O X + # * - ; ; ; ; - * * * * * O + . . . . . . . . . + * a f f f f f f f d v M m *.*.m v f f f l M :.2.8.q.q.3.*.f f f f d M :.3.2.=./ m m m m m m m m m v v d v v M M M m m *.*.f X . . . . . . . ; 2.2.m M M M v v d d d d v d f f f N d v v d d d d f f                                                                                                                                                                                                     ",
"                                                                                                                      ; v 2.:.d m 2.i.9.E.E.6.3.q.r.r.*.* X + O * - ; a a a - * * * * * * O . . . . . . . . . O = f f f f f f f f f d v *.*.*.M v f f ; ; v *.-.;.;.2.2.*.f f f f d v :.3.3.*.m M m M M m m m *.*.m v v d v v M M M m &.*.f X . . . . . . . B 2.4.m M m m M v N d d d d d f f f c v v v d d d d f a                                                                                                                                                                                                     ",
"                                                                                                                        f M m *.:.2.4.6.Z.Z.1.3.q.r.r.*.+ . + O * - ; a f f ; = * * * * * $ O + + X . . . . . O ; f f f f f f f f f f d n M M v f f f p a l m *.*.*.*.*.v f f f f f v ;.3.3.-./ m M M M m m m m m m M v v c v v v v M m m f X . . . . . . . f 3.3.m M M m m M v v d d d c d f d d v v v d d c d f ;                                                                                                                                                                                                     ",
"                                                                                                                          ; v ;.2.;.2.1.I I 1.0.q.r.r.M X . + # * - ; a a a ; - = * * * * * * * * + . . . . . O = f f f f f f f f f f f d c d f f f f f f f v *.*.m v v d f f f f f v :.3.3.:._ m M M m m m m m m m m M v v v v v v M m m a X . . . . . . . f 3.3.*.M M m m m M v v v v d d c v d d d d d d v d a *                                                                                                                                                                                                     ",
"                                                                                                                            f d M *.2.>.E E <.0.q.r.r.m X . + $ * - - = * * - ; ; = * * * * * * * $ O + X . . X O - a d d d f f f f f f f f f f f f f f f a d *.;.m v f d v d f f f v *.3.3.-._ m v v M m M M m m *.m M M v v v v M M m m a X . . . . . . . f 3.3.m M M M m m M M M M v d d c v d d d f f d v d a *                                                                                                                                                                                                     ",
"                                                                                                                              * a v *.:.M M 2.3.q.r.r.m + . + O * - ; = * O - a a ; = * * * * * * * * O + . . . . O - f d v d f f f f f f f f f f f f f f ; f ;.2.*.v f d v d f f f v :.3.3.-._ m v v v M M m m m *.*.m m M m M m M m m M a . . . . . . . . f q.q.*.M m m m m m m m m M v v d d d d d f f d v d a *                                                                                                                                                                                                     ",
"                                                                                                                                = a v :.2.2.2.2.3.w.r.m + . . + $ ; a a a ; a a a 9 a ; * * * * * * * * O X . . . . O - f v M v v d f f f f f f f f f f f a v 2.3.*.v f f d f f f d M ;.3.3.-._ m v N v v M M M m m %.*.m M M M M M m M v ; . . . . . . . . f q.q.*.m M m m m m m m m m M v c c d d d d d d v d a *                                                                                                                                                                                                     ",
"                                                                                                                                  = f M ;.2.,.2.3.w.r.m + . . . O ; f f f f f f f f a ; - * * * * * * * $ + . . . . X O a v M M v d f f f f f f f f f f f f v *.5.;.%.c f f f f f d m ;.q.3.-._ m v N d v v M M M M &.*.*.m m m m m M M v ; X . . . . . . . f w.w.:.m m m M m m M M M M m M v v v v d d d d v d a *                                                                                                                                                                                                     ",
"                                                                                                                                    - 5 f v =.,.3.w.r.%.+ . . . + ; f f f f f d d f a ; ; ; * * * * * * * $ O . . . . + * a f v v c d d f f f f f f f f f f f a v 2.2.M d f f f f d M 2.q.8.:._ m v N N d v v M M M &.*.*.*.*.*.*.*.m M M f + . . . . . . . f w.w.:.*.*.m M M m m M M M M M M v d v v v d d v d a *                                                                                                                                                                                                     ",
"                                                                                                                                      * = a v *.3.w.w.m + . . . + ; f f f f f d d d f a a a - = * * * * * * $ + X . . X O = a f f d d d f f f f f f f f f f a - d 2.2.*.v f f f f d m 2.w.q.;.*.M v d d v d v M M M &.*.*.*.*.*.*.*.m m m f + . . . . . . . f w.w.:.*.=.*.m m M M M M M m m M M v v d c d N v N a *                                                                                                                                                                                                     ",
"                                                                                                                                        * = a M 2.w.w.M + . . . + ; f f f f f f d d d f f f a ; ; - - * * * * * O + X . + * ; f f f d d d d f f f f f f a f f f d *.*.*.v f f f f d m 2.w.q.2.*.M v d d v v v M M M %.*.*.*.*.*.*.*.*.*.m a X . . . . . . . f w.w.:.*.*.=.*.m M M M M M m m M m M v d d c N v N a *                                                                                                                                                                                                     ",
"                                                                                                                                          * - f m 3.q.M X . . . + ; f f d v d f f v v v v d f a p B ; - * * * * * O + X X O * ; a f f d v v v d f f f f f f f f d v v v d f f f f d m 2.w.w.2.*.M v d d v N v v M m m &.m *.*.*.*.*.*.*.m f X . . . . . . . f q.q.:.=.=.*.=.*.m m m M m m m m m M v v d d d v d a *                                                                                                                                                                                                     ",
"                                                                                                                                            * = f :.q.M . . . X O a f f v m v f f v v m *.M f a a a a ; - ; - * * * O + X + O * ; a a f v m %.v f f f f f f f f f f f f f a f f f d m 4.r.r.3.:.m v d d d d d d v M m m M m *.*.*.*.*.*.*.f X . . . . . . . a 3.q.:.=.=.=.*.=.*.m m m m m M M m M M M v d d v d a *                                                                                                                                                                                                     ",
"                                                                                                                                              * - *.q.M . . . X O a f a f v d f f d v M m m v d f f f f B B ; - * * $ O + . X O = ; ; a d v v M m M v d f f f f f f a a a a f f f d m 2.r.r.e.2.m v v N d d d d v v M M M M m m m *.*.*.*.f X . . . . . . . a 3.q.;.=.=.=.=.*.=.*.&.%.m M M m m m m M M v v d d a *                                                                                                                                                                                                     ",
"                                                                                                                                                * m 3.v X . X X O a a - ; f f f f f d v v m *.m v v d f f a a ; - * * * O . X + * - - ; f f f M *.*.m v f f f f a a a a a f f f f d m 4.r.y.r.2.m v N N d d d d N N v M M M M M M m *.*.*.f X . . . . . . . a 3.q.:.=.=.=.=.=.*.*.*.*.*.m M m m m m M m M v v d a *                                                                                                                                                                                                     ",
"                                                                                                                                                  d v 9 O X . X > a a * * f v v v d d v v M =.=.*.v f f f f a a ; - - - * O + + $ = - ; a f f d v M M m *.m v f a f f f f f f f f d m 3.t.tXr.2.m v N N d d N N N N v m m m M m M M m *.*.f X . . . . . . . a 3.3.-.=.=.=.=.=.=.=.*.*.=.*.m M M m m M M M M v d a *                                                                                                                                                                                                     ",
"                                                                                                                                                    * * $ X . . O B ; * * f M *.M d d d d v _ :.;.M a s d f f f f ; ; - = * O + O * = ; a f f f f f v %.*.*.m v d d f f f f f f f d _ q.uXyXr.2.m v N N c N N N N N v M M M M m M M M m &.f X . . . . . . . ; 2.3.*.*.*.=.=.=.=.=.=.=.*.=.*.m M m m M M M m M v a *                                                                                                                                                                                                     ",
"                                                                                                                                                    $ $ $ X . . + - ; ; B f *.2.%.f f f d v v *.;.v ; a d d d v N f ; - = * $ # O O * = ; a f f a f f d v v M *.*.m v d f f f f f d ;.r.iXiXy.3.m v d d d d v v v v d v v v M m m M M m m f + . . . . . . . ; ;.2.*./ =.*.=.=.=.=.=.=.=.*.=.*.m m m m m m m m M f -                                                                                                                                                                                                     ",
"                                                                                                                                                    5 a ; O . . X * ; a a f *.2.m f f f d d d m :.l * 5 d v v M M d f a ; = * * O + $ * * - a a a f f f f f v *.:.*.*.M v v d d v *.i.@XaXaXtXq.m v d d d d v v N v d d d v v M M M m m M f + . . . . . . . ; ;.2.m m *.=.*.=.=.=.=.=.=.=.*.=.*.m m m m m m m M d ;                                                                                                                                                                                                     ",
"                                                                                                                                                    M *.m - . . X $ = ; a f M *.v f f f d d c m :.f + - d d v M M M v d f a ; - * $ * $ O * - a a a f f f f f v m :.;.:.:.-.*.*.;.q.y.iXgXaXyXw.*.v d d d d d d c d d d d d v v v v M m M a X . . . . . . . ; ;.2.m M m *.=.=.=.=.=.=.=.=.=.*.=.*.m M M m m m m d ;                                                                                                                                                                                                     ",
"                                                                                                                                                    *.:.*.d * X X O * = ; a d v d f f d v v v *.;.f + - v v M M m m M v d f a ; - * * * O O * ; a a a f f f f f v m -.;.<.2.2.3.w.t.iXgXhXjXiXw.*.v d d d d d d d d d d d d d d d v v M M a X . . . . . . . ; ;.2.m v M m *.*.=.=.=.*.*.=.=.=.*.*.*.m M m M m m d -                                                                                                                                                                                                     ",
"                                                                                                                                                    *.*.m *.M * . O * * = ; f f f f d v M M M :.2.d + ; M *.*.m M M v v d d f a ; - - - * $ * * - B a a a f f f f d v =.:.2.q.r.tXyXaXjXkXhXiXw.*.v v v N N d d d d d d d d c d c c v v M a X . . . . . . . ; 2.2.v v M m m *.*.*.*.=.=.=.=.=.=.*.*.*.m m M m m f *                                                                                                                                                                                                     ",
"                                                                                                                                                    m v f c f > . O * * * = a f f d v v M M M :.2.d + ; M *.*.*.m M v v v c d f a ; * * * - - * * - a a a f f f f f d n m *.;.3.w.y.yXsXaXaXyXw.*.M v v d d d d d d d d d d d c d d d v v a X . . . . . . . ; 2.2.v v v M m m *.=.*.=.=.*.*.=.=.=.*.=.*.m m m M f *                                                                                                                                                                                                     ",
"                                                                                                                                                    v a O O + X X # * * * * a d N v M M M M M :.2.c X * v m *.*.*.m m M v v d d f ; * * ; f a * O * - B a a f f f f f f f f l v *.2.q.r.y.t.r.q.*.m M v v v v v d d N d v v d v d d d N d ; X . . . . . . . - ;.;.v d v v M M m *.*.*.*.*.*.=.=.=.=.=.*.*.m m M f *                                                                                                                                                                                                     ",
"                                                                                                                                                    m a + . X + O $ $ + O * ; f v M m M v v M :.2.d X * d m *.*.:.3.2.m v v v N d f - a m m f - * * * - B a f f f f f f f f s f l n *.:.;.;.;.2.2.:.*.m M M M v v d d d d d d d d d d d d ; X . . . . . . . - ;.;.v d d v v M m m m m *.*.*.=.*.*.=.*.*.%.m M v f *                                                                                                                                                                                                     ",
"                                                                                                                                                    m f + X + # * * O . + * ; f v M M v d d v :.2.v X * f M *.*.2.w.q.*.m M v v d d f v 2.;.d f a * + * - a a a f f f f f f f f f f f f f f f *.3.2.-.-.=.*.*.m M v v v v v v v v v v v v a O X . . X X X X p ;.:.v d d d v v M m M M m *.=.*.=.*.*.m M n n v d a *                                                                                                                                                                                                     ",
"                                                                                                                                                    M a + X + # * * O . + - ; B f f f d v v d *.2.v O * f v M *.:.2.3.q.2.M M v d f v *.,.<.-.m v ; O O * - a a f f f f f f f f f f f f f f f :.w.q.3.4.2.2.2.:.:.*.*.*.*.*.*.*.*.*.*.*.*.v ; * * * ; f d d n :.*.v v v v v v M m m m m *.*.*.m v d f a a a a a ;                                                                                                                                                                                                       ",
"                                                                                                                                                    v ; + X + * * * O . O a B - - - ; f v v f m 2.v O = f d v m *.*.2.w.q.*.m M d f M *.*.;.2.:.M f * O + * - a a a a f f f f f f f f f f f d :.q.q.3.2.2.2.2.;.:.:.:.:.:.:.*.*.:.:.:.:.:.m d ; - ; f v M m M M v f f f f f f f c v v v v M M v f a - * * * * -                                                                                                                                                                                                         ",
"                                                                                                                                                    v ; + X + = ; - * . O a - O * * - a c v d m ;.c O - d d v M m *.;.3.q.q.2.M v v d v *.-.*.&.v a * $ O O * - a a a a f f f f f f f f f f d *.<.:.m m m m m M M M M M M v a ; f v v v v v v a O + O * * * * * * O O O O O O O * * * * * - 9 a a ;                                                                                                                                                                                                                     ",
"                                                                                                                                                    d - + X O - ; ; * X O a * + O * * - f d v *.:.d O ; N v v M *.=.:.;.3.w.3.*.m M d d M m M v d ; * * * O O * - a a a f f f f f f f f f f d m =.M d d d d d d d d d d v f * X - f f f f d v a O X . . . . . . . . . . . . . . X + + + O * = ; ;                                                                                                                                                                                                                       ",
"                                                                                                                                                    - * + O * * = - * X > a - + + + + > - f M *.*.d * 9 v v M m *.;.;.-.<.3.2.2.*.M M v d d v d f ; * * * $ O O > - a a f f f f f f f f f f d M =.M d d d d v d d c c d v f * + ; f f f f f f f a * X . . . . . . . . . . . . X * ; ; ; a a f f f                                                                                                                                                                                                                       ",
"                                                                                                                                                    O + + O * ; 9 ; * X + - * X X X X + * a M *.*.d - f v M %.*.*.:.:.:.;.<.3.q.2.*.*.m d f v d f ; = * * * $ O O * ; a a f f f f f f f f f v m =.M N d d d d d c d c c v f * + ; f f f f f f v v a * X . . . . . + X . . . . + ; f f f f d c v v                                                                                                                                                                                                                       ",
"                                                                                                                                                    + + X X * f v a * X . + + X + + X + + * f M M d ; f M *.*.=.=.*.:.;.;.2.q.r.q.2.;.*.m M M v d f a ; - * * * * * = ; a f d d f f f f f d M *.=.M d d d v d v d d d d v f * X - f f f f f f v _ v a O . . . . O - * . . . . + ; f f f f f d c d                                                                                                                                                                                                                       ",
"                                                                                                                                                    X + X X + - a * + . . . O * * * O + X O - a f a ; f v M *.*.*.*.*.;.;.2.w.r.w.3.2.2.;.:.*.m v v d f ; * * * * * * = ; a f d f f f f f d M *.=.M c d d c c v v v v d v f * X ; f f d v N f n =.m f O . . . . * a * . . . . + ; f f f f f c c N                                                                                                                                                                                                                       ",
"                                                                                                                                                    X + X . . . X . . . . . * B a ; > X X + + + + * - ; a v M m m *.:.;.;.2.q.r.q.3.3.3.3.2.;.*.M M v f a = * * * * * * = ; a f d d f f f d M *.=.M c d d d c v v M v v v f * X ; f f v :.m f v =.m f O . . . X * a * . . . . + ; f f s f f c c v                                                                                                                                                                                                                       ",
"                                                                                                                                                    X X X . . . . . . . . . O * * * + . . . X X X O * * - f v M m *.:.;.2.2.w.r.q.3.3.3.2.2.:.m v d d f a - * * * = * * * = ; a f c d f f d M *.=.M c d d d d d v / M v v f * X ; f f M 3.:.d v =.m f O . . . X * a * . . . . + ; d v v f f d c d                                                                                                                                                                                                                       ",
"                                                                                                                                                    X + O + X . X . X X . . X + X . . . . . X X X O * * * ; f v m *.*.;.2.3.q.w.q.3.3.2.2.*.m v f a f f a ; - * * = * * * * = ; f d d d f d M *.=.M d d d d d d n *.m v v f > X ; f f *.q.;.d v =.m f O . . . X * a * . . . . X ; v *.m f f v v d                                                                                                                                                                                                                       ",
"                                                                                                                                                    X $ 8 t e e e q % X . . . . . . . . . . X + X + O # * ; f d v *.*.:.:.<.3.q.3.2.2.2.*.M d f a a a a a ; - * $ # * * * * = ; a f d d f d M *.:.m d d d f f d v m M N N f > X - d m *.*.M f v *.M f O . . . O ; f - . . . . X ; v ;.*.d d M v d                                                                                                                                                                                                                       ",
"                                                                                                                                                    $ q Y ] ] ] ( Y q O . X X X X X . . . X X X X X + O * ; a f d M *.*.=.-.2.3.2.;.;.*.m v f a a a a a a ; - * # + O * * * = - - ; f f f d M *.;.m v N d f f d v M v N N f > X - v *.m d f f v *.M f O . . X * 9 f - . . . . X ; v ;.*.d v *.M d                                                                                                                                                                                                                       ",
"                                                                                                                                                    e ] m.O.] ( Y x s ; - - - - - - * O O + + X + + X + O * - ; a f v *.*.=.2.2.:.*.*.M d f a a a a ; ; ; = * * $ # $ * * * * * * = 5 a f d M :.2.*.v d d f f d v v v c v f > X ; f v v f f f v *.M f O . . + * a d - . . . . X ; d v v f v *.M d                                                                                                                                                                                                                       ",
"                                                                                                                                                  F J ..M.O.] Y x d d f f f f f f f ; = = * > O + + X X X O * = - - f M *.-.2.2.*.M M v f a a a a ; - - - * * * * * * * * * * * * * = ; f d M ;.2.*.v d d f f d d d c d v f * X ; f f f f f f v *.M f O . . + - f d - . . . . + a f f f f v *.M d                                                                                                                                                                                                                       ",
"                                                                                                                                                F J ] ( ] ..} U s f f d d d f f f f f a a a a - * + . . . X O * * * ; f n =.2.2.*.M m v f a a a a B ; ; - * * * * * * * * * * * * * * - f d M ;.2.*.v d d f f d d d v v v f * X ; f f f f f f v *.M f O . . + ; d v ; . . . . + f v f f f v *.M d                                                                                                                                                                                                                       ",
"                                                                                                                                                F J ( ( ] ..} g a f f d v d d f f f f f f f f a - # X . . X + O O * * ; f m ,.3.:.M v v f a a a a ; ; - - * * * * $ # # # # * * * * * = a d M ;.2.*.c d d f f d d d d d v f * X - f f f f f f v *.M f O . . + ; v M a . . . . + f v f f f n *.m d                                                                                                                                                                                                                       ",
"                                                                                                                                                F F J +.B.O.( t ; f f d c c d d d d d d d d f f f ; $ X . . X . X $ * * ; f *.2.:.M d f f a a a ; ; - * * * * * $ + + + + + O * * * * * ; f M ;.2.*.v d d d d N d c f f f f * X ; f f f f f f n *.M f O . . + ; v m a . . . . + a f f f f M :.m v                                                                                                                                                                                                                       ",
"                                                                                                                                                D T O.G.(.N.( g p f f d d c v v v v v v v d f f f a - # X X X . X + O O * ; l m M v f a a a a ; ; ; - - * * * $ O O + X + O O O O O O O * f M :.2.*.v v d c d d N d f f d f > X - f f f f f f n =.m f O . . + ; v m a . . . . + ; f f f f m 5.*.v                                                                                                                                                                                                                       ",
"                                                                                                                                                G O._..X_.N.( g f f f d d c v v M v M v v c d d f f f - $ + + X X . . . + * = - ; a a a ; - - - - - - - - * # + + $ O + O $ O + + X . X * a v *.;.:.*.v N d v v v v d d v f > X - f f f f f f M =.m f O . . + ; v M p . . . . + ; f f f f %.2.*.v                                                                                                                                                                                                                       ",
"                                                                                                                                                O.Q.;X XG.} U d f f d d d c v v v v M v v v v v d d f a ; - * # + . . . X + + + O * * * O O O O O O O O O + + . X + + X X + + X X X X X + = d *.3.2.;.*.m M M M M M M M M v * + a v v v v v v _ =.m f O . . + ; v M a . . . . + ; f f f f *.3.*.v                                                                                                                                                                                                                       ",
"                                                                                                                                                ).*X,X(...U s f f d d d N v v M M M v v M M M v v d f f f f a - $ + + + X . . . . . . . . . . . . . . . . . . . . . . . . . X X X X X X . O a *.3.3.2.5.:.*.*.*.*.*.*.%.m v * + f M M M M M M *.;.m f O . . + ; v m a . . . . + ; f f f f *.3.:.v                                                                                                                                                                                                                       ",
"                                                                                                                                              &X7X0X5X(...g a a f d d N v v M m m m M v M M M v v d d d d f f a ; - * O + . . . . . . . . . . . . . . . . . . . . . . . . . . . . . . . . X * d *.:.*.m M v v v v v v d d f * O a v v v v c v :.2.*.f O . . + - d M a . . . . + ; f f f f :.q.:.d                                                                                                                                                                                                                       ",
"                                                                                                                                            [.1XxXxX,X^...r ; a f d d d v M m *.*.*.m M M M M v v d d d d f f f f f a = * + X . X X . . . . . . . . . . . . . . . . . . . . . . . . . . . . X * f f f f a a a a a ; - - - * + + ; f f f f f f *.3.:.f O . . X * f v a . . . X O a f f f f :.w.;.v                                                                                                                                                                                                                       ",
"                                                                                                                                          &X7XxXwX6X=XJ...r ; a f d d d v M m *.*.*.*.*.*.m M v v v d d d d d d d f f a 5 ; > X X X . . X . . . . . . . . . . . . . . . . . . . . . . . . . . + * * O O O O O O + + + X + + . + ; f f f f f f *.3.*.f O . . X * d M a . . . + * a f f f f ;.w.2.v                                                                                                                                                                                                                       ",
"                                                                                                                                        (.&X0XxX3X;X XF...r ; a f d d c v M m *.*.*.;.;.*.*.M M v v v c d d d d d f f f f f - O + + . . X . . . . . . . . . . . . . . . . . . . . . . . . . . . X . . . . . . . X X X X X X X O ; f f f f f f :.q.:.f O . . X * d m a . . . O = a f f f f 2.r.2.v                                                                                                                                                                                                                       ",
"                                                                                                                                      )._. X=X-X*X X!.B. .r ; a f d d N v M M M %.*.;.;.*.*.*.m M v v v c v v d v d f f f f f ; * O + X . . . . X . . . . . . . . . . . . . . . . . . . . . . . . . . . . . . O $ * * * * * * = a f f f f f f ;.q.;.f O . . X * f M a . . . * ; f f f f f 2.r.2.v                                                                                                                                                                                                                       ",
"                                                                                                                                    ^.).`. X X X X).J.M...x p a f d v N v v v M m *.;.;.;.:.:.*.m M M v v v d d d d d f f f f f ; = * O X . . X . . . . . . . . . . . . . . . . . . . . . . . . . . . . . . X $ = ; ; ; B B B a f f f f f f f ;.e.;.f O . . X $ f v ; . . + * 9 f f f a f ;.r.2.v                                                                                                                                                                                                                       ",
"                                                                                                                                  G.!.).`.`._.).).^.J.M...U f f f d v v d v v M m *.;.2.2.3.2.;.*.m M v v v d d d d c d d d f f f a a ; * O + . . . . X X . . . . . . . . . . . . . . . . . X . . . . . . . . O * - ; a f f f f f f f f f f f ;.e.;.f O . . X $ f v B X + = ; a f f f f f ;.r.2.v                                                                                                                                                                                                                       ",
"                                                                                                                                Q.!.Q.Q.^.(.^.^.^.^.!.B...U f f f d d d d d v M m *.;.2.2.3.3.2.:.*.m M v v v c v v v v c c d f f f f f ; = * O X . . . X . . . . . . . . . . . . . . . . . . . . . . . . . . + $ * - a f f f f f f f f f f v 3.w.5.f O . . . O a v a + * ; a a f f f v *.3.q.-.v                                                                                                                                                                                                                       ",
"                                                                                                                              Q.(.).J.D.D.H.J.Q.Q.!.!.D...U f f f d c d d d v M m *.;.2.2.2.3.2.5.:.*.M v v v v v v v v c c d d f f f f f f f ; * O X . . X X X . . . . . . . . . . . . . . . . . . . . . . . X X . > a f f f f f f f f f v *.q.w.;.f O . . . + ; v s * - a a a a a f *.w.q.;.M l                                                                                                                                                                                                                       ",
"                                                                                                                              J.).`.Q.B.N.B.F.J.J.!.Q.B...U a a f d d d d d v M m *.:.:.;.2.3.2.2.:.*.m v v v v v v v v v N N N d d d f f f f f ; - * + . . X X . . X . . . . . . . . . . . . . . . . . . . . . . . O ; f f f f f f f f v M m ,.2.v * X . . . X ; v d - ; a a a f d m ;.4.;.M v                                                                                                                                                                                                                         ",
"                                                                                                                              Q.)._.!.D.n.n.D.G.J.J.D.M. .r ; a f d d d c d v M m *.*.*.;.2.3.2.2.:.*.m M v M v v v v v v v c v v v v d f f f f f f a * X . . . . X X X X . . . . . . . . . . . . . . . . . . . . . + - a f f f f f f v _ m N c f * . . . . . X ; v d ; a a a a f v ;.:.v v v                                                                                                                                                                                                                           ",
"                                                                                                                              ^.).).Q.V.n.n.B.D.F.F.D.M. .r ; a f d N N N c v M M m *.*.;.2.3.2.2.;.:.*.m M v v M v v v v d d d d v d d d f f f f f f a * + . . . . X X X . . . . . . . . . . . . . . . . . . O + . + * ; f f f f v :.:.m f = * * X . . . . . . * d d a a a f f f d m m d d                                                                                                                                                                                                                             ",
"                                                                                                                              (.(.^.Q.D.n.n.N.M.M.D.D.M. .r ; a f d c N v N v M M M m *.:.2.3.2.2.2.;.:.*.m M v M v v v v d d d d d d d d d d d f f f f a * + X X . . X X X . . . . . . . . . . . . . . . . X * * . + * ; a f f f M q.3.v - X . . . . . . . . . * f f a a f f f d d d d d                                                                                                                                                                                                                               ",
"                                                                                                                              Q.Q.!.!.J.m.O.v.N.M.D.V.m. .r ; a f d d v N N v M M M &.*.*.;.2.3.2.2.;.:.*.*.m M v M M M v d d d d d d d d d d d d d d f f a * + X X . . X X X . . . . . . . . . . . . . . . . X X . + * - ; f f f M 3.3.v - . . . . . . . . . . * f f f f f a d *.*.v d                                                                                                                                                                                                                                 ",
"                                                                                                                              D.G.J.!.Q.m.X.+.n.m.M.N.v.} g ; a f d N N c N v M M M m *.*.:.2.3.3.2.2.:.*.*.*.m M M M M v v d d d d d d d d d d d d d f f f a * + + . . . X X X . . . . . . . . . . . . . . . . . . + # * - a f f v 2.2.v - . . . . . . . . . . * f f f f f d M :.:.v d                                                                                                                                                                                                                                 ",
"                                                                                                                              D.D.G.H.F.m.X.....O.v.O...] x f f f d d d c c v M M M M m *.*.5.2.3.3.2.2.;.*.*.*.*.*.m M v v v d v d v c d d d d c c c d d f f a = + X X . . X X X X X . . . . . . . . . . . . . . . X + * * ; f f v 2.2.v - . . . . . . . . . . * f d f f d *.;.*.M                                                                                                                                                                                                                                     ",
"                                                                                                                              M.V.D.D.V.n...] ] [ [ [ { ] x f f f d d d d c v v v M v M *.*.;.2.2.3.3.2.2.:.*.*.*.*.*.M M v v v v v v d v v v v v v v v d d f f a * O + X . . X X X X X . . . . . . . . . . . . . . . X + * ; f f v ;.:.v - . . . . . . . . . . * f d f f d 2.3.m d                                                                                                                                                                                                                                     ",
"                                                                                                                              n.B.D.D.M.n...T G J J J ( ( g ; a f d c c d d d v v v v M *.*.;.2.2.2.3.3.2.:.*.*.*.*.*.*.m v v v v v v v v v v v v v v v c d d f f a - * + X . . . . X X X X . . . . . . . . . . . . . . X O - f f l =.*.v - . . . . . . .     . * f d f f c 2.3.m d                                                                                                                                                                                                                                     ",
"                                                                                                                              n.M.D.D.B.N.O.] J F G J ( Y r 0 a f d d c d d d d v v v M m *.:.:.:.2.2.3.3.;.*.*.*.*.*.*.*.m M M M v v v v M M M m m m v v v v f f f f ; * * + . . . X X + X . . . . . . . . . . . . . . . X * a 9 f / _ v ; X . . . . . .   . . * f d f f c 2.3.m d                                                                                                                                                                                                                                     ",
"                                                                                                                                M.D.D.D.D.m.X.] G J ] T F D u s f f f d d d c c v v v v M m *.*.*.:.2.4.3.2.;.*.*.*.*.*.*.*.*.*.m M v M v v M m *.*.*.M v v v v d d f f f a * X X X . . X + X . . . . . . . . . . . . . . . * - * 9 m *.v ; + . . . . . . . . . * f d f f c 2.3.m d                                                                                                                                                                                                                                     ",
"                                                                                                                                m.N.B.D.D.M.O.[ G G Y D A D D s a f f d d c c v v v v v v M *.*.*.:.5.2.3.2.2.:.:.:.:.:.*.*.*.*.%.m m m m m m m *.*.*.m m m M v v v v d d f ; * + X . . . X + X . . . . . . . . . . . . . . + O + = m *.v ; + . . . . . . . . . * f f f f c 2.3.m d                                                                                                                                                                                                                                     ",
"                                                                                                                                v.n.m.M.S.m.O.[ J u y t q A H 0 ; f f d d d v N c c d v v m *.*.*.:.;.2.3.3.2.2.;.;.2.;.:.*.*.*.*.*.*.*.*.*.*.*.*.*.*.*.*.*.*.M M M v v c d f a * + + X . . X X X . . X X . . . . . . . . . X X . * n *.v - X . . . . . . . . . O f f f f d 2.3.m d                                                                                                                                                                                                                                     ",
"                                                                                                                                  v.n.m.M.m.O.} ( G u t q A H 0 ; f f f d d v v d c c v v M m &.*.*.:.;.2.3.3.2.;.;.2.5.;.:.:.:.*.*.:.;.;.:.*.*.:.:.:.;.;.*.*.m m m M v v N f f ; * * + . . . . . . . . . . . . . . . . . . . . . * n _ d = . . . . . .     . . O a f f f d 2.3.m d                                                                                                                                                                                                                                     ",
"                                                                                                                                    v.v.M.m.O. .[ ( F e q A H 9 ; a f f f d d N d d d v v M v m *.*.*.:.2.2.4.2.;.;.;.5.2.,.;.;.:.*.;.;.;.:.*.:.;.;.2.2.2.;.*.*.*.*.m M v v f f f a - * O + . . . . . . . . . . . . . . . . . . . * v m f * . . . . .         . O f f f f d 2.3.m d                                                                                                                                                                                                                                     ",
"                                                                                                                                    X.O.N.N.O... .] F e q w t 2 = ; a f f d c c d d d v v M M M M m *.:.2.2.2.2.;.;.5.5.2.2.;.;.;.:.:.:.:.*.*.:.;.2.2.4.3.2.2.;.:.*.*.m M v c d d f a ; ; * O X X . X . . . . . . . . . . . . . . O v M f * . .               . O f f f f d ;.2.M d                                                                                                                                                                                                                                     ",
"                                                                                                                                    X.O.m.m.O.X.X.] F e q q 8 - * - a f f d d d d d v v v v v v v m *.:.;.;.;.;.2.2.2.2.2.;.5.5.2.;.*.*.*.*.*.:.;.;.;.2.3.3.2.2.:.*.*.*.&.M v v d d f f f a = * O O O + + X X X . . . . . . . . . O d v f * X .               . > f f f f d :.2.M d                                                                                                                                                                                                                                     ",
"                                                                                                                                    X.+.v.v.+.X.} ( F D H t 7 : * - B f f d d d d d v v v v v v v m *.*.*.*.:.;.2.2.3.4.2.;.;.5.2.;.*.*.*.*.*.*.*.*.*.;.2.2.2.:.*.*.*.*.*.*.M v v d d f f f a a ; - * * * * * # + . . . . . . . . O f d a * X . . . . . . . . . > f f f f d :.2.M d                                                                                                                                                                                                                                     ",
"                                                                                                                                    X...O.O.X. .] T J G D u 7 < - = ; a f d d d d d N v d v v v M %.*.*.*.*.*.;.2.3.3.3.2.2.;.5.;.:.*.*.*.*.*.*.*.*.*.:.;.;.:.*.*.*.*.*.*.*.M v v v v c f f f f f f a ; ; ; - * # X . . . . . . . + a f ; * X . . . . . . . . . O f f f f d :.2.M d                                                                                                                                                                                                                                     ",
"                                                                                                                                    [ } ..X.X.[ J J ( Y F D u q < : = ; a f f d d N v v d v v M *.*.*.*.*.*.*.;.2.3.3.3.2.2.5.;.:.*.*.*.*.*.*.*.*.*.*.*.*.*.*.*.*.*.*.*.m M M v v v v v d d d d d f f f a ; ; - * $ + . . . . . . + ; f ; * . . . . . . . . . . O f f f f d :.2.M d                                                                                                                                                                                                                                     ",
"                                                                                                                                    T ]  .X...] G J ( J F D e 8 % $ * - a f f d d d d v v v v M m *.*.*.*.*.*.;.2.2.2.2.2.5.;.:.*.*.*.*.*.%.m m *.*.m m m m *.&.m m m m M v v v v v v v v v v v d d f f f ; ; ; ; = O . . . . . . + - ; - * . . . . . . . . . . O f f f f d :.2.M d                                                                                                                                                                                                                                     ",
"                                                                                                                                    F J } ..} ( G F G F D u 7 & O $ * - a f f f d d d v v v M M M m *.*.*.*.*.;.2.2.5.5.2.;.:.*.*.*.*.*.M M M M M M M M M M M M M M M M M v v v v v v v v v v v d d d f f ; ; f a - O . . . . . . X * - * *                   . O f f f f d :.2.M d                                                                                                                                                                                                                                     ",
"                                                                                                                                      J  ...{ ] T J F D e 8 7 q t e 0 - ; a f f d d N v v v v v v m *.*.*.*.*.:.:.:.:.:.:.:.*.m m m m m M M m m m m m M v v v v v M M v v v v d d d d v v M v v d d d f f a a f f ; O . . . . . . X O * O O                   . > f f f f d :.2.M d                                                                                                                                                                                                                                     ",
"                                                                                                                                        .. .[ ] ] T F e q q A [ X.[ F - * ; a f d d N d c d d v v m *.*.*.*.*.*.*.*.*.*.*.*.m M M M M M M m *.*.*.*.*.M M M M M M M M M v v d d d d d v v v v c c d d f f f f f a ; O . . . . . . . X + + X                   . > f f f f d ;.2.M d                                                                                                                                                                                                                                     ",
"                                                                                                                                        ..[ ( Y T J F A A R ..B.D...F - * - a f d d d d d c c v v m *.*.*.%.m m m m m m m m M M v v M m m *.*.*.m m m m %.*.*.*.m M M M M M v N v v v v v v d d d d v d d f f a B - O . . . . . . . . . . . X X . . . . . . . . O a f f f d :.2.M d                                                                                                                                                                                                                                     ",
"                                                                                                                                        ] ( J F F F F F Y m.!.).!.O.U 1 = - a f d d d d c c v v M m *.*.*.m v v v v v v v v M M M M *.*.*.*.*.m M v v m *.:.:.*.m M v v m %.M v v M M v v N c d d d d d d f a ; ; - > . . . . . . . . . . . X . . . . . . . . . O a f f f d :.2.M d                                                                                                                                                                                                                                     ",
"                                                                                                                                        J Y T J F D F ( O.G.`.=X XM.] U t ; a f f f d d d d c v v M m *.*.m v v v v v v v v v M m *.*.*.m m M M v v v v v M M v v d d d v M *.*.m M m m v v d d N d f f f a ; ; - - O . . . . . . . . . . . . . . . . . . . . . O f f f f d :.2.M d                                                                                                                                                                                                                                     ",
"                                                                                                                                        F J ( ( J J T ..D.^.&X2X=XD...[ U 2 B f f f d d d d v v v v M m *.M v v N v v d N v v M %.*.*.m M M M M M M v v v v v v N f f f f N m *.m M m m M v v d d f f f f ; ; ; - - O . . . . . . . . . . . . . . . . . . . . . O a f f f d :.2.M d                                                                                                                                                                                                                                     ",
"                                                                                                                                            J T ] ..n.N.D.^.&X2X=XD...{ D - = B f f f f d d d v v v v M M v v c v N d d v v v M %.*.m M v M m *.*.;.*.*.*.*.*.%.M v v d f f d v v M M M M v v d f f f f f ; - - - * O . . . . . . . . . . .                   . O a f f f d *.;.M d                                                                                                                                                                                                                                     ",
"                                                                                                                                            F T ..M.J.F.D.!.&X,X=XD.O...F - * ; a f f f d d d d d v v v v v c c d c d v v v M M *.*.M M M m *.:.;.2.2.2.2.2.;.;.*.M v v f f f f d v v v v v d f f f f f a a ; ; - * + . . . . . . . . . . .                   . O ; a a a d *.*.v d                                                                                                                                                                                                                                     ",
"                                                                                                                                                O.D.(.J.D.!. X;X&XV.n.m.T - * ; a f f f f d d d d v v v v d N c d d v v v v m *.*.*.M M m *.*.:.5.2.2.2.2.2.;.*.%.M v c f f f f f d v v v v N f f a ; ; ; a a ; = * + . . . . . . . . . . .                   . O - ; ; a f m =.v d                                                                                                                                                                                                                                     ",
"                                                                                                                                                O.D.^.J.D.^. X*X XG.N.N.] 0 = - ; f f f f f d d d d d d d v v v d v v v M M *.*.*.m M M *.*.*.*.;.;.;.;.:.:.*.*.m M v N d f f f f f v v v d v d f a ; - ; a a ; = * + . . . . . . . . . . .                 . . + * * * ; f m *.v d                                                                                                                                                                                                                                     ",
"                                                                                                                                                X.m.F.D.D.^. X&X X!.D.n.[ D 8 * = ; f f f f d d d d d d v v v v v v v v m *.*.*.m M M M *.*.*.*.*.*.*.*.*.m M M M v v v d d f f f f d v c v v c d f f ; ; ; ; ; - * + . . . . . . . . . . . . . . . . . . . . . X + + O - f m *.v d                                                                                                                                                                                                                                     ",
"                                                                                                                                                X.v.D.D.D.G.^.).(.J.D.n.{ G t < = ; a f f f d d d d d v v v v v v v v v m *.*.m M v v M *.*.*.*.*.*.*.*.*.m M m M M M v v v d f f f f d d d c d d f f ; ; ; - - * # + . . . . . . . . . . . . . . . . . . . . . . . . X - d m *.v d                                                                                                                                                                                                                                     ",
"                                                                                                                                                X.v.M.M.M.D.D.J.J.D.M.n.[ G e q 2 ; a f f f d d d d d v v M M v M M v v m *.m M M M M M *.*.*.*.*.*.*.;.;.*.*.*.*.*.%.M M M v d f f f f d d d f f f f ; ; ; - * # + X . . . . . . . . . . . . . . . . . . . . . . . . . * f M _ v d                                                                                                                                                                                                                                     ",
"                                                                                                                                                  O.v.m.m.M.D.F.F.D.N.v.[ G e q 2 ; ; a f f f d d d v v M M M M M M M v M m v v v M M M m m m *.:.:.:.2.2.2.;.5.5.5.;.:.:.*.m M v d f f d d d f a a a ; - - * O + X . . . . . . . . . . . . .               . . . . . . + - v *.v d                                                                                                                                                                                                                                     ",
"                                                                                                                                                    X.+.n.B.D.D.M.M.m...] F e q 1 - ; ; f f f f d N v v v v v M M M M M M v v v v v M v v v v *.;.5.2.2.3.3.3.3.3.3.3.3.2.;.:.*.m M v v v v d f ; ; - - - * * + X . . X . . . . . . . . . .                   . . . . . . + d m v d                                                                                                                                                                                                                                     ",
"                                                                                                                                                    } ..v.m.N.m.n.v...] F e q q < * - ; f f f f d d v v v v v v M M M M v v v v v v M v v v v m *.;.2.2.2.3.3.3.3.3.3.2.2.2.2.2.;.*.%.M v v d f f a - - - * $ + X . . X X X X X . . . . . .                   . . . . . . X f m v d                                                                                                                                                                                                                                     ",
"                                                                                                                                                    [ ..O.O.v.O.O...] F e q q q < * = ; a f f f d d c d d d N v v v v v v v v M v v v v v v v m *.:.:.:.;.2.2.2.2.3.2.2.2.2.2.2.5.:.*.m M v v d d f - - - * # + X . . X X X X X . . . . . .                   . . . . . . + f M v d                                                                                                                                                                                                                                     ",
"                                                                                                                                                      } ....+.O...( F e q 7 8 q < * = ; ; a f f c c c d d d c v v v v v v v v M M v v v v v M m *.*.m M M M %.;.;.2.2.;.;.:.*.*.*.m m M v v d v d f - * * O + + X . . X X . . . . . . . . . . . . . . . . . . . . . . . . X f M v d                                                                                                                                                                                                                                     ",
"                                                                                                                                                        [ .... .] G e q 8 7 8 8 < - = - - ; a f d d c c d d d d d d d d d d v v M v v v v v v M %.M v v d d v m ;.;.2.5.:.*.m v v v v v v d d d d a - * * + X X . . . X X . . . . . . . . . . . . . . . . . . . . . . . . X f v v d                                                                                                                                                                                                                                     ",
"                                                                                                                                                          { ] T G F e q 8 8 7 7 7 1 - * - ; ; a f d c c d l d d d d d v d d v v M v v v v v v M M v v d d d v m :.;.2.5.:.*.M v v v v v v d d d f a - * * + X X . . . X X X X X . . . . . . . . . . . . . . . . . . . . . X - f d d                                                                                                                                                                                                                                     ",
"                                                                                                                                                          ] ] ( ] { ] F D F H t q q - * - - - 2 f f c d v v v v v v v v v v v M M v v v v v v v v v d d v v M m m *.*.*.*.%.m M &.*.*.%.M M M v v f a - * O + + X . . + X X X . . . . . . . . . . . . . . . . . . . . . . X * a f d                                                                                                                                                                                                                                     ",
"                                                                                                                                                          ] { O.D.Q.F.....O.] D e 8 - * - - ; ; f f d c v v v c v v v v v v v v M v v N v v v v v d f v M *.*.v v v v v v M m *.;.2.2.2.;.:.;.;.:.m v a - - * + X X X + X X . . . . . . . .                   . . . . . . X * ; f f                                                                                                                                                                                                                                     ",
"                                                                                                                                                          O.n.G.`.%X_.m.v.m.} F e 8 - * - ; B a f f c c c N d d v v v v M m m m M v v v v v c d d d d v m 2.2.M d v v v M m *.;.3.w.w.q.q.3.3.3.3.2.*.v f f ; * O O + + + X . . . . . . . .                   . . . . . . . # - a f                                                                                                                                                                                                                                     ",
"                                                                                                                                                          B.G.`.-X2X&Xm.X.O.] F e 8 - * - ; f f f f c N d c d d v v v v m *.*.*.M v v v v v N f f d v d M q.w.m d v M *.*.*.:.2.w.r.r.w.w.w.w.q.3.3.2.:.M v f ; * * O + + X . . X X . . . .                   . . . . . . . O = 9 f                                                                                                                                                                                                                                     ",
"                                                                                                                                                        v.m.F. X2X4X&XD.O.O.] F e 8 - * - ; a f f f c N d d d d v v v M m *.*.*.m M M v v N d f f v v f d q.w.*.d v v M M m :.3.q.w.3.2.:.:.:.*.*.*.m v d f a a a ; * X X X X . . . . . . . .               . . . . . . . . O * ; a                                                                                                                                                                                                                                     ",
"                                                                                                                                                      n.n.O.M.`.,X5X&XF.v.X.] F e 8 % * - - ; B f f v c d d d d v v v v m *.*.*.*.*.M v v v d f f v v 9 f 3.w.*.d d d d v m ;.3.3.2.*.v v d d d d d d f a a a f f f * . . X X X . . . . . . . . . . . . . . . . . . . . . . O * - -                                                                                                                                                                                                                                     ",
"                                                                                                                                                      B.M.n.N._.=X=X`.F.n.} T F e 1 $ O * - - ; a f c d f d d d v v v v v m *.*.*.*.m v v d d d d v v f d 2.3.m d f f f M ;.;.;.*.*.v m ;.2.2.;.:.*.*.*.*.m M v v v - . . X X . . . . . . . . . . . . X X X X + X . . . . . + O * =                                                                                                                                                                                                                                     ",
"                                                                                                                                                      D.V.n.m.!. X`.^.D.O.[ T F e 1 @ + O * - - - a f f f f d d d v d d v v m *.*.*.M v v d c d d d d d v 5.2.M d f f d *.2.:.*.m m M :.q.w.w.q.3.3.2.2.2.;.*.M v v ; X . X . . . . . . . . . X X X X X X X O * O . . . . . X + # *                                                                                                                                                                                                                                     ",
"                                                                                                                                                      m.n.....D.!.!.G.N.O.[ T F e 1 @ X + O * - - ; a f f f f f d d d d v v m *.*.*.v N c d d f f f f d M 2.2.M c v v M m m v M *.2.2.2.2.2.2.;.*.*.*.*.*.M v v v d ; . . . X X . . . . . X * - p -         # * O X . . . . X + + +                                                                                                                                                                                                                                     ",
"                                                                                                                                                      m.n.....m.V.B.m.O...] J D e 1 @ X + + O * * = - p f f f f f d v v v v m *.*.m v c x M m v f f f v *.;.:.v N v M m M v v m ;.2.2.;.*.*.*.*.m m m m m m m m M M a . . . X X . . . . . O ; f d d           * O X . . . . X X + +                                                                                                                                                                                                                                     ",
"                                                                                                                                                      D.B.n.O.n.n.....} ] J H w q 1 $ X X + + + + > * - B f f f f d v v v v v M v v N x R ' 6.;.v f v *.;.*.v d f v v v v M *.;.;.*.m M M m *.:.2.2.2.2.3.i.3.3.3.2.v X . . . X X X X . . * d f a f v v v     * O + . . . . . . X X                                                                                                                                                                                                                                     ",
"                                                                                                                                                      D.D.M.n.n.O...[ ] ( F e q 8 < @ X X X X + + O * = ; a f f f d v v v v v v v d d U +.7.8.5.v d v ;.2.m d f f d d N v M ;.3.;.m v v v M *.;.2.3.3.q.q.e.q.q.q.q.M + . . X X X X X X . * f ; * - a a ;     O O + . . . . . . X X                                                                                                                                                                                                                                     ",
"                                                                                                                                                      D.B.M.M.M.m.+. .[ ( F e q < * O X X X + + * * * = - ; ; f f d v v v v v v v c d ' D.E.<.m v d v :.2.m d f f d N N v M ;.2.;.*.M v M m *.:.2.2.3.3.3.2.2.2.3.3.v O . X X X + + X + X X + X X X X + X . . + + X X . . . . . X X                                                                                                                                                                                                                                     ",
"                                                                                                                                                      N.N.N.N.m.v... .[ Y u w q % O + X + X + + O * * * = - ; a f f d v v v v v N v M ' @.#.E v N v m *.*.l a a f d v v M *.:.:.*.m &.*.m &.*.*.*.:.:.:.:.*.%.m *.*.f O . X X X X . X X X . . . . . . . . . . . X X . . . X . . X X                                                                                                                                                                                                                                     ",
"                                                                                                                                                      n.n.n.v.O...} { ] G 7 8 8 % + + + + X + + + O * * * - - ; ; f f d v d d f d x R ) U v v c v m :.m d ; * - f v v M *.:.*.M v v *.:.*.*.*.m M v v v v d f f d f - + . . X X . . . . . . . . . . . . . . . . . X . . + # X . X X                                                                                                                                                                                                                                     ",
"                                                                                                                                                      +.O.O.X...} { ( G u 8 7 < @ + + O X + O > O * - * * * = - ; f f v d f f d g U U U c d d v m *.m v a - = ; d m *.*.*.m v v M *.*._ M x x g a p ; ; ; 9 0 0 2 - * + . . X X . . . . . . . . . X + @ % : * . . X . . O * + . X X                                                                                                                                                                                                                                     ",
"                                                                                                                                                        X.X...{ ] ] J 7 7 q < * O + O * O > - ; ; a a - * * * - ; f d v v f f c x U x l N c v m :.m d a ; ; a f M :.;.;.%.v N v *.;.m l t q q 1 - = - = 2 q w w 8 - $ X . . . X . . X X X X O O O $ : 1 q s p X . X . . * = + . X X                                                                                                                                                                                                                                     ",
"                                                                                                                                                           .[ ( J F e 7 7 q < * + + O = a f v M m v a ; ; ; ; - a d v m v f f d g g d N v v v M M d a a a f d m *.*.*.*.M v M *.*.M f 9 1 i i w A F U U R ] ] T T R 8 X . . . . . . . . X % e e q t t q t l a + . . . . * ; + . X X                                                                                                                                                                                                                                     ",
"                                                                                                                                                          [ ] J D w 8 7 7 1 < * O O # - f M *.;.4.*.d f f f a ; a v m *.M f f f f f d v v v v d f a ; f f d M *.*.M v v v v *.;.M f - < t e e G } O.n.n.m.B.B.m.m.n.F X . . . . . . . . . , G G e e e q 8 s ; X . . . . * ; O . X +                                                                                                                                                                                                                                     ",
"                                                                                                                                                              G H q 8 7 4 $ $ * - - * * ; f m 2.3.3.;.m v f a ; a v m *.M d a a f d c d f f v f ; ; a f v M m *.m v N v v m m v f - < w T ] ] ..N.D.F.J.Q.!.Q.Q.Q.Q.T X . . . . . . . . . o , , % % % @ @ > + . . . . . * - + . X +                                                                                                                                                                                                                                     ",
"                                                                                                                                                              F H q 8 7 & + + * - ; ; - * ; v :.3.q.q.:.v f a ; a v m *.m v f a f f d f ; a d f f f v v M m m v v v v v m m v f 2 < q K X.m.n.B.H.Q.!.(.)._._._.`.).| X . . . . . . . . . . . . . . . . . . . . . . . . $ * + . X X                                                                                                                                                                                                                                     ",
"                                                                                                                                                                  q q 8 % + . X + * d v a - a v :.3.i.*.f ; ; - f M *.:.*.v d f a B ; ; - a d v M *.*.*.m M v v M *.*.%.m M f ; 0 H G { N.D.D.H.!.^.(.'.`. X&X&X&X_.[ o . . . . . . . . . . . . . . . . . . . X . . . . O * + . X X                                                                                                                                                                                                                                     ",
"                                                                                                                                                                  D S A 8 $ X . . O d v f - - f v *.:.v a ; - ; f M *.:.*.m m m d a a ; ; a d M *.;.;.*.M v c v m :.:.*.v d 0 0 D ( ..m.D.G.G.!.(.)._.`. X%X*X*X*X X} o . . . . . . . . . @ 1 1 1 1 1 , , , % O X . . . + O X . X X                                                                                                                                                                                                                                     ",
"                                                                                                                                                                  } [ ] D 1 @ . . + ; f f B ; ; a f f a ; ; ; - a d M *.:.;.2.2.*.v d f a f d m :.;.*.M v c v m *.*.*.M f ; r T ( } M.G.J.J.J.!.(._.`. X%X%X%X%X*X.X..o . . . . . . . . . w O.N.n.n.O...[ { R - O X . . X + . . X X                                                                                                                                                                                                                                     ",
"                                                                                                                                                                  ......K w % . . + * a d d ; - - - * - - - - - B f v m *.;.3.3.*.v d f f f v *.:.*.M v v v m m m M v f 9 8 F [ } +.D.Q.!.!.Q.^._. X X%X*X*X*X*X;X%X..o . . . . . . . . . F Q.'.!.!.J.D.V.D.} 0 O + . . X X . . X X                                                                                                                                                                                                                                     ",
"                                                                                                                                                                  [ } X.K q % X X + # ; v v a - ; ; ; ; ; - - - ; a f v m *.;.;.m d f f d v m *.*.M v d v *.:.m v f a = 0 D T [  .O.B.J.^.!.Q.^.`. X%X%X*X;X;X;X-X=X#.o . . . . . . . . . D ~.).!.Q.G.D.D.D.} 1 O + . . X X . . X X                                                                                                                                                                                                                                     ",
"                                                                                                                                                                  T ] } K q % + X + O = s d d f f d v v f a ; - ; a f v m *.*.m v f f f v *.2.;.*.M c v m *.*.v f 5 2 8 H T ]  .O.m.D.J.!.!.J.!._. X*X*X;X-X-X-X2X-X#.o . . . . . . . . . 1 R | T T R R R R r $ + X . . . . . . X X                                                                                                                                                                                                                                     ",
"                                                                                                                                                                  F J ] K q % + + + $ * * a M m M :.2.*.v f a ; ; a f v m *.M v f f d v *.;.3.2.*.M v M *.m v f a = 0 D T ]  .+.m.D.G.J.J.J.G.Q.(. X%X;X-X,X,X2X2X,X@.o . . . . . . . . . X X X X X X X X X X . . X . . . . . . X +                                                                                                                                                                                                                                     ",
"                                                                                                                                                                  e D J F q % $ * * * * $ a m :.;.3.i.2.m v f a ; ; f v v v v d f f v *.2.4.2.*.M M m m m v f a - * 0 Y [ ..O.m.D.G.J.J.J.G.D.G.!.`.%X;X-X,X2X2X3X,X@.o . . . . . . . . . . . . . . . . . . . . . . . . . . . . . % F                                                                                                                                                                                                                                   ",
"                                                                                                                                                                  q e D A q < * - ; - * * 5 M :.2.3.3.5.*.v d f a ; a d d d d d c v m ;.3.2.*.M v M *.m v f a ; = - e ]  .X.m.D.G.J.J.J.J.G.D.F.Q._.&X*X-X,X2X3X4X,X@.o . . . . . . . . . X @ @ @ @ @ @ @ @ @ X . . . . . . . . . < T }                                                                                                                                                                                                                                 ",
"                                                                                                                                                                    q e q 7 - * * * - - * - f M :.2.;.*.m m M v d a a f f f f f v %.:.;.5.*.M M m m M v f a ; * 2 D Y ]  .X.m.D.G.Q.J.J.J.J.G.G.J.). X%X;X,X2X2X3X2XN.o . . . . . . . . . q O.N.n.n.n.N.N.N.T @ . . . . . . + + + < ] O...                                                                                                                                                                                                                              ",
"                                                                                                                                                                      q 8 7 & $ + + ; a - * - f M m m M v M m M v f a a a a a f v *.;.:.*.M v M m M v f a ; = = t ( { [ } ..n.D.F.J.J.J.J.J.J.J.Q.(. X&X*X-X,X,X3X2XN.o . . . . . . . . . R  X*X*X*X*X*X;X;XV., . . . . . . O O + 1 ..n.O.X.                                                                                                                                                                                                                            ",
"                                                                                                                                                                      q q 8 % + X O a f ; - - ; f f f f d d d v v d f ; ; a f d v m *.*.M v m M d d f a ; * - q F ] [ ] [ } n.M.D.F.J.J.J.J.J.J.Q.(. X&X*X;X-X,X5X,X@.o . . . . . . . . . R  X;X*X*X;X-X,X,XE., . . . . . . X + X 1 O.D.N.O.[                                                                                                                                                                                                                           ",
"                                                                                                                                                                      , 1 1 % > + + - f f a ; - - - - B a f f f f f f ; ; a f v v m m m v M *.M f f a ; = : < H J ] { ] ] { O.M.M.D.G.Q.!.!.!.Q.!.). X&X%X*X;X-X2X,X@.o . . . . . . . . . e N.F.V.V.F.E.E.~.} @ . . . . . . X X . q n.J.D.n.} [                                                                                                                                                                                                                         ",
"                                                                                                                                                                      O $ : ; 5 * + + - v v a - ; - ; ; ; a a a ; ; ; - - ; f v m m v v m *.*.M f a ; = : < q H J }  .[ ] { O.M.M.D.G.!.).).(.^.(.'. X X%X%X*X;X2X-X@.o . . . . . . . . . o , , , , , , < < % X . . . . . . X X . q N.J.D.m.O...]                                                                                                                                                                                                                       ",
"                                                                                                                                                                      X + # ; f ; * + * d v ; - ; B a a a f f a a ; ; - - ; f v *.*.v v *.*.M v f p - = < 1 w H J } ..} [ [ O.B.D.F.J.!._._.).)._.`. X.X.X%X*X;X2X-X@.o . . . . . . . . . . . . . . . . . . . . . . . . . . X X X t M.!.G.D.m.O.} ..                                                                                                                                                                                                                    ",
"                                                                                                                                                                      + X + - f f a * * a f ; ; a f d d d d d d f f ; ; ; a v %.*.m v v m M d f f ; * < q q w D J ] ..O...{ O.D.G.J.J.!.(.).(.).`. X.X.X%X%X*X;X,X,X@.o . . . . . . . . . . . . . . . . . . . . . . . . . X X X X t D.(.Q.G.D.m.O.v.O.} ]                                                                                                                                                                                                               ",
"                                                                                                                                                                      a * + - d d f - * = 9 f v v v v m *.*.m M v f f f a f v m m M c c v v f f a - * < q e A J ( } O.n.n.O.m.D.G.J.J.Q.!.!.!.!.(.`. X:X%X%X*X*X-X-X@.o . . . . . . . . . . . . . . . . . . . . . . . . . . X X . t G.`.(.^.!.H.D.B.n.X.} [                                                                                                                                                                                                             ",
"                                                                                                                                                                      v a # a v v f a - * a M *.*.m m ;.4.2.;.*.m v d c f f d v v d f f d d f a ; * : < q A G ( } O.m.M.M.M.M.D.G.J.J.J.J.J.G.H.Q.). X&X%X%X%X*X;X;XO.o . . . . . . . . . . . . . . . . . . . . . . . . . . X X . e Q.%X X`.`.).^.J.D.n.O.} [                                                                                                                                                                                                           ",
"                                                                                                                                                                      ; a f d v v n v f a f v m *.:.;.3.q.3.2.;.:.*.*.m v f f f d f a f d d f 5 = - < t A D J ] ..n.B.F.G.F.F.G.J.J.J.J.J.J.G.J.!.(._..X%X*X*X*X-X=XO.o . . . . . . . . . . . . . . . . . . . . . . . . . . . . . r ^.=X&X X X`._.(.Q.D.n.X...O...[                                                                                                                                                                                                     ",
"                                                                                                                                                                      . ; n v f v *.m M v v d v m :.2.3.q.3.3.2.;.;.:.*.v f a f f f ; ; f d f ; * < q A F F J ] ..N.F.J.Q.Q.J.J.J.J.Q.Q.Q.Q.Q.!.(.(.). X*X;X;X;X-X;XO.o . . . . . . . . . . . . . . . . . . . . . . . . . . . . . S ).-X*X&X X X`._.^.J.D.n.n.n.X.{ [                                                                                                                                                                                                   ",
"                                                                                                                                                                        * ; ; ; s v _ *.:.m f a d m ;.3.q.3.2.2.:.&.M v d a a a a ; = - f f f ; * < q A F Y ( ] ..N.F.J.!.^.!.J.J.Q.!.^.^.^.^.(.(.(.). X%X;X;X;X-X;X#.X . . . . . . . . . . . . . . . . . . . . . . . . . . . . . D [.2X;X%X&X X`._.(.!.Q.D.B.B.n.X.} ]                                                                                                                                                                                                 ",
"                                                                                                                                                                          X + * ; f n -.3.;.d 5 a d m ;.2.;.*.:.*.v d f a ; ; a ; - * = a f f ; * < q H J ] { } O.M.F.J.^.(.!.Q.J.Q.^.(.(.).).).).(.). X%X;X;X;X-X;XN.8 X . . . . . . . . . . . . . . . . . . . . . . . . . . . . D [.2X-X=X*X X`._.).).(.J.G.D.B.n...}                                                                                                                                                                                                 ",
"                                                                                                                                                                            X + * a f m 3.i.*.d f a f f d d d d d f f a - * - ; ; - * * ; a f ; * , q F ] } ..n.M.F.J.J.!.(.(.^.Q.J.Q.!.(.)._.`._.).). X%X;X-X;X-X;X&XE.D . . . . . . . . . . . . . . . . . . . . . . . . . . . . r [.2X-X;X;X&X`.`.`.`._.(.Q.G.D.B.n.X.} ]                                                                                                                                                                                             ",
"                                                                                                                                                                              = = - ; v 2.3.2.*.d a ; ; ; a a a a a a ; = * * * - - * * - ; a ; * < e K { ..v.M.F.J.J.J.!.^.(.(.!.Q.Q.!.).`. X X X X X X%X*X;X;X;X;X2X-XN.q o . . . . . . . . . . . . . . . . . . . . . . . . . 1 #.&X2X-X-X;X%X X X`.`.`._.!.J.H.H.V.n...}                                                                                                                                                                                             ",
"                                                                                                                                                                              n a * - a v :.q.3.M d f f f f f f f a a a - * O O * * O O * ; ; = * 8 D T { X.n.M.D.J.J.J.Q.!.^.(.(.(.(.(._. X&X%X%X=X-X*X%X*X*X*X*X;X-X-X&XE.e . . . . . . . . . . . . . . . . . . . . . . . . , N.&X,X5X,X-X;X*X&X X`.`.`.`._.(.^.!.J.V.n.X.} ]                                                                                                                                                                                         ",
"                                                                                                                                                                            v l f 9 - - a M 2.:.v f a a f f f f f f f a ; - O + O O + + * - - = * 0 e F T } O.M.D.F.J.J.J.J.!.^.(.(.(.)._. X&X%X*X;X-X*X%X%X%X*X;X;X;X;X,X*Xn.F U t X . . . . . . . . . . . . . . . . . 1 D D | oX3X3X2X,X,X-X;X*X&X X X X X`._.).(.!.J.V.n...}                                                                                                                                                                                         ",
"                                                                                                                                                                              * f v 5 = 9 f d s ; * = ; f f f d d d d f f a * + X + X + * * - ; - = - 8 A T ..m.D.D.F.J.J.J.J.!.^.(.(.(.)._. X:X%X*X*X*X%X%X*X;X;X-X;X;X-X;X&X[.&XE.1 . . . . . . . . . . . . . . . . @ } [.&X&X-X2X2X2X,X,X,X-X;X*X%X%X&X X`.`._.(.(.^.J.V.n.X.} ]                                                                                                                                                                                     ",
"                                                                                                                                                                              + - f f a ; f l v d f ; - ; a f d v n m *.m v - X X + + O * * - ; p - * < w K ..n.M.M.F.J.J.J.J.Q.!.^.(.(.).`. X&X*X*X*X*X*X*X*X;X;X;X;X;X;X-X-X2X2X&X@.T T T T | | T | | | | | | | | T | !.,X2X2X2X,X,X2X3X5X,X-X;X;X*X*X%X.X X`._.(.(.(.!.J.V.n...} [                                                                                                                                                                                   ",
"                                                                                                                                                                                + * f v a f m -.:.m d 5 - a f d v *.<.3.2.*.a + X + # * * * - a f ; * < w K } O.n.M.F.J.J.J.J.J.J.!.^.).`. X.X*X;X-X=X;X;X;X;X*X%X*X*X;X;X-X-X-X-X-X=X=X=X=X=X=X=X=X=X-X<X<X<X<X-X=X=X=X=X;X;X-X,X,X,X3X9X4X2X-X;X;X;X*X%X%X&X X_.).(.(.(.^.J.V.n...} [                                                                                                                                                                                 ",
"                                                                                                                                                                                  O 9 f d d v m *.*.*.M v M m &.*.:.2.3.3.;.d * + + * * * * * ; f ; * < w F T ( } N.D.F.G.J.G.F.J.Q.(.).`. X.X*X-X2X3X,X-X-X;X*X%X%X*X*X*X*X;X;X=X-X,X2X2X2X2X2X5X5X3X4XeXeXeXeX4X4X3X2X2X-X-X-X,X,X,X3X4X4X2X,X-X-X;X;X*X*X%X&X X_.).(._._.^.J.V.n.....O...                                                                                                                                                                            ",
"                                                                                                                                                                                    * ; d v f f M *.:.:.;.;.;.;.;.;.2.2.3.2.M ; O + # * * * * ; f ; * < q H F F ] m.B.S.F.J.F.D.G.Q.^.).`. X.X%X;X5X4X3X,X-X;X*X%X%X%X%X%X%X;X;X;X;X-X-X-X-X-X-X,X,X2X3X3X3X3X3X3X3X3X2X,X,X-X-X,X,X,X2X3X3X3X2X,X-X-X;X;X*X%X%X:X`._.)._.`.).!.H.V.n.v.O...{                                                                                                                                                                           ",
"                                                                                                                                                                                    * - 9 a a f d v v m *.:.:.;.;.;.;.;.;.:.m f * X + O O O * ; f p = 1 q H G Y [ n.N.M.D.F.F.F.F.F.Q.^.).`. X:X*X-X2X2X,X,X-X;X*X%X%X%X%X%X*X*X;X;X;X;X=X;X;X-X-X,X,X2X2X3X3X3X4X6X4X5X2X,X,X,X,X,X,X2X2X2X2X2X,X,X-X-X;X;X*X%X.X X`._._.).).(.!.J.V.m.v.O...} ]                                                                                                                                                                       ",
"                                                                                                                                                                                    ; = * * ; a f f f d M m *.*.*.*.*.%.%.m v f * + X X X + * ; a a ; 1 q A G ( { X.n.M.M.S.F.G.D.D.G.!.^.).`. X.X*X;X-X,X,X,X-X*X%X%X%X%X%X%X%X;X;X;X;X;X;X;X-X-X-X,X,X2X3X3X3X4X9X9X4X2X,X,X,X,X,X,X,X,X2X2X2X2X2X,X-X-X;X;X*X&X X X`._.).).).).^.J.V.n.n.n...{                                                                                                                                                                       ",
"                                                                                                                                                                                    7 6 * * * ; f f f f d v v n v v v v v d d f ; * O X + + * - ; a a ; < e G J T [ O.M.D.M.D.D.F.G.J.J.Q.^.).`. X.X%X;X-X,X,X-X*X%X.X%X%X%X%X%X;X;X*X*X;X;X;X-X;X-X-X,X2X2X2X3X4XqXqX9X3X,X,X,X,X,X,X,X,X2X3X3X3X2X,X,X-X-X;X;X*X&X X`.`._._.`.`._.^.H.V.B.B.n...} ]                                                                                                                                                                   ",
"                                                                                                                                                                                    7 7 6 - ; ; ; ; ; ; ; a f f f f a ; ; ; ; - - * + X X + * * - a a - - e F F J ] ..m.M.M.M.D.G.J.J.J.J.!.^.)._. X.X*X;X-X,X-X;X%X%X.X%X%X%X*X;X;X*X*X*X;X;X;X;X;X-X-X,X,X2X3X4X9XqX9X3X2X,X,X2X2X,X,X,X2X3X4X3X2X,X,X,X-X-X;X;X*X&X X X`.`.`.`._.).!.J.H.G.B.n...{                                                                                                                                                                   ",
"                                                                                                                                                                                    y y y h l f * O O O O O * * * $ O O O O O O O + X X + + * * * - ; * - e F F J ] ..O.m.S.M.D.G.J.J.J.J.J.Q.^.).`. X.X*X;X-X-X;X;X*X%X%X%X%X*X;X;X*X%X%X*X;X;X;X;X;X-X-X,X,X2X3X4X9X9X4X3X2X2X3X3X2X,X,X2X3X4X3X2X,X,X,X,X-X-X;X;X*X&X X`.`.`.)._.`.).(.^.!.H.B.n...{ ]                                                                                                                                                               ",
"                                                                                                                                                                                    y j z n v f * * - - - - ; a a ; ; ; - - - - ; - - * O O * * * * - * : q H A F T [ X.v.N.M.D.F.G.J.J.J.J.J.!.(.).`. X.X*X*X*X;X;X*X%X%X%X%X*X*X*X*X%X&X%X*X;X=X;X;X;X-X,X,X,X2X3X6XqX9X4X3X2X3X3X2X2X2X3X3X3X3X2X,X,X,X,X,X-X-X;X;X*X&X X X`._._.`._.).(.(.!.H.B.n...}                                                                                                                                                               ",
"                                                                                                                                                                                    y k =./ f ; a f v M M m m / / m m m m m m m M M v d = $ * * * = - * : 8 q q e F ( X.O.n.N.M.D.D.G.J.J.J.J.!.(.).).`. X.X%X%X*X;X*X%X.X%X%X%X*X*X%X%X%X%X%X*X-X;X;X;X-X,X,X,X2X3X6X9XqX9X4X3X3X3X3X3X3X3X3X3X3X2X,X,X,X,X,X,X-X;X;X;X*X&X X`.`.`.`._.).(.(.(.!.H.B.n...{ ]                                                                                                                                                           ",
"                                                                                                                                                                                    y k -.*.f ; 5 f d d d l v v v v v v v v v v v v v d 9 - - - - ; ; a 9 8 q t u G ] ..O.O.m.N.M.D.F.F.F.G.J.!.!.(.(.).`. X X X&X*X*X*X%X.X%X%X%X%X%X%X%X%X%X*X=X;X-X=X-X-X,X,X2X2X3X4X6X6X3X3X3X3X3X4X4X4X3X3X3X3X2X2X2X2X,X,X,X;X;X=X*X*X&X X X`.`.`._._._._.).!.H.B.n...}                                                                                                                                                           ",
"                                                                                                                                                                                    y k -.*.f ; * * * O O * = = = = = = = = = = * - a f a a a a a a f d l t q y U ( } ..O.v.v.n.N.B.D.D.D.F.J.J.Q.^.(.(.).`. X`. X.X*X;X*X.X.X.X.X%X%X%X%X*X;X;X-X-X-X-X;X;X-X,X,X2X2X2X3X3X2X,X,X2X3X4X9X6X4X3X3X3X3X3X3X2X,X,X,X;X*X*X=X;X*X&X X`.`.`.`.`.`.`.`.).!.H.B.n...{ ]                                                                                                                                                       ",
"                                                                                                                                                                                    y k =.*.f ; - * $ X . $ = = * * * * = - - - * = ; a a ; ; ; B ; a c M x g u U ] }  .O.m.n.n.N.M.M.D.F.G.J.!.!.!.!.(.)._._._.`. X&X&X%X.X.X.X.X%X%X%X%X*X-X;X*X*X=X;X;X;X-X,X,X,X,X,X2X2X2X,X,X2X3X4XqX9X6X6X4X4X3X3X3X2X,X-X-X-X;X*X*X*X*X&X X`.`.`.`.`._._._._.).!.H.B.n...} ] ]                                                                                                                                                   ",
"                                                                                                                                                                                    y j _ m d f f ; * + X - f f f f f f f f f f ; - - - ; ; a ; - ; 9 d v v x U J ] ] [ O.N.n.n.N.B.M.D.G.J.J.!.(.!.Q.^.(.(.(.(._.`. X X X.X.X.X.X%X%X%X%X*X;X;X*X*X*X=X;X-X-X,X,X,X,X,X,X,X,X,X,X2X3X4X9XqXqXqX9X4X4X3X3X2X,X-X-X,X-X;X*X*X*X%X X X X`.`._.).(.).`.`.).!.H.B.n...{ [ [                                                                                                                                                 ",
"                                                                                                                                                                                    y j m n h x m N ; * * f m :.2.q.q.3.;.%.m m f - - - - f m d - 9 s s s s r D J ] [ [ ..v.O.O.M.D.D.S.D.G.J.!.!.Q.J.Q.!.!.!.(.).`.`.`. X X.X.X.X%X%X%X%X*X;X;X;X;X*X*X*X;X-X-X,X,X,X,X,X,X,X2X2X3X3X4X4X9XqXqXqX9X6X4X3X3X,X-X-X-X,X-X;X*X;X*X&X.X&X X`.`._._._.`.`.).(.!.H.B.n.......} ] ]                                                                                                                                           ",
"                                                                                                                                                                                    y j n b h ^ ;.m f ; a n ,.q.y.yXyXt.e.2.2.:.d ; ; B - v 2.m ; 0 j s 9 8 t A G ( ] ] } ..X.O.M.D.D.M.M.F.J.J.J.J.J.Q.Q.Q.!.(.).`.`.`.`.`. X.X.X%X%X%X%X*X;X;X;X;X;X*X*X;X-X-X-X,X,X,X,X,X,X2X3X3X3X3X3X4X9XqXqX9X9X4X3X3X2X-X;X;X-X,X-X-X;X;X*X*X%X&X X X`. X X X`.).(.(.!.H.B.n.n.n...{ { {                                                                                                                                         ",
"                                                                                                                                                                                    y j n v s m 2.*.f ; a v <.w.uXaXiX}.w.3.2.*.f a v v a v 2.*.a s j j 0 s g t A G ( ] [ }  .+.m.D.D.M.M.D.J.J.J.J.Q.!.^.^.^.(.).)._.`._.).`. X.X.X%X%X%X*X*X*X*X;X;X;X;X;X;X;X-X-X,X,X,X,X,X,X2X2X3X3X3X4X4X9X9X9X4X3X3X3X3X,X-X;X-X-X,X,X-X;X;X*X%X%X&X X X X:X X`.).(.(.(.!.H.V.B.M.n.......{                                                                                                                                       ",
"                                                                                                                                                                                    y j n v d m 2./ f ; a v <.w.uXaXpXt.w.3.<.*.f a v v a v 2.:.d h j j j h d q w D Y ] [ [  .+.n.M.M.B.M.D.G.J.J.J.Q.^.(.(.(.(.^.^.)._._.)._. X X.X.X%X%X%X%X%X%X*X;X;X;X;X;X;X;X;X-X,X,X,X,X,X,X2X3X3X3X3X3X4X9X4X4X4X4X3X3X2X,X-X;X-X,X,X-X;X;X;X%X%X%X&X X&X&X X`._.).(.).).!.H.H.G.M.n.n.O...{                                                                                                                                     ",
"                                                                                                                                                                                    y j n M M / -.n f ; f n <.w.uXaXpXt.w.3.<.*.f ; a a - v 0.2.z j j j j     q w D Y ] [ [  .X.+.v.M.S.B.S.D.F.J.J.Q.^.(.(.(.!.Q.Q.^.)._.`.`.`. X X.X.X%X%X%X%X%X*X*X*X*X*X*X;X;X;X-X-X-X-X,X,X,X,X2X2X3X3X3X4X4X9X9X9X9X4X3X3X2X,X-X-X,X,X-X;X;X;X%X%X%X%X&X X X X`.`._.).)._.).^.^.!.G.V.D.N.O...[ ] ]                                                                                                                               ",
"                                                                                                                                                                                    y j n m m *.=.M d f d m <.w.yXjXaXt.w.3.<.=.v f f f d *.3.<.! ~ j j y     q q A F ( ] [ }  .X.+.m.M.M.D.D.G.J.J.Q.!.^.(.^.Q.J.!.!.(._. X`.`.`. X.X.X.X.X.X%X%X%X%X%X%X*X*X;X;X;X;X;X;X-X,X,X,X,X,X2X3X3X3X3X3X4X9XqX9X4X3X3X3X,X,X-X,X,X-X-X;X;X*X*X*X*X%X&X X X X X`._._.`.`._.).(.!.J.J.G.N.O...} } }                                                                                                                             ",
"                                                                                                                                                                                    y j n m M *.;.*.M v M _ <.w.yXhXjXtXw.3.;.=.*.*.*.:.;.2.;.` ! Q j j y     q q q e F ( ] [ {  .X.v.m.M.D.G.J.J.J.J.Q.!.(.^.Q.!.^.(.(._.`.`.`.`. X.X.X.X.X.X%X%X%X%X%X%X=X;X-X;X;X;X;X;X-X,X,X,X,X,X,X2X2X2X3X3X4X4X9X9X4X3X3X3X2X,X,X,X,X,X,X-X;X;X;X;X*X%X%X%X%X&X X`.`.`.`.`.`._.(.(.(.(.!.G.N.O.O.O...[                                                                                                                           ",
"                                                                                                                                                                                    y j n m m / =.` / m _ *.<.w.yXhXhXuXw.3.2.;.;.;.;.2.4.2.-.^ ! Q j j y       q q e F T ] [ [ } ..O.n.M.D.F.J.J.J.G.J.Q.(.(.Q.!.(.(.(._.`. X`.`. X X.X.X.X.X%X%X%X%X%X*X*X;X;X;X;X;X;X-X-X,X,X,X,X,X,X,X2X2X3X3X3X4X4X6X4X4X3X3X2X2X2X2X2X2X2X,X-X;X;X;X*X%X%X%X*X%X.X X X`.`.`._._._._._.).(.!.G.N.N.m.O...{                                                                                                                         ",
"                                                                                                                                                                                    y j n m M n ! ^ *.*.*.=.<.w.yXhXhXiXr.3.2.,.;.;.-.-.;.;.-._ ! Q j j y         q e D T ] ] ] ] } O.n.M.S.D.F.J.F.D.G.Q.^.^.Q.!.(.(.(._.`.`.`.`.`. X X.X.X.X.X.X.X%X%X%X%X*X;X;X*X*X;X-X-X,X,X-X-X,X,X,X2X3X3X3X3X3X4X4X9X9X4X3X3X2X2X2X3X3X3X,X,X-X;X-X*X*X%X%X%X%X%X&X X`.`._.)._.`.`.`.).(.(.!.G.D.D.N.O...[ ] [                                                                                                                   ",
"                                                                                                                                                                                    y j n m n z k ^ *.*.=.=.<.w.yXhXhXiXy.3.2.;.*.M / *.*.-.:.=.` ! j j y         q q e F T ] [ ] } O.n.M.S.B.D.F.D.D.G.Q.!.!.J.!.(.(.(.)._._._.`.`.`. X X.X.X.X.X%X%X%X%X%X*X*X*X*X*X*X;X-X,X,X-X-X,X,X,X2X2X2X2X3X4X4X6X6X4X4X3X3X2X,X3X3X3X2X,X,X,X-X-X;X*X*X*X*X%X%X%X&X X`._._.`.`.`.`._._.).(.!.!.Q.D.N.O.......[                                                                                                                 ",
"                                                                                                                                                                                    y j n n z Q ! ^ *.*.*.=.<.w.yXhXhXiXr.3.2.:.v f v m m *.;.;.=.` k j y         q q q e F T ] ] } X.n.M.S.M.M.B.M.D.G.J.J.J.J.!.(.(.(.(.(.(.)._.`. X X X X.X.X.X%X%X%X%X%X%X*X*X;X*X%X*X-X,X,X-X-X,X,X,X,X,X,X2X3X4X9X9X4X3X3X4X3X3X2X3X3X2X,X,X,X,X,X-X-X;X;X;X*X%X%X%X%X&X X X X`.`. X X`._.).(.(.(.(.Q.D.N.n.n.O.} [                                                                                                               ",
"                                                                                                                                                                                    y j n n z Q ! ^ *.*.*.=.,.q.yXhXhXyXw.3.2.:.v f d v M *.2.2.-.^ k j y           q q q e F T ] { } ..n.N.M.M.M.M.D.G.J.J.Q.!.(.(.^.!.^.(._._._._. X X X X X.X.X%X%X%X%X%X*X*X;X;X*X*X*X;X-X-X-X-X,X,X,X,X,X,X2X3X4X4X4X4X3X3X4X9X4X4X4X3X2X,X,X,X,X,X,X-X;X;X;X;X*X*X%X%X%X&X:X:X X X X X X_.).)._._.(.^.Q.D.B.B.m.X...[                                                                                                             ",
"                                                                                                                                                                                    y j n n z Q ! ^ *.*.*.=.;.q.uXhXjXtXw.3.2.:.v f d v M :.3.3.-.^ k j y             q q q e F T ] ] } O.m.M.S.M.M.D.F.J.J.Q.^.(.(.!.Q.!.)._.`.)._. X.X X`.`. X.X.X%X%X%X%X*X;X-X-X*X*X*X;X-X-X;X-X,X,X,X,X,X,X2X2X3X3X3X3X3X3X4X9XqX9X4X3X2X2X,X,X2X2X,X,X-X;X;X;X;X*X%X%X%X%X*X%X X X&X&X X`.)._.`._.).).(.Q.G.G.D.m.O.} [                                                                                                           ",
"                                                                                                                                                                                    y j n n z Q ! ^ *.*.*.=.;.q.uXhXjXtXw.3.2.;.M d v v M ;.q.3.-.^ k j y               q q q e F Y ] } ..v.M.D.M.M.B.D.F.J.Q.!.^.(.!.Q.!.(.)._._.`..X.X X`.`. X X.X&X%X%X%X*X*X;X;X*X*X*X-X-X-X-X;X-X,X,X,X-X,X,X2X2X2X2X3X3X3X4X4X9XqX4X3X3X2X2X2X3X2X,X,X,X-X;X;X;X*X%X%X%X%X*X*X%X:X X X&X X`.`.`.`._.).(.^.!.!.Q.D.m.O...[                                                                                                         ",
"                                                                                                                                                                                    y j n n z Q ! ^ *.*.*.=.;.q.uXhXjXtXw.3.2.;.m v M m m ;.q.3.-.^ k j y                 q q q A G ] } ..O.m.M.M.M.M.M.D.G.J.J.!.(.^.!.!.(.(.).`. X.X.X X`.`.`. X X%X%X%X%X%X%X*X;X;X*X*X;X-X,X-X-X-X-X,X-X;X-X,X,X,X,X2X3X3X3X3X3X4X9X4X3X4X3X2X2X3X3X2X2X,X-X-X-X;X*X*X*X*X%X*X*X*X%X X X&X&X X`.`.`.`._.(.(.(.).^.Q.D.m.O.} [                                                                                                       ",
"                                                                                                                                                                                    y j n n z Q ! ^ *.*.*.=.;.q.uXhXjXtXw.3.2.;.:.*.*.=.=.-.,.;.=.^ k j y                   q q A G ] } ..+.O.v.n.N.M.M.D.G.J.J.!.(.(.^.!.!.^.). X.X.X.X X`.`.`. X X%X%X%X%X%X%X*X;X;X;X*X*X;X-X,X,X,X-X-X-X;X-X-X,X,X,X2X3X3X3X3X3X4X4X4X4X9X9X3X2X2X2X3X2X,X,X,X-X;X;X;X;X*X%X%X%X*X%X X`. X X X`.`.`.`._.(.(.(.(.(.^.Q.D.m.O...] ] ]                                                                                                 ",
"                                                                                                                                                                                    y j n n z Q ! ^ *.*.*.=.;.q.uXhXjXtXw.3.2.;.2.5.;.=.-.=.=.=._ ^ j j y                   q q e F T ]  .X. ...O.m.M.M.D.G.J.J.!.(.).(.^.!.^.). X X X X X`.`.`. X X.X%X%X%X%X%X*X;X;X;X*X%X;X-X-X,X,X,X-X-X-X-X-X,X,X,X2X3X3X3X3X3X3X3X3X4X9X9X6X3X2X2X3X2X,X,X,X-X;X;X;X;X;X*X*X*X*X%X X X`.`.`. X X X`._.).).(.).).).^.Q.D.m.O.} } } {                                                                                               ",
"                                                                                                                                                                                    y j n n z Q ! ^ *.*.*.=.;.q.uXhXjXtXw.3.2.;.5.;.:.-.=.=.=._ ! ! j j y                   q q q e F Y ] { [  .X.m.M.M.D.G.J.J.!.(.(.(.(.(.(.).`.`._._.`.`.`.`.`. X X.X%X%X%X%X%X*X*X*X%X%X;X;X*X;X,X,X,X,X,X,X,X,X,X,X,X2X2X2X2X2X3X3X3X4X9XqX9X6X3X3X3X2X,X,X,X-X;X;X-X-X-X;X;X;X*X%X%X&X X`.`. X&X X X`.`.).)._.`.).(.(.Q.D.m.O.O.X.} ]                                                                                             ",
"                                                                                                                                                                                    y j n n z Q ! ^ *.*.*.=.;.q.tXjXjXtXw.3.2.;.*.*.*.*.*.=.=.` ^ ! j j y                     q q q e D Y ] ] ..O.n.N.M.D.G.J.J.!.(.).).).).)._.`.`._._.`. X`.`.`.`. X X X.X.X.X%X%X%X%X%X%X;X;X*X;X-X,X,X2X,X,X,X,X,X,X,X,X,X,X2X2X2X3X3X4X4X9XqX9X6X4X3X2X,X2X2X,X-X;X-X-X-X-X-X;X;X*X*X%X.X X X X&X&X X X X_.).`.`.).(.(.^.Q.D.N.N.n...} [                                                                                           ",
"                                                                                                                                                                                    y j n n z Q ! ^ *.*.*.=.;.q.}.aXpXt.w.3.2.;.m v M m m _ *.-.=.^ k j y                       q q q e F Y ] ..O.v.n.M.D.G.J.J.!.(._.`._.)._.`.`.`.`.`.`.`.`.`.`.`.`. X X.X.X.X%X%X%X%X%X%X=X;X;X;X-X-X,X,X,X,X,X-X-X,X,X,X,X,X2X3X2X2X3X3X3X4X9XqX9X9X4X2X2X2X3X2X,X-X-X,X,X,X-X;X;X;X*X%X%X&X X`. X X%X%X&X`.).`.`.).(.(.(.(.Q.D.D.D.n.X.} ]                                                                                         ",
"                                                                                                                                                                                    y j n n z Q ! ^ *.*.*.=.;.q.t.aXpXt.w.3.3.;.v f d v M =.2.2.-.^ k j y                         q q w D J ] } ..O.n.M.D.F.F.F.G.!.(._.).)._.`._._._._._._.`. X X X X X X.X.X.X%X%X%X%X%X*X;X;X;X;X;X-X-X,X,X,X,X,X-X-X,X,X,X,X2X2X2X2X3X3X3X4X4X9XqX9X4X3X2X3X3X2X,X,X,X,X,X,X,X-X-X;X;X*X*X%X&X X`. X X:X X X X`.`._.).(.(.(.!.Q.!.J.D.n.X.} [                                                                                       ",
"                                                                                                                                                                                    y j n n z Q ! ^ *.*.*.=.;.q.@XaXpXt.w.3.3.2.v ; f v M :.3.3.-.^ k j y                           q w D J ] ] [ ..n.N.M.S.S.D.F.J.!.(.(.)._.`.).(.(.(.(._.`. X.X X X X.X.X.X.X%X%X%X%X%X*X=X;X*X*X;X;X;X-X,X,X,X,X,X-X-X,X,X,X,X2X2X3X3X3X3X3X3X4X9XqX9X4X3X3X3X2X,X,X,X,X,X2X,X,X-X-X;X;X*X%X%X:X X`. X`. X&X%X X X`._.).(.(.(.(.(.^.J.D.n.X.} ]                                                                                     ",
"                                                                                                                                                                                    y j n n z Q ! ^ *.*.*.=.;.q.@XaXpXt.w.3.3.2.v a d v M ;.q.3.-.^ k j y                           q q e D J ( [ ..n.N.M.M.D.F.G.J.Q.!.(._._.).).(.(.(.(.).`. X X X X.X.X.X.X.X%X%X%X%X%X%X*X*X%X*X;X;X;X-X,X,X,X,X,X,X,X,X,X,X,X,X2X2X2X2X3X3X3X4X4X9XqX6X3X3X3X3X2X2X2X2X3X2X,X-X-X,X,X-X;X*X*X%X:X X`.`. X&X%X&X X X`._._.(.(.(.).(.!.J.D.n.X.} ]                                                                                   ",
"                                                                                                                                                                                    y j n n z Q ! ^ *.*.*.*.;.q.}.aXpXt.w.3.3.2.M f v m m ;.q.3.-.^ k j y                           q q q e D K ] ..O.N.M.M.D.J.J.J.J.Q.(.`._.(.(.(.(.(.)._.`.`.`.`. X X.X.X.X.X.X.X%X%X%X%X%X%X%X*X;X;X-X-X,X,X,X2X2X,X,X,X,X,X,X,X,X,X,X2X3X3X3X3X3X4X9X9X4X3X3X4X3X2X2X3X3X3X2X-X-X,X,X,X-X;X*X*X%X:X X`. X&X%X%X%X X X`._.).).).(.(.(.^.J.D.n.X.} [                                                                                 ",
"                                                                                                                                                                                    y j n n z Q ! ^ *.*.*.*.;.q.@XaXpXt.w.3.3.2.:.*.*.*.*.-.2.<.=.^ k j y                             q q q e D J ] ..m.B.M.D.J.Q.J.J.J.^.).).(.(.(.(.)._.`.`.`.`.`. X X X X X X X.X%X%X%X%X%X%X%X*X*X;X;X;X;X-X2X2X3X2X,X,X,X-X,X,X,X,X,X,X2X2X3X3X3X4X9X9X9X4X4X6X6X3X2X2X3X3X2X,X-X-X-X-X,X-X;X*X*X%X&X X`. X X%X%X&X X X`._._._.).(.(.(.!.Q.D.n.X.} ]                                                                               ",
"                                                                                                                                                                                    y j n n z Q ! ^ *.*.*.=.;.q.t.aXpXt.w.3.3.3.2.;.-.=.=.=.=.=.=.` k j y                               q q q e F T { n.M.S.D.G.J.J.J.J.!.(.).).).(.(.).`.`.`.`.`.`.`.`.`.`.`. X X.X.X.X%X%X%X*X%X%X%X*X;X;X*X-X,X2X3X2X,X,X,X-X-X,X,X,X2X2X2X2X3X3X3X4X9XqX9X6X4X9X9X4X3X2X2X3X3X,X-X-X;X-X,X,X-X;X*X*X*X&X X`. X&X%X%X&X X X`.`.`._.).).).).^.J.D.n.X.} [                                                                             ",
"                                                                                                                                                                                    y j n n z Q ! ^ *.*.*.=.;.3.y.aXpXt.w.q.3.3.2.;.:.=.=.=.=.=.=.` k j y                                 q q e F T { O.m.M.D.D.D.D.F.J.!.)._._.).(.(.).)._.`. X`._.).`.`.`. X X.X.X.X.X%X%X%X*X%X%X%X*X;X;X;X-X-X,X2X2X,X,X,X-X-X,X,X2X2X3X3X3X3X3X3X4X4X9XqX9X9X4X4X3X3X3X3X3X2X,X,X,X-X-X,X,X,X-X;X;X;X*X&X X`. X X%X%X%X X X`.`.`.`.`._.).(.^.Q.D.n.O.} ]                                                                           ",
"                                                                                                                                                                                    y j n n z Q ! ^ *.*.=.*.;.3.r.iXiXt.w.q.3.3.:.*.*.=.=.=.=.=._ ^ k j y                                   q e D J ] ..O.n.M.M.M.M.F.J.!.(._._.).(.(.(.(._.`. X`.).)._.`.`. X X.X.X.X.X&X&X%X*X%X%X%X*X;X;X;X;X-X,X,X2X2X2X,X-X,X,X,X2X2X3X3X3X3X3X3X3X3X6XqXqX9X6X4X4X4X4X4X3X3X2X2X,X-X-X,X,X,X,X-X-X;X*X%X.X X`. X.X%X%X&X X X`.`.`.`.`.).(.(.!.G.N.O...]                                                                           ",
"                                                                                                                                                                                    y j n n z Q ! ^ *.*.*.:.2.3.r.yXyXt.w.q.3.2.m d v m m _ =._ ! ! j j y                                   q q w H J ] } ..v.M.M.M.F.J.Q.!.(.).).(.(.(.(._.`. X`.).)._.`.`. X X X X X.X X X&X%X%X%X%X%X*X*X;X;X-X,X2X3X3X2X,X,X,X,X,X,X2X2X2X2X2X2X3X3X3X6XqXqXqX9X9X9X9X9X6X4X3X3X2X,X,X,X,X,X,X,X,X-X;X*X%X%X&X X`. X X%X%X%X X`._.).`.`.).(.(.!.G.N.O...]                                                                           ",
"                                                                                                                                                                                    y j n n z Q ! ^ *.*.*.:.2.3.r.yXyXt.w.q.q.2.v a d M M *.,.-.^ ! j j y                                   q q q e F ( [ ..v.M.M.M.D.G.J.J.^.).).).).(.(.)._.`.`._._._.`.`. X X X X X.X X X%X%X%X%X*X*X%X*X;X;X-X-X,X2X2X2X,X,X,X,X,X,X,X,X,X,X,X2X2X3X3X4X9X9X9X9XqXqXqXqX9X4X4X3X3X2X2X2X2X,X,X,X,X,X;X*X%X%X%X.X X X.X%X*X%X&X X X`.`.`.).(.(.!.Q.D.m.O.} [                                                                         ",
"                                                                                                                                                                                    y j n n z Q ! ^ *.*.*.:.2.3.r.yXyXt.w.q.q.2.v a f v M :.3.2.=.^ k j y                                     q q e F ( } X.n.M.M.M.M.D.F.Q.^.)._._.).(.(.(.)._.`.`.`.).).`. X.X.X.X.X.X.X.X%X%X%X%X%X%X%X*X;X;X;X;X-X,X2X,X,X,X,X,X-X-X,X,X,X,X,X,X2X2X2X3X4X4X4X9XqXqXqXqXqX9X4X3X3X3X3X3X2X,X,X,X,X,X;X*X%X%X%X%X%X%X%X%X*X%X%X%X%X&X X`.).(.(.(.(.Q.D.m.O.} ]                                                                       ",
"                                                                                                                                                                                    y j z z ! Q Q ^ *.*.*.:.2.3.r.yXyXy.w.q.q.2.v f d v M ;.q.3.-.^ Q j y                                       q e G ( } O.n.M.S.S.M.S.F.J.!.^.)._._.).^.^.(._.`.`._.).).`. X X X X.X.X.X.X%X%X%X%X%X%X%X*X;X;X;X;X-X-X,X,X,X,X,X,X,X-X,X,X,X,X,X,X,X2X2X3X3X4X4X6X9X9XqXqXqXqX9X4X4X3X3X3X3X2X2X,X,X,X-X;X*X*X*X*X*X*X%X%X%X.X X&X%X%X:X X_.).(.(.(.^.Q.D.m.O.} [                                                                     ",
"                                                                                                                                                                                    y j j ! Q Q ! ^ *.*.*.:.2.3.r.uXuXr.w.q.3.2.m v v M M ;.q.3.-.^ Q j y                                       q e F ( } O.n.M.M.S.S.S.F.J.J.Q.^.).`.).!.!.(._.`._.(.(.).`. X X`. X X.X.X.X.X%X%X%X%X%X%X*X;X*X*X;X;X;X-X,X,X,X,X,X,X,X,X,X,X,X-X-X,X2X3X3X4X6X9X4X4X9XqXqXqXqXqX9X4X4X3X3X3X3X2X,X,X,X,X-X;X;X;X;X=X*X%X%X&X X`. X&X%X%X&X X_.).(.(.(.(.Q.D.m.O.} [                                                                   ",
"                                                                                                                                                                                    y j j Q Q ! ` ` *.=.*.:.2.3.w.uXuXr.w.q.3.4.:.*.*.*.*.:.2.2.-.^ ! j y                                         w A T } O.n.n.N.M.S.S.F.J.J.J.Q.^._._.^.^.(.)._.).(.(.).`.`.`.`.`. X.X.X.X.X.X%X%X%X%X%X=X;X;X*X*X*X;X-X,X2X5X2X,X,X,X,X-X,X,X-X-X,X2X3X4X4X4X4X4X4X9XqXqXqXqX9X6X6X6X4X3X3X3X2X,X,X,X,X-X;X;X*X*X*X%X%X%X%X.X X`. X.X%X%X X`._.).(.(.(.^.Q.D.m.O...[                                                                 ",
"                                                                                                                                                                                    y j j Q Q ^ =.*.*.=.-.;.2.3.w.uXuXr.w.q.3.3.2.;.-.=.=.=.=.=.=.^ ! j y                                         q w G [ ..O.v.n.M.M.S.F.J.J.J.J.^._.`.).(.(.(.(.(.(.(.).`.`.`.`.`. X.X.X.X.X.X.X%X%X%X%X*X;X;X;X*X*X;X-X,X2X5X2X,X,X,X-X-X,X,X-X-X,X2X3X3X3X3X3X3X4X9XqXqXqXqX6X4X6X9X4X3X3X3X2X,X,X,X,X-X;X*X%X%X%X*X*X%X%X%X.X X`. X&X&X X X`._.).(.(.(.(.J.D.m.O.} [                                                               ",
"                                                                                                                                                                                    y j j Q Q ^ =.*.*.=.-.;.2.3.r.yXyXy.w.q.3.3.2.;.;.-.-.=.=._ ^ ! j j y                                         q q D T [ ..O.n.M.M.M.D.D.G.Q.!.(.`.`.`._.(.(.(.(.(.(.).`. X`.`.`. X X X X.X.X.X%X%X%X*X*X*X;X;X;X;X;X-X-X,X,X,X,X,X,X-X-X,X,X,X-X-X,X2X2X2X3X3X3X4X9XqXqXqXqX4X3X4X4X4X3X3X3X3X2X2X,X,X,X-X;X=X=X=X;X*X%X%X%X%X&X X`. X X&X X X`._.).(.).(.J.D.V.m.O...[                                                             ",
"                                                                                                                                                                                    y j j ! ! ^ =.*.*.=.-.;.2.3.r.yXyXt.w.q.3.3.;.:.*.=.=.*.=._ ! ! j j y                                         q q e F ( } O.m.M.B.M.D.D.G.Q.^.).`. X`._.).(.(.(.(.(.)._.`.`.`.`. X`.`. X X.X.X%X%X%X%X%X%X*X;X;X;X;X;X;X-X-X-X2X2X,X-X-X,X,X,X,X-X-X,X,X,X2X3X3X4X9X9XqXqXqX9X4X4X4X4X4X3X3X3X3X2X,X,X,X-X-X-X-X-X-X;X*X%X*X*X%X&X X`. X&X&X X X`._.(.(.(.J.F.G.D.m.O.} [                                                           ",
"                                                                                                                                                                                    y j j ! _ =.=.*.*.=.-.;.2.3.r.yXyXt.w.q.3.2.*.M m m m _ =.=.` ^ k j y                                         q q q A T } O.m.M.M.B.F.G.J.Q.Q.^._. X`._.).(.(.(.(.(.(.).).)._.`.`. X`. X X.X.X%X%X%X%X%X%X*X*X*X*X*X*X;X;X-X,X3X2X,X,X,X,X,X,X,X,X,X,X,X,X2X2X3X4X4X4X9XqXqX9X9X9X9X9X9X4X3X3X3X,X,X,X,X,X-X-X-X;X=X;X;X;X;X;X=X%X&X X`. X X&X X X_.(.(.(.H.G.!.Q.D.m.O...[                                                         ",
"                                                                                                                                                                                    y j j ^ -.=.m m *.=.-.;.2.3.r.yXyXy.w.q.3.2.M d v M M *.;.;.=.` k j y                                           q q w J [ O.n.N.M.S.F.G.G.G.G.Q.).`.`._.).(.^.^.(.(.(.(.(.(.).`. X X X X X.X.X%X%X%X*X*X%X*X%X%X%X%X*X;X;X;X,X3X2X,X,X,X,X,X,X,X,X,X,X,X,X2X2X3X3X3X4X9XqXqXqXqXqXqXqX9X4X3X3X3X,X,X,X,X,X-X-X;X;X=X;X;X;X;X;X;X*X%X X X`. X&X X X_.(.(.(.Q.Q.(.!.G.B.n...[                                                         ",
"                                                                                                                                                                                    y j j ` <.=.v v *.*.-.;.2.3.r.yXuXr.w.q.q.2.v a f v M *.3.2.-.^ k j y                                             q q D ( ..n.n.m.B.D.D.D.D.D.F.^._.`._.(.!.Q.Q.!.^.(.(.(.(.).`. X.X.X.X X X.X.X%X%X%X%X%X%X%X%X%X=X;X;X;X*X;X2X2X,X,X,X-X-X,X,X,X,X-X-X,X2X3X3X3X3X4X9XqXqXqXqXqXqXqX9X4X3X3X3X2X,X,X,X,X,X,X-X;X;X;X;X;X*X=X;X*X%X%X&X X`. X X`._.(.(.(.(.(.(.!.G.B.n...[                                                         ",
"                                                                                                                                                                                    y y j ` 2.*.f v *.*.-.;.2.3.r.yXuXr.q.q.3.2.v ; f v M :.q.3.-.^ k j y                                             q q A Y ..v.v.n.m.M.M.D.D.D.F.!.(._.).^.!.!.J.Q.^.(.(.(.(.)._. X X.X.X X X.X.X.X%X%X%X%X%X%X%X%X*X;X;X;X*X;X-X,X,X,X,X-X-X,X,X,X,X-X-X,X2X3X3X3X3X4X6X9X9X9X9X9XqXqX9X4X3X3X3X2X2X,X,X,X,X,X-X-X-X-X;X;X*X=X;X=X*X*X%X&X X`.`.`._._.).).).(.(.^.Q.D.N.O...{                                                       ",
"                                                                                                                                                                                    y j j ` 2.*.f v *.*.-.;.2.3.r.yXuXr.q.3.3.2.v a v M M ;.q.3.-.^ k j y                                             q q H J  .O.O.O.O.m.S.F.J.J.J.J.!.(.^.Q.!.(.!.Q.^.(.(.(.(.(.)._. X X.X X X.X.X.X.X.X%X%X%X%X%X%X%X*X;X;X;X*X*X-X,X,X,X,X,X,X,X,X,X,X-X-X2X3X3X3X3X3X4X4X4X4X4X9XqXqX9X4X3X3X3X3X2X2X,X,X,X,X,X,X,X,X-X;X;X;X;X;X;X;X;X%X&X X`.`.`.`.`.`.).(.(.(.(.Q.D.N.O...[                                                     ",
"                                                                                                                                                                                    y j x ` 4.*.f d *.*.-.;.2.3.r.dXyXr.q.3.3.2.m v m _ _ :.3.2.-.^ k j y                                             q q H J [ ..+.+.O.m.S.F.G.J.J.J.!.(.(.!.!.^.!.!.!.^.(.(.(.)._._.`. X.X X X X X.X.X X X.X&X%X%X%X%X*X;X;X;X*X*X;X,X,X,X,X,X,X,X,X2X,X,X-X2X3X3X3X3X3X3X3X3X3X3X9XqX9X6X4X4X4X3X3X3X2X2X2X2X,X,X,X,X,X-X;X;X;X;X;X=X;X;X*X&X X X X X`.`.`._.).).(.!.!.Q.D.N.O...}                                                   ",
"                                                                                                                                                                                    y h b :.3.:.f d *.*.-.;.2.3.r.pXiXr.q.3.2.2.;.:.-.=.=.=.-.-.=.^ k j y                                             q q H J ] } ..O.v.m.M.M.D.G.J.J.!.(.(.(.!.Q.^.(.!.!.(.(.(.).`.`. X X.X.X.X X X.X X X X X X%X%X%X%X*X;X;X*X*X;X;X-X,X,X,X,X-X-X,X,X,X,X,X3X3X2X2X3X3X3X3X3X3X4X9X9X4X4X9X9X4X3X3X3X3X3X3X2X,X,X,X,X,X-X;X;X;X;X*X*X;X;X*X%X%X%X%X X X`.`.`.`.).!.H.Q.^.!.D.N.O...[                                                 ",
"                                                                                                                                                                                    y h b :.q.;.f d *.*.-.;.2.q.t.aXiXr.q.3.2.2.2.2.:.-.-.=.=.=.=.` k j y                                               q e H J ] X.O.v.n.m.M.D.G.J.J.Q.!.^.(.!.Q.^.(.!.Q.^.(.(.)._.`.`. X X X X X X.X.X X X X.X%X%X%X%X*X*X*X%X*X*X;X;X-X-X,X,X-X;X-X,X,X,X2X2X2X2X,X2X3X3X3X2X3X3X4X4X4X4X9X9X4X3X3X3X2X3X3X2X,X,X,X,X,X,X-X;X;X;X;X=X;X-X=X*X*X*X%X%X.X X`.`.`.).^.!.!.(.(.!.G.N.O...{                                               ",
"                                                                                                                                                                                    j j n ;.q.2.f d *.*.-.;.2.q.t.aXiXr.q.3.3.3.2.:.=.=.=.=.=.=.=.^ k j y                                                 q w D T  .O.v.v.n.N.D.G.J.J.J.J.!.(.!.Q.^.(.!.!.(.(.(.(.(._.`. X`.`.`.`. X.X.X.X.X.X%X%X%X%X%X%X%X%X%X%X%X*X;X;X-X,X,X-X;X;X-X,X,X,X,X,X,X,X,X2X3X3X2X2X3X3X3X3X4X9X9X4X3X3X3X2X3X3X2X,X,X,X,X,X,X,X-X-X-X;X;X;X;X;X=X*X*X%X%X%X X X X`.).(.(.(.(.(.(.Q.D.m.O.} ]                                             ",
"                                                                                                                                                                                    b b n ;.q.2.f c *.*.-.;.2.q.y.aXsXy.e.3.3.4.*.m m _ / *.=.` ^ ! j j y                                                 q q D T X.O.v.v.n.N.D.D.D.D.F.J.Q.!.!.^.!.!.!.^.(.(.(.(.(._.`._._.`. X`. X.X.X.X.X X.X%X%X%X%X%X%X%X%X%X%X*X*X;X-X-X-X,X-X;X-X-X,X,X,X,X,X,X,X2X3X3X2X2X3X3X3X3X4X4X4X4X3X3X3X3X3X3X2X,X2X2X,X,X,X,X,X-X;X=X*X*X=X;X;X*X%X%X&X X X.X X`.`._.).(.(.!.J.G.D.m.O.} ]                                             ",
"                                                                                                                                                                                    M M M ;.q.2.f d *.*.-.;.2.3.y.aXpXt.w.3.3.2.M d v M M *.-.` ! ! j j y                                                 q q A J  .+.O.O.n.m.M.M.M.M.D.J.J.J.!.(.!.Q.^.(.(.(.(.(.(._.`.).)._.`.`. X.X.X.X X X X.X.X%X%X%X%X%X%X%X%X%X*X*X;X;X-X,X,X-X;X;X-X,X,X,X,X,X,X2X3X2X2X2X3X3X3X3X3X3X3X3X4X4X4X3X3X3X2X2X3X3X2X,X,X,X,X,X-X*X*X%X*X;X;X*X*X%X.X X&X%X X`.`._.).(.(.!.H.G.G.M.O...[                                             ",
"                                                                                                                                                                                    M m m 2.e.2.f d *.*.-.;.2.3.y.pXpXt.w.q.3.;.v a f v M *.2.2.` ^ Q j y                                                 q q q D ] ..X.O.v.n.m.M.M.M.D.J.J.J.!.(.!.Q.^.(.!.!.(.(.(.).).).)._.`.`. X.X.X X X X X X&X%X%X%X%X%X%X%X%X%X%X*X*X;X-X-X-X,X-X;X-X-X-X-X,X,X,X2X2X2X,X2X3X3X2X3X3X3X3X3X4X9X4X3X3X3X3X3X3X3X2X,X,X,X,X,X,X-X;X*X*X;X;X;X*X%X%X&X%X%X X`.`._.).(.(.(.!.!.!.G.N.O...{                                           ",
"                                                                                                                                                                                    m m *.2.e.2.d v *.*.-.;.2.3.y.pXpXt.w.q.3.:.d a f v M :.q.3.-.^ ! j y                                                 q q q A T } ..O.v.O.v.M.S.M.D.F.J.J.!.^.!.Q.^.(.Q.!.(.(.(.(.(.(.)._.`.`. X.X X X X X X X&X%X%X%X%X%X%X%X%X%X%X*X*X*X;X;X-X,X,X-X-X;X;X-X-X,X,X,X,X,X,X2X3X2X2X2X3X3X3X3X4X9X9X4X4X3X3X3X3X3X2X,X,X,X,X,X,X-X;X*X*X;X;X;X=X*X*X%X%X%X X X X`._.).(.(.(.).(.!.G.M.O...{                                         ",
"                                                                                                                                                                                    *.*.*.2.w.2.d v =.=.-.;.2.3.y.aXpXt.w.q.3.:.M d v M M ;.q.8.-.^ ! j y                                                     q e F ] ..O.v.v.v.M.M.M.B.D.F.J.Q.Q.J.Q.^.(.Q.!.(.(.(.(.(.(.)._.`.`. X X X.X X X`. X X%X.X%X%X%X%X%X%X%X%X*X%X*X*X;X-X,X,X,X-X;X;X;X-X-X,X,X,X,X,X2X2X2X,X2X2X3X3X3X4X9XqX9X4X3X3X3X3X3X2X,X,X,X,X,X,X-X;X;X;X;X;X*X*X;X*X%X%X%X%X%X%X.X`._.).(.(.(.(.(.!.G.N.O...[                                       ",
"                                                                                                                                                                                    *.*.*.2.w.2.d v =.-.-.;.2.3.r.pXpXt.w.q.3.;.*.m *.*.m :.3.4.-.^ k j y                                                     q q A J [ ..O.O.n.M.S.M.D.D.F.G.J.J.Q.!.^.^.!.!.(.(.(.(.(.(.)._._._._._. X X X`. X X X X.X%X%X%X%X%X%X%X%X*X*X*X*X;X-X,X,X,X,X-X-X-X;X-X-X,X,X,X,X2X2X2X,X2X2X3X3X3X4X9XqXqX4X3X3X3X3X3X2X,X,X,X,X,X,X,X-X-X;X;X*X%X*X;X;X*X*X%X%X*X*X&X X_.(.(.(.(.(.).(.J.D.N.O...{                                     ",
"                                                                                                                                                                                3.2.:.*.*.2.w.2.d v =.-.-.;.2.3.r.pXpXt.w.q.3.;.;.:.;.:.=.-.;.:.=.^ k j y                                                     q q q A J ] X.O.v.M.S.M.D.G.F.D.F.J.^.^.!.!.^.(.(.(.(.(.(.(.(.).).).).)._.`. X X X.X X X.X%X%X%X%X%X%X%X*X=X;X;X;X;X;X-X-X,X,X,X,X,X-X-X-X-X,X,X,X2X3X2X2X2X3X3X3X3X4X9XqXqX4X3X3X3X3X3X2X,X,X,X,X,X,X,X,X-X;X*X%X%X*X;X;X;X*X%X%X%X%X&X X_.(.(.(.(.(.).(.H.D.D.M.v...[                                   ",
"                                                                                                                                                                                -.=.*.*.*.2.w.2.d v *.-.-.;.2.3.r.pXpXt.w.q.3.2.2.2.2.;.-.=.=.` ` ! j j y                                                       q q e F ] X.O.n.M.S.M.D.F.F.S.F.J.!.!.Q.Q.!.^.(.(.^.^.(.(.(.(.(.).).(.)._.`. X.X.X X X X X.X&X%X*X%X%X*X;X-X-X;X;X;X;X-X,X,X2X2X,X,X-X;X-X-X,X,X2X2X2X2X2X3X3X3X3X4X9XqXqX9X4X4X3X3X3X2X2X,X2X2X2X,X,X,X-X;X*X*X=X=X*X;X;X;X*X*X%X%X%X X X_.).(.(.(.(.^.H.G.Q.G.M.O...{                                 ",
"                                                                                                                                                                                j j b m *.2.w.2.N v =.-.-.;.2.3.y.pXpXt.w.q.3.3.2.;.;.;.-.=.=._ ! ! j j y                                                         q e F ] X.O.n.M.S.M.M.S.B.D.F.J.J.J.J.J.Q.!.(.^.Q.!.(.(.(.(.)._._.).(.).`..X.X.X.X.X X X X X%X%X%X%X*X;X;X;X;X-X;X;X;X;X-X,X,X,X,X,X-X;X;X-X,X,X,X,X,X,X2X3X3X3X4X9XqXqXqX9X4X3X3X3X3X3X2X2X3X2X2X,X,X-X;X;X;X;X=X*X*X;X;X;X*X%X%X%X%X&X`._.).(.(.).(.H.H.!.!.G.N.v...[                               ",
"                                                                                                                                                                                y j b m m <.w.3.M M =.=.-.;.2.3.r.pXpXt.w.q.q.4.*.M *.*.*.*.=._ ` ! j j y                                                         q e F ] X.O.O.n.N.M.M.S.D.F.F.F.G.J.J.Q.!.^.(.^.Q.!.(.).(.(.)._._._._._.`. X X X.X.X X X X X X&X%X%X%X*X*X*X;X;X;X*X*X*X=X;X,X,X,X,X-X;X;X-X-X,X,X,X,X,X,X2X3X3X4X4X4X6X9XqX4X3X3X3X3X3X2X2X3X3X2X2X,X,X-X-X;X=X=X=X*X*X;X;X*X%X%X%X%X:X X_._._._.).(.!.!.(.(.!.G.N.O...}                             ",
"                                                                                                                                                                                y j b M M :.q.3.m m =.=.-.;.2.3.r.pXpXt.w.q.q.2.v f v M M _ -.-.=.^ k j y                                                         q e F (  ...X.O.n.M.M.S.F.G.F.D.F.J.J.Q.^.(.(.!.Q.!.(.(.(.(.(.(.).`.`.`.`.`. X X X.X.X.X X`. X X%X%X%X%X%X%X*X;X;X%X%X%X%X*X-X,X,X,X-X;X;X;X;X-X,X,X,X,X,X,X2X3X3X3X3X4X6X9X4X3X3X3X3X3X2X2X3X3X3X2X2X,X,X-X;X*X=X;X*X*X=X;X*X*X*X*X%X:X X X X X`.).(.(.(.(.(.(.!.G.N.v...[                           ",
"                                                                                                                                                                                    j x n *.2.*.v n =.=.=.;.2.3.r.pXpXt.r.w.q.2.v a f v M *.2.2.-.^ k j y                                                           q e F ( } X.+.O.n.N.M.D.D.D.D.F.J.J.Q.!.!.!.Q.J.Q.!.!.!.(.(.(.).`. X`.`.`. X X.X.X.X.X X X X&X%X%X%X%X%X%X*X*X*X%X*X=X=X=X-X-X-X-X-X-X;X-X-X-X,X,X,X,X,X,X2X2X3X3X3X3X4X4X4X3X2X2X3X3X2X2X2X3X3X3X2X2X,X-X;X=X;X;X;X=X*X*X;X;X;X*X*X%X&X&X&X X`.).)._._.).(.(.(.!.G.N.v...[                         ",
"                                                                                                                                                                                    j j b m *.M d n =.-.;.;.2.3.r.aXpXt.r.r.q.2.v p f v M :.q.3.-.^ k j y                                                             q e F ]  .X.X.O.n.M.M.M.M.D.G.J.J.J.J.J.J.J.J.J.J.J.!.^.(.(.)._.`.`.`. X X.X.X.X.X.X X X.X%X%X%X%X%X%X%X%X%X%X%X*X;X;X;X;X;X;X;X;X-X-X-X-X-X,X,X,X,X,X,X,X,X2X3X3X3X3X3X3X3X2X2X3X3X2X,X,X2X3X4X3X2X,X-X-X;X;X;X;X;X*X%X=X;X;X;X*X%X%X%X%X X`._.).`.`._.).(.(.(.!.G.M.v...[                       ",
"                                                                                                                                                                                    b b j n ` *.M m -.2.3.2.2.q.t.aXpXt.r.w.q.2.v a c v M ;.q.i.-.^ Q j y                                                             q q e F ( } X.O.n.n.N.M.M.D.G.J.J.J.J.J.J.J.J.J.J.!.^.(.(.(.).)._.`.`.`. X X.X.X.X.X.X.X.X%X%X%X%X%X%X%X%X%X%X%X*X*X;X;X=X*X*X*X;X;X;X-X-X-X-X,X,X,X,X,X,X,X2X3X3X3X3X3X3X3X2X,X2X2X3X2X2X2X3X4X3X3X2X,X-X-X;X;X;X;X*X%X%X*X;X;X*X%X%X&X X X`.`.`.`.`.`._.).(.(.(.!.G.M.O...{                     ",
"                                                                                                                                                                                    m n x z _ :.:.-.=.2.3.3.3.e.tXgXaXt.r.w.q.2.m v M m m ;.q.3.-.^ z j y                                                             q q q e J { O.O.v.v.n.M.M.S.F.J.J.J.J.J.J.Q.Q.Q.!.!.(.(.(.(.(.(.)._.`.`.`. X.X.X.X.X.X.X.X.X.X.X.X%X%X%X%X%X*X*X*X*X;X;X;X*X%X*X;X;X;X-X-X;X;X,X,X,X,X,X,X,X2X3X3X3X3X3X3X3X2X2X,X2X3X2X2X2X3X3X3X3X3X2X,X-X-X;X;X;X*X*X%X*X;X*X%X%X%X&X X X`.`.`.`.`.`._.).(.(.).(.Q.D.N.O...{                   ",
"                                                                                                                                                                                        n m m :.3.2.*.=.<.i.w.w.tXhXjXtXr.w.q.2.;.*.:.:.=.-.;.;.=._ n j y                                                               i q e J { O.O.v.v.n.n.N.M.D.D.G.J.J.J.J.!.^.(.(.!.!.^.(.(.(.(.(.)._.`.`. X X.X X X.X.X.X.X.X.X.X.X%X%X%X%X*X;X;X;X;X;X;X;X*X*X;X;X;X;X-X;X;X,X,X,X,X,X,X,X,X2X3X3X3X3X3X3X3X3X2X,X2X2X,X2X2X3X3X3X3X3X2X,X-X-X;X;X;X;X;X;X*X%X%X%X%X%X&X X`.`.`.`.`.`._.).(.(.).(.Q.D.D.M.v...[                 ",
"                                                                                                                                                                                        m M M *.2.2.2.-.-.3.q.w.uXhXhXiXyXtXr.w.q.3.3.3.2.;.=.=.*.*.m x y                                                               q q e D (  .O.v.O.O.v.m.M.M.D.G.J.J.J.J.!.(.(.^.!.Q.!.^.(.(.(.(.(.)._.`. X X X X X.X.X.X.X.X.X.X.X%X%X%X%X*X;X;X;X=X;X;X;X*X%X=X;X;X;X;X;X;X-X,X,X,X,X,X,X,X,X2X3X3X3X3X3X3X3X2X2X,X,X,X,X2X3X3X3X3X3X3X5X,X-X-X;X;X-X-X;X*X*X*X*X*X*X%X&X X X`.`.`.`.`._.).(.(.(.J.F.H.G.M.O...{               ",
"                                                                                                                                                                                            M m *.2.q.2.-.;.3.q.tXhXkXkXjXaXiXuXt.r.w.w.q.2.-.=.=.*._ x y                                                               q q q e D ( ..O.X.+.v.m.M.M.D.G.J.J.J.J.!.(.^.Q.J.J.J.!.(.(.(.(.(.(.)._.`. X X X.X.X X X X.X.X.X.X%X%X%X%X%X*X*X*X*X*X;X;X*X%X*X*X;X;X;X;X;X-X-X-X-X,X,X,X,X,X,X2X2X2X3X3X3X3X3X3X2X,X,X,X2X3X3X3X3X3X3X3X2X,X-X;X;X;X;X;X;X;X;X;X;X*X%X%X%X X`.`.`.`.`.`._.(.(.(.J.G.!.!.G.N.v...[             ",
"                                                                                                                                                                                            x b M 2.w.w.3.3.3.q.r.yXiXiXiXdXuXt.r.w.w.q.3.2.-.=.=._ n h 0                                                                 q q q e D ] } ..O.v.n.N.M.D.F.G.J.Q.J.!.!.!.J.J.J.J.Q.!.^.(.(.(.(.(._. X X X X X X X X X.X.X.X.X.X%X%X%X%X%X%X%X%X%X*X*X*X%X%X*X*X;X;X-X;X;X;X;X-X,X,X,X,X,X,X,X,X,X2X3X3X4X4X3X2X,X,X,X,X2X3X3X3X3X3X3X3X2X,X-X-X-X-X;X;X;X;X-X-X;X*X*X%X&X X X X X`.`.`._.).(.!.Q.(.(.!.G.M.v...}           ",
"                                                                                                                                                                                            j x m 2.w.r.r.r.w.w.w.w.w.w.r.r.w.w.w.q.q.3.2.,.:.-.-.m v f f                                                                   q q q e D (  .O.O.v.n.N.B.B.D.G.J.J.J.Q.J.J.J.J.J.J.J.!.(.(.(.(.(._. X X.X X X X`.`. X.X.X.X.X.X.X%X%X%X%X%X%X%X%X%X%X%X%X%X%X%X*X;X-X;X;X;X;X-X,X,X,X,X,X,X,X,X,X,X2X3X3X3X3X2X,X,X,X,X,X2X3X3X3X3X3X3X2X,X,X,X,X-X;X;X;X;X-X-X;X;X*X%X%X%X%X&X X`.`.`.`._.(.(.(.(.(.(.!.G.M.v...[         ",
"                                                                                                                                                                                              h x ` 2.w.y.t.uXyXyXyXyXyXyXyXuXuXuXtXy.r.r.w.q.q.q.3.2.;.:.:.                                                                q q q q H K  .+.O.O.v.n.m.M.M.M.D.J.J.J.J.J.J.J.J.J.J.!.(.(.(.(.(.)._. X X X`.`.`.`. X X X X X X.X%X%X%X%X%X%X%X%X%X%X%X%X%X%X%X*X*X*X*X;X;X;X-X,X,X,X,X,X,X,X,X,X,X,X2X2X2X2X,X,X,X,X,X,X2X3X3X3X3X3X3X2X2X,X,X,X-X;X;X-X-X-X-X;X;X;X*X*X*X*X%X&X X X`.`._.(.(.(.(.(.(.(.!.G.B.v...} ] ] ] ",
"                                                                                                                                                                                                j x m 2.w.tXiXhXkXkXkXkXjXaXaXaXaXpXdXyXyXtXy.r.r.r.w.w.q.<.=.                                                              q q q w D T  .X.X.O.v.v.n.M.N.O.v.G.Q.J.J.J.J.J.J.J.J.!.(.(.(.(.(.(.)._.`.`.`.`.`.`. X`.`.`.`. X.X%X%X%X%X%X%X%X%X%X%X%X%X%X%X%X%X%X%X&X*X;X;X-X,X,X,X,X,X,X,X,X,X,X,X,X,X,X,X,X,X,X,X,X,X2X3X3X3X3X3X3X3X2X,X,X,X-X-X-X-X-X;X;X;X;X;X;X;X;X*X%X%X&X X`.`._.(.(.(.(.(.(.(.(.!.D.N.O...] ] ] ",
"                                                                                                                                                                                                  l M *.3.r.yXjXhXpXiXiXyXy.y.y.y.y.r.r.r.r.w.w.q.q.q.q.3.=.n                                                                                                                                                                                                                                                                                                                                                           ",
"                                                                                                                                                                                                    m m :.q.tXpXsXt.r.r.w.3.3.3.3.3.3.2.2.2.2.3.3.3.3.2.:.v d                                                                                                                                                                                                                                                                                                                                                           ",
"                                                                                                                                                                                                      M *.3.y.dXyXw.q.q.3.3.3.3.2.      d v M 2.w.q.3.2.:.v f                                                                                                                                                                                                                                                                                                                                                           ",
"                                                                                                                                                                                                      M *.3.r.yXtXq.2.3.3.3.3.3.        - ; d 2.r.w.3.2.:.v f                                                                                                                                                                                                                                                                                                                                                           "
};
