/* XPM */
static char *c15078f140c941fdbd9b5d0ad31a881bxSvVgWNtUdtUB8Yg[] = {
/* columns rows colors chars-per-pixel */
"64 64 16 1 ",
"  c #5B6567",
". c #495254",
"X c #BD971B",
"o c #AB7600",
"O c #1A1A18",
"+ c black",
"@ c #985400",
"# c #3D241E",
"$ c #49383D",
"% c #6D8084",
"& c #342C28",
"* c #D4CA4A",
"= c #809EA5",
"- c #C8AE3C",
"; c #947E43",
": c white",
/* pixels */
"                 .    .XoooO+XXXX                          . .  ",
".......................ooooO+Xooo...............................",
".......................ooo@O+Xooo...............................",
"....######$#$$$$$$$....ooooO+Xooo...############$#$$$$###$$.....",
"...#$..................ooo@O+Xooo..#$...........................",
"...#................ ..ooo@O+Xooo..#........................ ...",
"...#................ ..ooo@O+Xooo..#........................ ...",
"   $                %  XXXo&O*XXX  $                        %   ",
"...#................ ..ooo@O+Xooo..#........................ ...",
"   $                %  XXXo&O*XXX  .                        %   ",
"   $                =  XXXoO+*XXX  .                        =   ",
"   $                %  XXXoO+*XXX                           %   ",
"   $                =  XXXo&O*XXX    %%%=%====%             =   ",
"   $                =  XXXo&O*XXX              %            =   ",
"   $                =  XXXo&O*XXX               %           =   ",
"   .                =  XXXoOO-XXXXXXXXXXXXXXX;   %          =   ",
"   .                =  XXXo&O*XXXXXXXXXXXXXXXXX   %         =   ",
"                   %=  XXXXOO-XXXXXXXXXXXXXXXXX;   %       %=   ",
"     %%%%%=%=%======   XXXo&O--------X-X-XXXXXXX    %=======    ",
"                       XXXX&&&&&&&&&&O&OOO+oXXXX                ",
"                       XXXXo&&&&&&&&O&O&OOO+XXXX                ",
"    $$$$$$.$.......    XXXXXXXXXXXXXXXXXX@O+-XXX   $$$$....     ",
"   $.                  ;XXXXXXXXXXXXXXXXXXO+*XXX  $             ",
"   $                %   XXXXXXXXXXXXXXXXXoO+*XXX  $         %   ",
"   $                 =   ;XXXXXXXXXXXXXXXXO+*XXX  $         %   ",
"   $                  %               XXXoO+*XXX  $         %   ",
"   .                   %              XXXoO+*XXX  $         =   ",
"   $                    .$$$$$$...    XXXoO+*XXX  $         %   ",
"   .                                  XXXoO+*XXX  $         =   ",
"   $                               %  XXXoO+-XXX  $         =   ",
"   .                               %  XXXoOO*XXX  .         =   ",
"   $                               %  XXXoO&-XXX  $         =   ",
"   $                               %  XXXo&O-XXX  .         %   ",
"   $                               =  XXXoO&-XXX  $         =   ",
"   $                               =  XXXo&O-XXX  .         =   ",
"   $                              %=  XXXoO&-XXX  .         =   ",
"   $             ==================   XXXX&&-XXX  .         =   ",
"   .            =                     XXXoO&-XXX  .         =   ",
"   $           =                      XXXX&&-XXX  .         =   ",
"   .          =   ;XXXXXXXXXXXXXXXXXXXXXXoO&XXXX  .         =   ",
"   .         =   XXXXXXXXXXXXXXXXXXXXXXXXX&&-XXX  .         =   ",
"            =   ;XXXXXXXXXXXXXXXXXXXXXXXXXO&XXXX           %=   ",
"     %%=====    XXXXXXX------------X-X-XX@&&-XXX    %%%=====    ",
"                XXXXoOO&&&&&&O&O&O&O&O&O&&&&XXXX                ",
"                XXXXO+O&&&&&O&O&O&O&O&O&&&&oXXXX                ",
"    $$$$....    XXXXO+XXXXXXXXXXXXXXXXXXXXXXXXXX    $$$....     ",
"   $.           XXXoO+XXXXXXXXXXXXXXXXXXXXXXXXX;   $            ",
"   $         %  XXXXO+-XXXXXXXXXXXXXXXXXXXXXXXX   $         %   ",
"   $         %  XXXoO+XXXXXXXXXXXXXXXXXXXXXXX;   $          %   ",
"   $         %  XXXoO+-XXX                      $           %   ",
"   .         =  XXXoO+*XXX                     .            =   ",
"   $         =  XXXo&O*XXX   $$$$$$$$$$.$......             %   ",
"   .         =  XXXoO+*XXX  $.                              =   ",
"   .         =  XXXo&O-XXX  $                               =   ",
"   .         =  XXXoO+*XXX  $                               =   ",
"   $         %  XXX@&OXXXX  $                               =   ",
"   .         =  XXXo&O-XXX  .                               =   ",
"   .         =  XXX@&OXXXX  .                               =   ",
"   .         =  XXX@OOXXXX  .                               =   ",
"            %=  XXX@&OXXXX                                 %=   ",
"     %%%%====   XXX@OOXXXX    %%%%%%=====%=%================    ",
"                XXX@&OXXXX                                      ",
"                XXX@&&XXXX                                      ",
"$######$#$#$$$$$###OOOO#OOOO$O$$$$$$$$$$#$#$$#$#$######$#$#$$$$$"
};
